; generated by Slic3r 1.3.1-dev (Build adea0d9) on 2020-03-12 at 20:44:27

; external perimeters extrusion width = 0.44mm (2.86mm^3/s)
; perimeters extrusion width = 0.56mm (4.14mm^3/s)
; infill extrusion width = 0.50mm (3.66mm^3/s)
; solid infill extrusion width = 0.56mm (3.10mm^3/s)
; top infill extrusion width = 0.56mm (3.10mm^3/s)

M107
G92 E0
;D3D:START:START
T0
M104 S215 T0

G21
G90
M107
T0
G28
G29
M109 T0 S215 T0
G0 F3000
M107
T0
G92 E0
G0 X0 Y149 Z0.1 F3600
G1 Y49 E6.5 F1200
G0 Z1
G92 E0
; Filament gcode

G21 ; set units to millimeters
G90 ; use absolute coordinates
M82 ; use absolute distances for extrusion
G92 E0
G1 Z0.300 F7800.000
G1 E-2.00000 F2400.00000
G92 E0
G1 X59.054 Y79.071 F7800.000
G1 E2.00000 F2400.00000
G1 F1800.000
G1 X90.946 Y79.071 E3.05658
G1 X90.946 Y48.571 E4.06703
G1 X92.554 Y48.571 E4.12029
G1 X92.554 Y83.679 E5.28338
G1 X81.304 Y83.679 E5.65609
G1 X81.304 Y87.856 E5.79447
G1 X79.696 Y87.856 E5.84772
G1 X79.696 Y83.679 E5.98610
G1 X70.304 Y83.679 E6.29727
G1 X70.304 Y87.856 E6.43564
G1 X68.696 Y87.856 E6.48890
G1 X68.696 Y83.679 E6.62727
G1 X57.446 Y83.679 E6.99998
G1 X57.446 Y48.571 E8.16308
G1 X59.054 Y48.571 E8.21633
G1 X59.054 Y79.011 E9.22480
G1 X59.319 Y78.806 F7800.000
G1 F1800.000
G1 X90.681 Y78.806 E10.26378
G1 X90.681 Y48.306 E11.27423
G1 X92.819 Y48.306 E11.34509
G1 X92.819 Y83.944 E12.52578
G1 X81.569 Y83.944 E12.89849
G1 X81.569 Y88.121 E13.03686
G1 X79.431 Y88.121 E13.10772
G1 X79.431 Y83.944 E13.24609
G1 X70.569 Y83.944 E13.53966
G1 X70.569 Y88.121 E13.67804
G1 X68.431 Y88.121 E13.74889
G1 X68.431 Y83.944 E13.88727
G1 X57.181 Y83.944 E14.25998
G1 X57.181 Y48.306 E15.44067
G1 X59.319 Y48.306 E15.51153
G1 X59.319 Y78.746 E16.51999
G1 X59.585 Y78.540 F7800.000
G1 F1800.000
G1 X90.415 Y78.540 E17.54137
G1 X90.415 Y48.040 E18.55182
G1 X93.085 Y48.040 E18.64028
G1 X93.085 Y84.210 E19.83857
G1 X81.835 Y84.210 E20.21128
G1 X81.835 Y88.387 E20.34966
G1 X79.165 Y88.387 E20.43811
G1 X79.165 Y84.210 E20.57649
G1 X70.835 Y84.210 E20.85246
G1 X70.835 Y88.387 E20.99083
G1 X68.165 Y88.387 E21.07929
G1 X68.165 Y84.210 E21.21766
G1 X56.915 Y84.210 E21.59037
G1 X56.915 Y48.040 E22.78866
G1 X59.585 Y48.040 E22.87712
G1 X59.585 Y78.480 E23.88558
G1 X59.597 Y78.940 F7800.000
G1 E21.88558 F2400.00000
G92 E0
G1 X68.859 Y84.669 F7800.000
G1 E2.00000 F2400.00000
G1 F1800.000
G1 X68.859 Y85.045 E2.01246
G1 X70.141 Y83.762 E2.07259
G1 X70.141 Y84.138 E2.08505
G1 X68.859 Y85.420 E2.14519
G1 X68.859 Y85.796 E2.15765
G1 X70.141 Y84.513 E2.21778
G1 X70.141 Y84.889 E2.23024
G1 X68.859 Y86.172 E2.29038
G1 X68.859 Y86.548 E2.30284
G1 X70.141 Y85.265 E2.36297
G1 X70.141 Y85.641 E2.37543
G1 X68.859 Y86.924 E2.43557
G1 X68.859 Y87.300 E2.44803
G1 X70.141 Y86.017 E2.50816
G1 X70.141 Y86.393 E2.52062
G1 X68.859 Y87.675 E2.58076
G1 X68.859 Y87.693 E2.58135
G1 X69.217 Y87.693 E2.59322
G1 X70.141 Y86.768 E2.63657
G1 X70.141 Y87.144 E2.64903
G1 X69.592 Y87.693 E2.67477
G1 E0.67477 F2400.00000
G92 E0
G1 X79.859 Y84.944 F7800.000
G1 E2.00000 F2400.00000
G1 F1800.000
G1 X79.859 Y85.319 E2.01246
G1 X81.141 Y84.037 E2.07259
G1 X81.141 Y84.412 E2.08505
G1 X79.859 Y85.695 E2.14519
G1 X79.859 Y86.071 E2.15765
G1 X81.141 Y84.788 E2.21778
G1 X81.141 Y85.164 E2.23024
G1 X79.859 Y86.447 E2.29038
G1 X79.859 Y86.823 E2.30284
G1 X81.141 Y85.540 E2.36297
G1 X81.141 Y85.916 E2.37543
G1 X79.859 Y87.199 E2.43557
G1 X79.859 Y87.574 E2.44803
G1 X81.141 Y86.292 E2.50816
G1 X81.141 Y86.667 E2.52062
G1 X80.116 Y87.693 E2.56871
G1 X80.491 Y87.693 E2.58117
G1 X81.141 Y87.043 E2.61164
G1 X81.141 Y87.419 E2.62410
G1 X80.867 Y87.693 E2.63695
G1 E0.63695 F2400.00000
G92 E0
G1 X92.185 Y83.516 F7800.000
G1 E2.00000 F2400.00000
G1 F1800.000
G1 X92.391 Y83.310 E2.00969
G1 X92.391 Y82.934 E2.02215
G1 X91.809 Y83.516 E2.04946
G1 X91.433 Y83.516 E2.06191
G1 X92.391 Y82.558 E2.10684
G1 X92.391 Y82.182 E2.11930
G1 X91.057 Y83.516 E2.18184
G1 X90.681 Y83.516 E2.19429
G1 X92.391 Y81.806 E2.27445
G1 X92.391 Y81.431 E2.28691
G1 X90.306 Y83.516 E2.38469
G1 X89.930 Y83.516 E2.39714
G1 X92.391 Y81.055 E2.51254
G1 X92.391 Y80.679 E2.52499
G1 X89.554 Y83.516 E2.65800
G1 X89.178 Y83.516 E2.67046
G1 X92.391 Y80.303 E2.82109
G1 X92.391 Y79.927 E2.83355
G1 X88.802 Y83.516 E3.00179
G1 X88.426 Y83.516 E3.01425
G1 X92.391 Y79.551 E3.20011
G1 X92.391 Y79.176 E3.21257
G1 X88.051 Y83.516 E3.41604
G1 X87.675 Y83.516 E3.42850
G1 X92.391 Y78.800 E3.64960
G1 X92.391 Y78.424 E3.66205
G1 X87.299 Y83.516 E3.90076
G1 X86.923 Y83.516 E3.91322
G1 X91.206 Y79.234 E4.11399
G1 X90.830 Y79.234 E4.12644
G1 X86.547 Y83.516 E4.32721
G1 X86.171 Y83.516 E4.33966
G1 X90.454 Y79.234 E4.54043
G1 X90.079 Y79.234 E4.55288
G1 X85.796 Y83.516 E4.75365
G1 X85.420 Y83.516 E4.76610
G1 X89.703 Y79.234 E4.96687
G1 X89.327 Y79.234 E4.97932
G1 X85.044 Y83.516 E5.18009
G1 X84.668 Y83.516 E5.19254
G1 X88.951 Y79.234 E5.39331
G1 X88.575 Y79.234 E5.40577
G1 X84.292 Y83.516 E5.60653
G1 X83.917 Y83.516 E5.61899
G1 X88.199 Y79.234 E5.81975
G1 X87.824 Y79.234 E5.83221
G1 X83.541 Y83.516 E6.03297
G1 X83.165 Y83.516 E6.04543
G1 X87.448 Y79.234 E6.24619
G1 X87.072 Y79.234 E6.25865
G1 X82.789 Y83.516 E6.45941
G1 X82.413 Y83.516 E6.47187
G1 X86.696 Y79.234 E6.67263
G1 X86.320 Y79.234 E6.68509
G1 X82.037 Y83.516 E6.88585
G1 X81.662 Y83.516 E6.89831
G1 X85.944 Y79.234 E7.09907
G1 X85.569 Y79.234 E7.11153
G1 X81.286 Y83.516 E7.31229
G1 X80.935 Y83.516 E7.32392
G1 X80.935 Y83.867 E7.33555
G1 X79.859 Y84.944 E7.38601
G1 X79.859 Y84.568 E7.39846
G1 X85.193 Y79.234 E7.64851
G1 X84.817 Y79.234 E7.66097
G1 X79.859 Y84.192 E7.89340
G1 X79.859 Y83.816 E7.90585
G1 X84.441 Y79.234 E8.12067
G1 X84.065 Y79.234 E8.13312
G1 X79.782 Y83.516 E8.33389
G1 X79.407 Y83.516 E8.34634
G1 X83.690 Y79.234 E8.54711
G1 X83.314 Y79.234 E8.55956
G1 X79.031 Y83.516 E8.76033
G1 X78.655 Y83.516 E8.77278
G1 X82.938 Y79.234 E8.97355
G1 X82.562 Y79.234 E8.98601
G1 X78.279 Y83.516 E9.18677
G1 X77.903 Y83.516 E9.19923
G1 X82.186 Y79.234 E9.39999
G1 X81.810 Y79.234 E9.41245
G1 X77.527 Y83.516 E9.61321
G1 X77.152 Y83.516 E9.62567
G1 X81.435 Y79.234 E9.82643
G1 X81.059 Y79.234 E9.83889
G1 X76.776 Y83.516 E10.03965
G1 X76.400 Y83.516 E10.05211
G1 X80.683 Y79.234 E10.25287
G1 X80.307 Y79.234 E10.26533
G1 X76.024 Y83.516 E10.46609
G1 X75.648 Y83.516 E10.47855
G1 X79.931 Y79.234 E10.67931
G1 X79.555 Y79.234 E10.69177
G1 X75.272 Y83.516 E10.89253
G1 X74.897 Y83.516 E10.90499
G1 X79.180 Y79.234 E11.10575
G1 X78.804 Y79.234 E11.11821
G1 X74.521 Y83.516 E11.31897
G1 X74.145 Y83.516 E11.33143
G1 X78.428 Y79.234 E11.53219
G1 X78.052 Y79.234 E11.54465
G1 X73.769 Y83.516 E11.74542
G1 X73.393 Y83.516 E11.75787
G1 X77.676 Y79.234 E11.95864
G1 X77.300 Y79.234 E11.97109
G1 X73.018 Y83.516 E12.17186
G1 X72.642 Y83.516 E12.18431
G1 X76.925 Y79.234 E12.38508
G1 X76.549 Y79.234 E12.39753
G1 X72.266 Y83.516 E12.59830
G1 X71.890 Y83.516 E12.61075
G1 X76.173 Y79.234 E12.81152
G1 X75.797 Y79.234 E12.82397
G1 X71.514 Y83.516 E13.02474
G1 X71.138 Y83.516 E13.03720
G1 X75.421 Y79.234 E13.23796
G1 X75.045 Y79.234 E13.25042
G1 X70.763 Y83.516 E13.45118
G1 X70.387 Y83.516 E13.46364
G1 X74.670 Y79.234 E13.66440
G1 X74.294 Y79.234 E13.67686
G1 X70.011 Y83.516 E13.87762
G1 X69.935 Y83.516 E13.88014
G1 X69.935 Y83.593 E13.88266
G1 X68.859 Y84.669 E13.93311
G1 X68.859 Y84.293 E13.94557
G1 X73.918 Y79.234 E14.18274
G1 X73.542 Y79.234 E14.19519
G1 X68.859 Y83.917 E14.41474
G1 X68.859 Y83.541 E14.42720
G1 X73.166 Y79.234 E14.62913
G1 X72.791 Y79.234 E14.64159
G1 X68.508 Y83.516 E14.84235
G1 X68.132 Y83.516 E14.85481
G1 X72.415 Y79.234 E15.05557
G1 X72.039 Y79.234 E15.06803
G1 X67.756 Y83.516 E15.26879
G1 X67.380 Y83.516 E15.28125
G1 X71.663 Y79.234 E15.48201
G1 X71.287 Y79.234 E15.49447
G1 X67.004 Y83.516 E15.69523
G1 X66.628 Y83.516 E15.70769
G1 X70.911 Y79.234 E15.90845
G1 X70.536 Y79.234 E15.92091
G1 X66.253 Y83.516 E16.12167
G1 X65.877 Y83.516 E16.13413
G1 X70.160 Y79.234 E16.33489
G1 X69.784 Y79.234 E16.34735
G1 X65.501 Y83.516 E16.54811
G1 X65.125 Y83.516 E16.56057
G1 X69.408 Y79.234 E16.76133
G1 X69.032 Y79.234 E16.77379
G1 X64.749 Y83.516 E16.97455
G1 X64.374 Y83.516 E16.98701
G1 X68.656 Y79.234 E17.18777
G1 X68.281 Y79.234 E17.20023
G1 X63.998 Y83.516 E17.40100
G1 X63.622 Y83.516 E17.41345
G1 X67.905 Y79.234 E17.61422
G1 X67.529 Y79.234 E17.62667
G1 X63.246 Y83.516 E17.82744
G1 X62.870 Y83.516 E17.83989
G1 X67.153 Y79.234 E18.04066
G1 X66.777 Y79.234 E18.05311
G1 X62.494 Y83.516 E18.25388
G1 X62.119 Y83.516 E18.26633
G1 X66.401 Y79.234 E18.46710
G1 X66.026 Y79.234 E18.47955
G1 X61.743 Y83.516 E18.68032
G1 X61.367 Y83.516 E18.69278
G1 X65.650 Y79.234 E18.89354
G1 X65.274 Y79.234 E18.90600
G1 X60.991 Y83.516 E19.10676
G1 X60.615 Y83.516 E19.11922
G1 X64.898 Y79.234 E19.31998
G1 X64.522 Y79.234 E19.33244
G1 X60.239 Y83.516 E19.53320
G1 X59.864 Y83.516 E19.54566
G1 X64.147 Y79.234 E19.74642
G1 X63.771 Y79.234 E19.75888
G1 X59.488 Y83.516 E19.95964
G1 X59.112 Y83.516 E19.97210
G1 X63.395 Y79.234 E20.17286
G1 X63.019 Y79.234 E20.18532
G1 X58.736 Y83.516 E20.38608
G1 X58.360 Y83.516 E20.39854
G1 X62.643 Y79.234 E20.59930
G1 X62.267 Y79.234 E20.61176
G1 X57.984 Y83.516 E20.81252
G1 X57.609 Y83.516 E20.82498
G1 X61.892 Y79.234 E21.02574
G1 X61.516 Y79.234 E21.03820
G1 X57.609 Y83.141 E21.22135
G1 X57.609 Y82.765 E21.23381
G1 X61.140 Y79.234 E21.39934
G1 X60.764 Y79.234 E21.41180
G1 X57.609 Y82.389 E21.55971
G1 X57.609 Y82.013 E21.57217
G1 X60.388 Y79.234 E21.70247
G1 X60.012 Y79.234 E21.71493
G1 X57.609 Y81.637 E21.82761
G1 X57.609 Y81.262 E21.84007
G1 X59.637 Y79.234 E21.93513
G1 X59.261 Y79.234 E21.94759
G1 X57.609 Y80.886 E22.02504
G1 X57.609 Y80.510 E22.03749
G1 X58.891 Y79.227 E22.09763
G1 X58.891 Y78.851 E22.11009
G1 X57.609 Y80.134 E22.17023
G1 X57.609 Y79.758 E22.18268
G1 X58.891 Y78.475 E22.24282
G1 X58.891 Y78.100 E22.25528
G1 X57.609 Y79.382 E22.31542
G1 X57.609 Y79.007 E22.32787
G1 X58.891 Y77.724 E22.38801
G1 X58.891 Y77.348 E22.40047
G1 X57.609 Y78.631 E22.46061
G1 X57.609 Y78.255 E22.47306
G1 X58.891 Y76.972 E22.53320
G1 X58.891 Y76.596 E22.54566
G1 X57.609 Y77.879 E22.60580
G1 X57.609 Y77.503 E22.61825
G1 X58.891 Y76.220 E22.67839
G1 X58.891 Y75.845 E22.69085
G1 X57.609 Y77.127 E22.75098
G1 X57.609 Y76.752 E22.76344
G1 X58.891 Y75.469 E22.82358
G1 X58.891 Y75.093 E22.83604
G1 X57.609 Y76.376 E22.89617
G1 X57.609 Y76.000 E22.90863
G1 X58.891 Y74.717 E22.96877
G1 X58.891 Y74.341 E22.98123
G1 X57.609 Y75.624 E23.04136
G1 X57.609 Y75.248 E23.05382
G1 X58.891 Y73.965 E23.11396
G1 X58.891 Y73.590 E23.12642
G1 X57.609 Y74.873 E23.18655
G1 X57.609 Y74.497 E23.19901
G1 X58.891 Y73.214 E23.25915
G1 X58.891 Y72.838 E23.27161
G1 X57.609 Y74.121 E23.33174
G1 X57.609 Y73.745 E23.34420
G1 X58.891 Y72.462 E23.40434
G1 X58.891 Y72.086 E23.41680
G1 X57.609 Y73.369 E23.47693
G1 X57.609 Y72.993 E23.48939
G1 X58.891 Y71.710 E23.54953
G1 X58.891 Y71.335 E23.56198
G1 X57.609 Y72.618 E23.62212
G1 X57.609 Y72.242 E23.63458
G1 X58.891 Y70.959 E23.69472
G1 X58.891 Y70.583 E23.70717
G1 X57.609 Y71.866 E23.76731
G1 X57.609 Y71.490 E23.77977
G1 X58.891 Y70.207 E23.83991
G1 X58.891 Y69.831 E23.85236
G1 X57.609 Y71.114 E23.91250
G1 X57.609 Y70.738 E23.92496
G1 X58.891 Y69.455 E23.98510
G1 X58.891 Y69.080 E23.99755
G1 X57.609 Y70.363 E24.05769
G1 X57.609 Y69.987 E24.07015
G1 X58.891 Y68.704 E24.13029
G1 X58.891 Y68.328 E24.14274
G1 X57.609 Y69.611 E24.20288
G1 X57.609 Y69.235 E24.21534
G1 X58.891 Y67.952 E24.27548
G1 X58.891 Y67.576 E24.28793
G1 X57.609 Y68.859 E24.34807
G1 X57.609 Y68.483 E24.36053
G1 X58.891 Y67.201 E24.42066
G1 X58.891 Y66.825 E24.43312
G1 X57.609 Y68.108 E24.49326
G1 X57.609 Y67.732 E24.50572
G1 X58.891 Y66.449 E24.56585
G1 X58.891 Y66.073 E24.57831
G1 X57.609 Y67.356 E24.63845
G1 X57.609 Y66.980 E24.65091
G1 X58.891 Y65.697 E24.71104
G1 X58.891 Y65.321 E24.72350
G1 X57.609 Y66.604 E24.78364
G1 X57.609 Y66.228 E24.79610
G1 X58.891 Y64.946 E24.85623
G1 X58.891 Y64.570 E24.86869
G1 X57.609 Y65.853 E24.92883
G1 X57.609 Y65.477 E24.94129
G1 X58.891 Y64.194 E25.00142
G1 X58.891 Y63.818 E25.01388
G1 X57.609 Y65.101 E25.07402
G1 X57.609 Y64.725 E25.08647
G1 X58.891 Y63.442 E25.14661
G1 X58.891 Y63.066 E25.15907
G1 X57.609 Y64.349 E25.21921
G1 X57.609 Y63.974 E25.23166
G1 X58.891 Y62.691 E25.29180
G1 X58.891 Y62.315 E25.30426
G1 X57.609 Y63.598 E25.36440
G1 X57.609 Y63.222 E25.37685
G1 X58.891 Y61.939 E25.43699
G1 X58.891 Y61.563 E25.44945
G1 X57.609 Y62.846 E25.50959
G1 X57.609 Y62.470 E25.52204
G1 X58.891 Y61.187 E25.58218
G1 X58.891 Y60.811 E25.59464
G1 X57.609 Y62.094 E25.65478
G1 X57.609 Y61.719 E25.66723
G1 X58.891 Y60.436 E25.72737
G1 X58.891 Y60.060 E25.73983
G1 X57.609 Y61.343 E25.79997
G1 X57.609 Y60.967 E25.81242
G1 X58.891 Y59.684 E25.87256
G1 X58.891 Y59.308 E25.88502
G1 X57.609 Y60.591 E25.94515
G1 X57.609 Y60.215 E25.95761
G1 X58.891 Y58.932 E26.01775
G1 X58.891 Y58.556 E26.03021
G1 X57.609 Y59.839 E26.09034
G1 X57.609 Y59.464 E26.10280
G1 X58.891 Y58.181 E26.16294
G1 X58.891 Y57.805 E26.17540
G1 X57.609 Y59.088 E26.23553
G1 X57.609 Y58.712 E26.24799
G1 X58.891 Y57.429 E26.30813
G1 X58.891 Y57.053 E26.32059
G1 X57.609 Y58.336 E26.38072
G1 X57.609 Y57.960 E26.39318
G1 X58.891 Y56.677 E26.45332
G1 X58.891 Y56.302 E26.46577
G1 X57.609 Y57.584 E26.52591
G1 X57.609 Y57.209 E26.53837
G1 X58.891 Y55.926 E26.59851
G1 X58.891 Y55.550 E26.61096
G1 X57.609 Y56.833 E26.67110
G1 X57.609 Y56.457 E26.68356
G1 X58.891 Y55.174 E26.74370
G1 X58.891 Y54.798 E26.75615
G1 X57.609 Y56.081 E26.81629
G1 X57.609 Y55.705 E26.82875
G1 X58.891 Y54.422 E26.88889
G1 X58.891 Y54.047 E26.90134
G1 X57.609 Y55.329 E26.96148
G1 X57.609 Y54.954 E26.97394
G1 X58.891 Y53.671 E27.03408
G1 X58.891 Y53.295 E27.04653
G1 X57.609 Y54.578 E27.10667
G1 X57.609 Y54.202 E27.11913
G1 X58.891 Y52.919 E27.17927
G1 X58.891 Y52.543 E27.19172
G1 X57.609 Y53.826 E27.25186
G1 X57.609 Y53.450 E27.26432
G1 X58.891 Y52.167 E27.32445
G1 X58.891 Y51.792 E27.33691
G1 X57.609 Y53.075 E27.39705
G1 X57.609 Y52.699 E27.40951
G1 X58.891 Y51.416 E27.46964
G1 X58.891 Y51.040 E27.48210
G1 X57.609 Y52.323 E27.54224
G1 X57.609 Y51.947 E27.55470
G1 X58.891 Y50.664 E27.61483
G1 X58.891 Y50.288 E27.62729
G1 X57.609 Y51.571 E27.68743
G1 X57.609 Y51.195 E27.69989
G1 X58.891 Y49.912 E27.76002
G1 X58.891 Y49.537 E27.77248
G1 X57.609 Y50.820 E27.83262
G1 X57.609 Y50.444 E27.84508
G1 X58.891 Y49.161 E27.90521
G1 X58.891 Y48.785 E27.91767
G1 X57.609 Y50.068 E27.97781
G1 X57.609 Y49.692 E27.99026
G1 X58.567 Y48.734 E28.03520
G1 X58.191 Y48.734 E28.04765
G1 X57.609 Y49.316 E28.07497
G1 X57.609 Y48.940 E28.08743
G1 X57.815 Y48.734 E28.09713
G1 E26.09713 F2400.00000
G92 E0
G1 X91.640 Y48.734 F7800.000
G1 E2.00000 F2400.00000
G1 F1800.000
G1 X91.109 Y49.265 E2.02491
G1 X91.109 Y49.641 E2.03736
G1 X92.016 Y48.734 E2.07989
G1 X92.391 Y48.734 E2.09234
G1 X91.109 Y50.017 E2.15248
G1 X91.109 Y50.392 E2.16494
G1 X92.391 Y49.109 E2.22508
G1 X92.391 Y49.485 E2.23753
G1 X91.109 Y50.768 E2.29767
G1 X91.109 Y51.144 E2.31013
G1 X92.391 Y49.861 E2.37027
G1 X92.391 Y50.237 E2.38272
G1 X91.109 Y51.520 E2.44286
G1 X91.109 Y51.896 E2.45532
G1 X92.391 Y50.613 E2.51546
G1 X92.391 Y50.989 E2.52791
G1 X91.109 Y52.272 E2.58805
G1 X91.109 Y52.647 E2.60051
G1 X92.391 Y51.364 E2.66064
G1 X92.391 Y51.740 E2.67310
G1 X91.109 Y53.023 E2.73324
G1 X91.109 Y53.399 E2.74570
G1 X92.391 Y52.116 E2.80583
G1 X92.391 Y52.492 E2.81829
G1 X91.109 Y53.775 E2.87843
G1 X91.109 Y54.151 E2.89089
G1 X92.391 Y52.868 E2.95102
G1 X92.391 Y53.244 E2.96348
G1 X91.109 Y54.526 E3.02362
G1 X91.109 Y54.902 E3.03608
G1 X92.391 Y53.619 E3.09621
G1 X92.391 Y53.995 E3.10867
G1 X91.109 Y55.278 E3.16881
G1 X91.109 Y55.654 E3.18127
G1 X92.391 Y54.371 E3.24140
G1 X92.391 Y54.747 E3.25386
G1 X91.109 Y56.030 E3.31400
G1 X91.109 Y56.406 E3.32645
G1 X92.391 Y55.123 E3.38659
G1 X92.391 Y55.499 E3.39905
G1 X91.109 Y56.781 E3.45919
G1 X91.109 Y57.157 E3.47164
G1 X92.391 Y55.874 E3.53178
G1 X92.391 Y56.250 E3.54424
G1 X91.109 Y57.533 E3.60438
G1 X91.109 Y57.909 E3.61683
G1 X92.391 Y56.626 E3.67697
G1 X92.391 Y57.002 E3.68943
G1 X91.109 Y58.285 E3.74957
G1 X91.109 Y58.661 E3.76202
G1 X92.391 Y57.378 E3.82216
