; generated by Slic3r 1.3.1-dev (Build adea0d9) on 2020-03-12 at 20:44:00

; external perimeters extrusion width = 0.44mm (2.86mm^3/s)
; perimeters extrusion width = 0.56mm (4.14mm^3/s)
; infill extrusion width = 0.50mm (3.66mm^3/s)
; solid infill extrusion width = 0.56mm (3.10mm^3/s)
; top infill extrusion width = 0.56mm (3.10mm^3/s)

M107
G92 E0
;D3D:START:START
T0
M104 S215 T0

G21
G90
M107
T0
G28
G29
M109 T0 S215 T0
G0 F3000
M107
T0
G92 E0
G0 X0 Y149 Z0.1 F3600
G1 Y49 E6.5 F1200
G0 Z1
G92 E0
; Filament gcode

G21 ; set units to millimeters
G90 ; use absolute coordinates
M82 ; use absolute distances for extrusion
G92 E0
G1 Z0.300 F7800.000
G1 E-2.00000 F2400.00000
G92 E0
G1 X59.054 Y78.471 F7800.000
G1 E2.00000 F2400.00000
G1 F1800.000
G1 X90.946 Y78.471 E3.05658
G1 X90.946 Y38.471 E4.38176
G1 X92.554 Y38.471 E4.43502
G1 X92.554 Y83.079 E5.91285
G1 X92.054 Y83.079 E5.92941
G1 X92.054 Y96.344 E6.36887
G1 X89.446 Y96.344 E6.45525
G1 X89.446 Y83.079 E6.89471
G1 X60.554 Y83.079 E7.85190
G1 X60.554 Y96.344 E8.29136
G1 X57.946 Y96.344 E8.37775
G1 X57.946 Y83.079 E8.81720
G1 X57.446 Y83.079 E8.83377
G1 X57.446 Y38.471 E10.31159
G1 X59.054 Y38.471 E10.36485
G1 X59.054 Y78.411 E11.68804
G1 X59.319 Y78.206 F7800.000
G1 F1800.000
G1 X90.681 Y78.206 E12.72703
G1 X90.681 Y38.206 E14.05221
G1 X92.819 Y38.206 E14.12306
G1 X92.819 Y83.344 E15.61849
G1 X92.319 Y83.344 E15.63505
G1 X92.319 Y96.609 E16.07451
G1 X89.181 Y96.609 E16.17849
G1 X89.181 Y83.344 E16.61795
G1 X60.819 Y83.344 E17.55755
G1 X60.819 Y96.609 E17.99700
G1 X57.681 Y96.609 E18.10099
G1 X57.681 Y83.344 E18.54044
G1 X57.181 Y83.344 E18.55701
G1 X57.181 Y38.206 E20.05243
G1 X59.319 Y38.206 E20.12329
G1 X59.319 Y78.146 E21.44648
G1 X59.585 Y77.940 F7800.000
G1 F1800.000
G1 X90.415 Y77.940 E22.46787
G1 X90.415 Y37.940 E23.79305
G1 X93.085 Y37.940 E23.88150
G1 X93.085 Y83.610 E25.39453
G1 X92.585 Y83.610 E25.41109
G1 X92.585 Y96.875 E25.85055
G1 X88.915 Y96.875 E25.97214
G1 X88.915 Y83.610 E26.41159
G1 X61.085 Y83.610 E27.33359
G1 X61.085 Y96.875 E27.77304
G1 X57.415 Y96.875 E27.89463
G1 X57.415 Y83.610 E28.33408
G1 X56.915 Y83.610 E28.35065
G1 X56.915 Y37.940 E29.86367
G1 X59.585 Y37.940 E29.95213
G1 X59.585 Y77.880 E31.27532
G1 X59.594 Y78.340 F7800.000
G1 E29.27532 F2400.00000
G92 E0
G1 X60.391 Y83.083 F7800.000
G1 E2.00000 F2400.00000
G1 F1800.000
G1 X58.109 Y85.366 E2.10712
G1 X58.109 Y85.742 E2.11960
G1 X60.391 Y83.459 E2.22672
G1 X60.391 Y83.835 E2.23920
G1 X58.109 Y86.118 E2.34632
G1 X58.109 Y86.494 E2.35880
G1 X60.391 Y84.211 E2.46592
G1 X60.391 Y84.587 E2.47841
G1 X58.109 Y86.870 E2.58553
G1 X58.109 Y87.247 E2.59801
G1 X60.391 Y84.964 E2.70513
G1 X60.391 Y85.340 E2.71761
G1 X58.109 Y87.623 E2.82473
G1 X58.109 Y87.999 E2.83721
G1 X60.391 Y85.716 E2.94433
G1 X60.391 Y86.092 E2.95681
G1 X58.109 Y88.375 E3.06393
G1 X58.109 Y88.751 E3.07641
G1 X60.391 Y86.468 E3.18353
G1 X60.391 Y86.845 E3.19602
G1 X58.109 Y89.128 E3.30314
G1 X58.109 Y89.504 E3.31562
G1 X60.391 Y87.221 E3.42274
G1 X60.391 Y87.597 E3.43522
G1 X58.109 Y89.880 E3.54234
G1 X58.109 Y90.256 E3.55482
G1 X60.391 Y87.973 E3.66194
G1 X60.391 Y88.350 E3.67442
G1 X58.109 Y90.632 E3.78154
G1 X58.109 Y91.009 E3.79402
G1 X60.391 Y88.726 E3.90114
G1 X60.391 Y89.102 E3.91363
G1 X58.109 Y91.385 E4.02074
G1 X58.109 Y91.761 E4.03323
G1 X60.391 Y89.478 E4.14035
G1 X60.391 Y89.854 E4.15283
G1 X58.109 Y92.137 E4.25995
G1 X58.109 Y92.513 E4.27243
G1 X60.391 Y90.231 E4.37955
G1 X60.391 Y90.607 E4.39203
G1 X58.109 Y92.890 E4.49915
G1 X58.109 Y93.266 E4.51163
G1 X60.391 Y90.983 E4.61875
G1 X60.391 Y91.359 E4.63124
G1 X58.109 Y93.642 E4.73835
G1 X58.109 Y94.018 E4.75084
G1 X60.391 Y91.735 E4.85796
G1 X60.391 Y92.112 E4.87044
G1 X58.109 Y94.394 E4.97756
G1 X58.109 Y94.771 E4.99004
G1 X60.391 Y92.488 E5.09716
G1 X60.391 Y92.864 E5.10964
G1 X58.109 Y95.147 E5.21676
G1 X58.109 Y95.523 E5.22924
G1 X60.391 Y93.240 E5.33636
G1 X60.391 Y93.616 E5.34884
G1 X58.109 Y95.899 E5.45596
G1 X58.109 Y96.181 E5.46532
G1 X58.203 Y96.181 E5.46845
G1 X60.391 Y93.993 E5.57115
G1 X60.391 Y94.369 E5.58363
G1 X58.579 Y96.181 E5.66867
G1 X58.955 Y96.181 E5.68116
G1 X60.391 Y94.745 E5.74855
G1 X60.391 Y95.121 E5.76103
G1 X59.331 Y96.181 E5.81078
G1 X59.708 Y96.181 E5.82326
G1 X60.391 Y95.497 E5.85535
G1 X60.391 Y95.874 E5.86783
G1 X60.084 Y96.181 E5.88227
G1 E3.88227 F2400.00000
G92 E0
G1 X91.685 Y96.181 F7800.000
G1 E2.00000 F2400.00000
G1 F1800.000
G1 X91.891 Y95.975 E2.00970
G1 X91.891 Y95.598 E2.02218
G1 X91.309 Y96.181 E2.04954
G1 X90.932 Y96.181 E2.06202
G1 X91.891 Y95.222 E2.10702
G1 X91.891 Y94.846 E2.11950
G1 X90.556 Y96.181 E2.18216
G1 X90.180 Y96.181 E2.19464
G1 X91.891 Y94.470 E2.27495
G1 X91.891 Y94.094 E2.28744
G1 X89.804 Y96.181 E2.38540
G1 X89.609 Y96.181 E2.39187
G1 X89.609 Y96.000 E2.39788
G1 X91.891 Y93.717 E2.50500
G1 X91.891 Y93.341 E2.51748
G1 X89.609 Y95.624 E2.62460
G1 X89.609 Y95.248 E2.63708
G1 X91.891 Y92.965 E2.74420
G1 X91.891 Y92.589 E2.75668
G1 X89.609 Y94.872 E2.86380
G1 X89.609 Y94.495 E2.87629
G1 X91.891 Y92.213 E2.98341
G1 X91.891 Y91.836 E2.99589
G1 X89.609 Y94.119 E3.10301
G1 X89.609 Y93.743 E3.11549
G1 X91.891 Y91.460 E3.22261
G1 X91.891 Y91.084 E3.23509
G1 X89.609 Y93.367 E3.34221
G1 X89.609 Y92.991 E3.35469
G1 X91.891 Y90.708 E3.46181
G1 X91.891 Y90.331 E3.47429
G1 X89.609 Y92.614 E3.58141
G1 X89.609 Y92.238 E3.59390
G1 X91.891 Y89.955 E3.70101
G1 X91.891 Y89.579 E3.71350
G1 X89.609 Y91.862 E3.82062
G1 X89.609 Y91.486 E3.83310
G1 X91.891 Y89.203 E3.94022
G1 X91.891 Y88.827 E3.95270
G1 X89.609 Y91.110 E4.05982
G1 X89.609 Y90.733 E4.07230
G1 X91.891 Y88.450 E4.17942
G1 X91.891 Y88.074 E4.19190
G1 X89.609 Y90.357 E4.29902
G1 X89.609 Y89.981 E4.31150
G1 X91.891 Y87.698 E4.41862
G1 X91.891 Y87.322 E4.43111
G1 X89.609 Y89.605 E4.53823
G1 X89.609 Y89.229 E4.55071
G1 X91.891 Y86.946 E4.65783
G1 X91.891 Y86.569 E4.67031
G1 X89.609 Y88.852 E4.77743
G1 X89.609 Y88.476 E4.78991
G1 X91.891 Y86.193 E4.89703
G1 X91.891 Y85.817 E4.90951
G1 X89.609 Y88.100 E5.01663
G1 X89.609 Y87.724 E5.02911
G1 X91.891 Y85.441 E5.13623
G1 X91.891 Y85.065 E5.14872
G1 X89.609 Y87.348 E5.25584
G1 X89.609 Y86.971 E5.26832
G1 X91.891 Y84.688 E5.37544
G1 X91.891 Y84.312 E5.38792
G1 X89.609 Y86.595 E5.49504
G1 X89.609 Y86.219 E5.50752
G1 X91.891 Y83.936 E5.61464
G1 X91.891 Y83.560 E5.62712
G1 X89.609 Y85.843 E5.73424
G1 X89.609 Y85.467 E5.74672
G1 X91.891 Y83.184 E5.85384
G1 X91.891 Y82.807 E5.86633
G1 X89.609 Y85.090 E5.97344
G1 X89.609 Y84.714 E5.98593
G1 X92.391 Y81.931 E6.11651
G1 X92.391 Y81.555 E6.12899
G1 X89.609 Y84.338 E6.25957
G1 X89.609 Y83.962 E6.27205
G1 X92.391 Y81.179 E6.40263
G1 X92.391 Y80.803 E6.41511
G1 X89.609 Y83.586 E6.54569
G1 X89.609 Y83.209 E6.55818
G1 X92.391 Y80.426 E6.68876
G1 X92.391 Y80.050 E6.70124
G1 X89.525 Y82.916 E6.83573
G1 X89.149 Y82.916 E6.84821
G1 X92.391 Y79.674 E7.00035
G1 X92.391 Y79.298 E7.01283
G1 X88.773 Y82.916 E7.18263
G1 X88.397 Y82.916 E7.19511
G1 X92.391 Y78.922 E7.38255
G1 X92.391 Y78.545 E7.39504
G1 X88.020 Y82.916 E7.60013
G1 X87.644 Y82.916 E7.61262
G1 X92.391 Y78.169 E7.83536
G1 X92.391 Y77.793 E7.84785
G1 X87.268 Y82.916 E8.08825
G1 X86.892 Y82.916 E8.10073
G1 X91.175 Y78.634 E8.30169
G1 X90.799 Y78.634 E8.31418
G1 X86.516 Y82.916 E8.51514
G1 X86.139 Y82.916 E8.52762
G1 X90.422 Y78.634 E8.72859
G1 X90.046 Y78.634 E8.74107
G1 X85.763 Y82.916 E8.94203
G1 X85.387 Y82.916 E8.95451
G1 X89.670 Y78.634 E9.15548
G1 X89.294 Y78.634 E9.16796
G1 X85.011 Y82.916 E9.36892
G1 X84.635 Y82.916 E9.38140
G1 X88.918 Y78.634 E9.58237
G1 X88.541 Y78.634 E9.59485
G1 X84.258 Y82.916 E9.79581
G1 X83.882 Y82.916 E9.80830
G1 X88.165 Y78.634 E10.00926
G1 X87.789 Y78.634 E10.02174
G1 X83.506 Y82.916 E10.22270
G1 X83.130 Y82.916 E10.23519
G1 X87.413 Y78.634 E10.43615
G1 X87.037 Y78.634 E10.44863
G1 X82.754 Y82.916 E10.64960
G1 X82.377 Y82.916 E10.66208
G1 X86.660 Y78.634 E10.86304
G1 X86.284 Y78.634 E10.87552
G1 X82.001 Y82.916 E11.07649
G1 X81.625 Y82.916 E11.08897
G1 X85.908 Y78.634 E11.28993
G1 X85.532 Y78.634 E11.30241
G1 X81.249 Y82.916 E11.50338
G1 X80.873 Y82.916 E11.51586
G1 X85.156 Y78.634 E11.71682
G1 X84.779 Y78.634 E11.72931
G1 X80.496 Y82.916 E11.93027
G1 X80.120 Y82.916 E11.94275
G1 X84.403 Y78.634 E12.14372
G1 X84.027 Y78.634 E12.15620
G1 X79.744 Y82.916 E12.35716
G1 X79.368 Y82.916 E12.36964
G1 X83.651 Y78.634 E12.57061
G1 X83.275 Y78.634 E12.58309
G1 X78.992 Y82.916 E12.78405
G1 X78.615 Y82.916 E12.79653
G1 X82.898 Y78.634 E12.99750
G1 X82.522 Y78.634 E13.00998
G1 X78.239 Y82.916 E13.21094
G1 X77.863 Y82.916 E13.22343
G1 X82.146 Y78.634 E13.42439
G1 X81.770 Y78.634 E13.43687
G1 X77.487 Y82.916 E13.63783
G1 X77.111 Y82.916 E13.65032
G1 X81.394 Y78.634 E13.85128
G1 X81.017 Y78.634 E13.86376
G1 X76.734 Y82.916 E14.06473
G1 X76.358 Y82.916 E14.07721
G1 X80.641 Y78.634 E14.27817
G1 X80.265 Y78.634 E14.29065
G1 X75.982 Y82.916 E14.49162
G1 X75.606 Y82.916 E14.50410
G1 X79.889 Y78.634 E14.70506
G1 X79.512 Y78.634 E14.71754
G1 X75.230 Y82.916 E14.91851
G1 X74.853 Y82.916 E14.93099
G1 X79.136 Y78.634 E15.13195
G1 X78.760 Y78.634 E15.14444
G1 X74.477 Y82.916 E15.34540
G1 X74.101 Y82.916 E15.35788
G1 X78.384 Y78.634 E15.55885
G1 X78.008 Y78.634 E15.57133
G1 X73.725 Y82.916 E15.77229
G1 X73.349 Y82.916 E15.78477
G1 X77.631 Y78.634 E15.98574
G1 X77.255 Y78.634 E15.99822
G1 X72.972 Y82.916 E16.19918
G1 X72.596 Y82.916 E16.21166
G1 X76.879 Y78.634 E16.41263
G1 X76.503 Y78.634 E16.42511
G1 X72.220 Y82.916 E16.62607
G1 X71.844 Y82.916 E16.63856
G1 X76.127 Y78.634 E16.83952
G1 X75.750 Y78.634 E16.85200
G1 X71.468 Y82.916 E17.05296
G1 X71.091 Y82.916 E17.06545
G1 X75.374 Y78.634 E17.26641
G1 X74.998 Y78.634 E17.27889
G1 X70.715 Y82.916 E17.47986
G1 X70.339 Y82.916 E17.49234
G1 X74.622 Y78.634 E17.69330
G1 X74.246 Y78.634 E17.70578
G1 X69.963 Y82.916 E17.90675
G1 X69.587 Y82.916 E17.91923
G1 X73.869 Y78.634 E18.12019
G1 X73.493 Y78.634 E18.13267
G1 X69.210 Y82.916 E18.33364
G1 X68.834 Y82.916 E18.34612
G1 X73.117 Y78.634 E18.54708
G1 X72.741 Y78.634 E18.55957
G1 X68.458 Y82.916 E18.76053
G1 X68.082 Y82.916 E18.77301
G1 X72.365 Y78.634 E18.97398
G1 X71.988 Y78.634 E18.98646
G1 X67.706 Y82.916 E19.18742
G1 X67.329 Y82.916 E19.19990
G1 X71.612 Y78.634 E19.40087
G1 X71.236 Y78.634 E19.41335
G1 X66.953 Y82.916 E19.61431
G1 X66.577 Y82.916 E19.62679
G1 X70.860 Y78.634 E19.82776
G1 X70.484 Y78.634 E19.84024
G1 X66.201 Y82.916 E20.04120
G1 X65.825 Y82.916 E20.05369
G1 X70.107 Y78.634 E20.25465
G1 X69.731 Y78.634 E20.26713
G1 X65.448 Y82.916 E20.46809
G1 X65.072 Y82.916 E20.48058
G1 X69.355 Y78.634 E20.68154
G1 X68.979 Y78.634 E20.69402
G1 X64.696 Y82.916 E20.89499
G1 X64.320 Y82.916 E20.90747
G1 X68.603 Y78.634 E21.10843
G1 X68.226 Y78.634 E21.12091
G1 X63.944 Y82.916 E21.32188
G1 X63.567 Y82.916 E21.33436
G1 X67.850 Y78.634 E21.53532
G1 X67.474 Y78.634 E21.54781
G1 X63.191 Y82.916 E21.74877
G1 X62.815 Y82.916 E21.76125
G1 X67.098 Y78.634 E21.96221
G1 X66.722 Y78.634 E21.97470
G1 X62.439 Y82.916 E22.17566
G1 X62.062 Y82.916 E22.18814
G1 X66.345 Y78.634 E22.38911
G1 X65.969 Y78.634 E22.40159
G1 X61.686 Y82.916 E22.60255
G1 X61.310 Y82.916 E22.61503
G1 X65.593 Y78.634 E22.81600
G1 X65.217 Y78.634 E22.82848
G1 X60.934 Y82.916 E23.02944
G1 X60.558 Y82.916 E23.04192
G1 X64.841 Y78.634 E23.24289
G1 X64.464 Y78.634 E23.25537
G1 X58.109 Y84.989 E23.55360
G1 X58.109 Y84.613 E23.56608
G1 X64.088 Y78.634 E23.84666
G1 X63.712 Y78.634 E23.85914
G1 X58.109 Y84.237 E24.12207
G1 X58.109 Y83.861 E24.13455
G1 X63.336 Y78.634 E24.37982
G1 X62.960 Y78.634 E24.39231
G1 X58.109 Y83.485 E24.61993
G1 X58.109 Y83.108 E24.63241
G1 X62.583 Y78.634 E24.84238
G1 X62.207 Y78.634 E24.85486
G1 X57.924 Y82.916 E25.05583
G1 X57.609 Y82.916 E25.06630
G1 X57.609 Y82.856 E25.06831
G1 X61.831 Y78.634 E25.26643
G1 X61.455 Y78.634 E25.27892
G1 X57.609 Y82.480 E25.45939
G1 X57.609 Y82.104 E25.47187
G1 X61.079 Y78.634 E25.63469
G1 X60.702 Y78.634 E25.64718
G1 X57.609 Y81.727 E25.79235
G1 X57.609 Y81.351 E25.80483
G1 X60.326 Y78.634 E25.93235
G1 X59.950 Y78.634 E25.94483
G1 X57.609 Y80.975 E26.05469
G1 X57.609 Y80.599 E26.06717
G1 X59.574 Y78.634 E26.15939
G1 X59.198 Y78.634 E26.17187
G1 X57.609 Y80.223 E26.24643
G1 X57.609 Y79.846 E26.25891
G1 X58.891 Y78.563 E26.31911
G1 X58.891 Y78.187 E26.33159
G1 X57.609 Y79.470 E26.39179
G1 X57.609 Y79.094 E26.40427
G1 X58.891 Y77.811 E26.46447
G1 X58.891 Y77.435 E26.47695
G1 X57.609 Y78.718 E26.53715
G1 X57.609 Y78.342 E26.54963
G1 X58.891 Y77.059 E26.60983
G1 X58.891 Y76.682 E26.62231
G1 X57.609 Y77.965 E26.68251
G1 X57.609 Y77.589 E26.69499
G1 X58.891 Y76.306 E26.75519
G1 X58.891 Y75.930 E26.76767
G1 X57.609 Y77.213 E26.82787
G1 X57.609 Y76.837 E26.84035
G1 X58.891 Y75.554 E26.90055
G1 X58.891 Y75.178 E26.91303
G1 X57.609 Y76.461 E26.97323
G1 X57.609 Y76.084 E26.98571
G1 X58.891 Y74.801 E27.04591
G1 X58.891 Y74.425 E27.05839
G1 X57.609 Y75.708 E27.11859
G1 X57.609 Y75.332 E27.13107
G1 X58.891 Y74.049 E27.19127
G1 X58.891 Y73.673 E27.20375
G1 X57.609 Y74.956 E27.26395
G1 X57.609 Y74.580 E27.27643
G1 X58.891 Y73.297 E27.33662
G1 X58.891 Y72.920 E27.34911
G1 X57.609 Y74.203 E27.40930
G1 X57.609 Y73.827 E27.42179
G1 X58.891 Y72.544 E27.48198
G1 X58.891 Y72.168 E27.49447
G1 X57.609 Y73.451 E27.55466
G1 X57.609 Y73.075 E27.56715
G1 X58.891 Y71.792 E27.62734
G1 X58.891 Y71.416 E27.63983
G1 X57.609 Y72.699 E27.70002
G1 X57.609 Y72.322 E27.71250
G1 X58.891 Y71.039 E27.77270
G1 X58.891 Y70.663 E27.78518
G1 X57.609 Y71.946 E27.84538
G1 X57.609 Y71.570 E27.85786
G1 X58.891 Y70.287 E27.91806
G1 X58.891 Y69.911 E27.93054
G1 X57.609 Y71.194 E27.99074
G1 X57.609 Y70.818 E28.00322
G1 X58.891 Y69.535 E28.06342
G1 X58.891 Y69.158 E28.07590
G1 X57.609 Y70.441 E28.13610
G1 X57.609 Y70.065 E28.14858
G1 X58.891 Y68.782 E28.20878
G1 X58.891 Y68.406 E28.22126
G1 X57.609 Y69.689 E28.28146
G1 X57.609 Y69.313 E28.29394
G1 X58.891 Y68.030 E28.35414
G1 X58.891 Y67.654 E28.36662
G1 X57.609 Y68.937 E28.42682
G1 X57.609 Y68.560 E28.43930
G1 X58.891 Y67.277 E28.49950
G1 X58.891 Y66.901 E28.51198
G1 X57.609 Y68.184 E28.57218
G1 X57.609 Y67.808 E28.58466
G1 X58.891 Y66.525 E28.64486
G1 X58.891 Y66.149 E28.65734
G1 X57.609 Y67.432 E28.71754
G1 X57.609 Y67.056 E28.73002
G1 X58.891 Y65.773 E28.79022
G1 X58.891 Y65.396 E28.80270
G1 X57.609 Y66.679 E28.86290
G1 X57.609 Y66.303 E28.87538
G1 X58.891 Y65.020 E28.93558
G1 X58.891 Y64.644 E28.94806
G1 X57.609 Y65.927 E29.00826
G1 X57.609 Y65.551 E29.02074
G1 X58.891 Y64.268 E29.08094
G1 X58.891 Y63.892 E29.09342
G1 X57.609 Y65.174 E29.15361
G1 X57.609 Y64.798 E29.16610
G1 X58.891 Y63.515 E29.22629
G1 X58.891 Y63.139 E29.23878
G1 X57.609 Y64.422 E29.29897
G1 X57.609 Y64.046 E29.31146
G1 X58.891 Y62.763 E29.37165
G1 X58.891 Y62.387 E29.38414
G1 X57.609 Y63.670 E29.44433
G1 X57.609 Y63.293 E29.45681
G1 X58.891 Y62.011 E29.51701
G1 X58.891 Y61.634 E29.52949
G1 X57.609 Y62.917 E29.58969
G1 X57.609 Y62.541 E29.60217
G1 X58.891 Y61.258 E29.66237
G1 X58.891 Y60.882 E29.67485
G1 X57.609 Y62.165 E29.73505
G1 X57.609 Y61.789 E29.74753
G1 X58.891 Y60.506 E29.80773
G1 X58.891 Y60.130 E29.82021
G1 X57.609 Y61.412 E29.88041
G1 X57.609 Y61.036 E29.89289
G1 X58.891 Y59.753 E29.95309
G1 X58.891 Y59.377 E29.96557
G1 X57.609 Y60.660 E30.02577
G1 X57.609 Y60.284 E30.03825
G1 X58.891 Y59.001 E30.09845
G1 X58.891 Y58.625 E30.11093
G1 X57.609 Y59.908 E30.17113
G1 X57.609 Y59.531 E30.18361
G1 X58.891 Y58.249 E30.24381
G1 X58.891 Y57.872 E30.25629
G1 X57.609 Y59.155 E30.31649
G1 X57.609 Y58.779 E30.32897
G1 X58.891 Y57.496 E30.38917
G1 X58.891 Y57.120 E30.40165
G1 X57.609 Y58.403 E30.46185
G1 X57.609 Y58.027 E30.47433
G1 X58.891 Y56.744 E30.53453
G1 X58.891 Y56.368 E30.54701
G1 X57.609 Y57.650 E30.60721
G1 X57.609 Y57.274 E30.61969
G1 X58.891 Y55.991 E30.67989
G1 X58.891 Y55.615 E30.69237
G1 X57.609 Y56.898 E30.75257
G1 X57.609 Y56.522 E30.76505
G1 X58.891 Y55.239 E30.82525
G1 X58.891 Y54.863 E30.83773
G1 X57.609 Y56.146 E30.89793
G1 X57.609 Y55.769 E30.91041
G1 X58.891 Y54.487 E30.97060
G1 X58.891 Y54.110 E30.98309
G1 X57.609 Y55.393 E31.04328
G1 X57.609 Y55.017 E31.05577
G1 X58.891 Y53.734 E31.11596
G1 X58.891 Y53.358 E31.12845
