; generated by Slic3r 1.3.1-dev (Build adea0d9) on 2020-03-12 at 20:43:29

; external perimeters extrusion width = 0.44mm (2.86mm^3/s)
; perimeters extrusion width = 0.56mm (4.14mm^3/s)
; infill extrusion width = 0.50mm (3.66mm^3/s)
; solid infill extrusion width = 0.56mm (3.10mm^3/s)
; top infill extrusion width = 0.56mm (3.10mm^3/s)

M107
G92 E0
;D3D:START:START
T0
M104 S215 T0

G21
G90
M107
T0
G28
G29
M109 T0 S215 T0
G0 F3000
M107
T0
G92 E0
G0 X0 Y149 Z0.1 F3600
G1 Y49 E6.5 F1200
G0 Z1
G92 E0
; Filament gcode

G21 ; set units to millimeters
G90 ; use absolute coordinates
M82 ; use absolute distances for extrusion
G92 E0
G1 Z0.300 F7800.000
G1 E-2.00000 F2400.00000
G92 E0
G1 X59.054 Y69.721 F7800.000
G1 E2.00000 F2400.00000
G1 F1800.000
G1 X90.946 Y69.721 E3.05658
G1 X90.946 Y39.221 E4.06703
G1 X92.554 Y39.221 E4.12029
G1 X92.554 Y74.329 E5.28338
G1 X87.554 Y74.329 E5.44903
G1 X87.554 Y96.796 E6.19336
G1 X62.446 Y96.796 E7.02516
G1 X62.446 Y74.329 E7.76948
G1 X57.446 Y74.329 E7.93513
G1 X57.446 Y39.221 E9.09823
G1 X59.054 Y39.221 E9.15148
G1 X59.054 Y69.661 E10.15995
G1 X59.319 Y69.456 F7800.000
G1 F1800.000
G1 X90.681 Y69.456 E11.19893
G1 X90.681 Y38.956 E12.20938
G1 X92.819 Y38.956 E12.28023
G1 X92.819 Y74.594 E13.46093
G1 X87.819 Y74.594 E13.62658
G1 X87.819 Y97.062 E14.37090
G1 X62.181 Y97.062 E15.22030
G1 X62.181 Y74.594 E15.96463
G1 X57.181 Y74.594 E16.13028
G1 X57.181 Y38.956 E17.31097
G1 X59.319 Y38.956 E17.38183
G1 X59.319 Y69.396 E18.39029
G1 X59.585 Y69.190 F7800.000
G1 F1800.000
G1 X90.415 Y69.190 E19.41167
G1 X90.415 Y38.690 E20.42212
G1 X93.085 Y38.690 E20.51058
G1 X93.085 Y74.860 E21.70887
G1 X88.085 Y74.860 E21.87452
G1 X88.085 Y97.327 E22.61885
G1 X61.915 Y97.327 E23.48585
G1 X61.915 Y74.860 E24.23017
G1 X56.915 Y74.860 E24.39582
G1 X56.915 Y38.690 E25.59411
G1 X59.585 Y38.690 E25.68257
G1 X59.585 Y69.130 E26.69103
G1 X59.597 Y69.590 F7800.000
G1 E24.69103 F2400.00000
G92 E0
G1 X64.212 Y96.634 F7800.000
G1 E2.00000 F2400.00000
G1 F1800.000
G1 X90.962 Y69.884 E3.25652
G1 X90.585 Y69.884 E3.26902
G1 X63.835 Y96.634 E4.52554
G1 X63.459 Y96.634 E4.53805
G1 X90.209 Y69.884 E5.79456
G1 X89.832 Y69.884 E5.80707
G1 X63.082 Y96.634 E7.06359
G1 X62.705 Y96.634 E7.07610
G1 X89.455 Y69.884 E8.33261
G1 X89.079 Y69.884 E8.34512
G1 X62.609 Y96.354 E9.58849
G1 X62.609 Y95.977 E9.60100
G1 X88.702 Y69.884 E10.82668
G1 X88.326 Y69.884 E10.83919
G1 X62.609 Y95.601 E12.04718
G1 X62.609 Y95.224 E12.05969
G1 X87.949 Y69.884 E13.24999
G1 X87.572 Y69.884 E13.26250
G1 X62.609 Y94.847 E14.43511
G1 X62.609 Y94.471 E14.44762
G1 X87.196 Y69.884 E15.60254
G1 X86.819 Y69.884 E15.61505
G1 X62.609 Y94.094 E16.75228
G1 X62.609 Y93.718 E16.76478
G1 X86.443 Y69.884 E17.88432
G1 X86.066 Y69.884 E17.89683
G1 X62.609 Y93.341 E18.99868
G1 X62.609 Y92.964 E19.01119
G1 X85.689 Y69.884 E20.09535
G1 X85.313 Y69.884 E20.10786
G1 X62.609 Y92.588 E21.17433
G1 X62.609 Y92.211 E21.18684
G1 X84.936 Y69.884 E22.23562
G1 X84.559 Y69.884 E22.24813
G1 X62.609 Y91.834 E23.27922
G1 X62.609 Y91.458 E23.29172
G1 X84.183 Y69.884 E24.30512
G1 X83.806 Y69.884 E24.31763
G1 X62.609 Y91.081 E25.31334
G1 X62.609 Y90.705 E25.32585
G1 X83.430 Y69.884 E26.30387
G1 X83.053 Y69.884 E26.31638
G1 X62.609 Y90.328 E27.27671
G1 X62.609 Y89.951 E27.28921
G1 X82.676 Y69.884 E28.23185
G1 X82.300 Y69.884 E28.24436
G1 X62.609 Y89.575 E29.16931
G1 X62.609 Y89.198 E29.18182
G1 X81.923 Y69.884 E30.08908
G1 X81.547 Y69.884 E30.10159
G1 X62.609 Y88.822 E30.99115
G1 X62.609 Y88.445 E31.00366
G1 X81.170 Y69.884 E31.87554
G1 X80.793 Y69.884 E31.88805
G1 X62.609 Y88.068 E32.74224
G1 X62.609 Y87.692 E32.75475
G1 X80.417 Y69.884 E33.59124
G1 X80.040 Y69.884 E33.60375
G1 X62.609 Y87.315 E34.42256
G1 X62.609 Y86.939 E34.43507
G1 X79.664 Y69.884 E35.23619
G1 X79.287 Y69.884 E35.24870
G1 X62.609 Y86.562 E36.03212
G1 X62.609 Y86.185 E36.04463
G1 X78.910 Y69.884 E36.81037
G1 X78.534 Y69.884 E36.82288
G1 X62.609 Y85.809 E37.57092
G1 X62.609 Y85.432 E37.58343
G1 X78.157 Y69.884 E38.31379
G1 X77.781 Y69.884 E38.32630
G1 X62.609 Y85.056 E39.03897
G1 X62.609 Y84.679 E39.05147
G1 X77.404 Y69.884 E39.74645
G1 X77.027 Y69.884 E39.75896
G1 X62.609 Y84.302 E40.43625
G1 X62.609 Y83.926 E40.44876
G1 X76.651 Y69.884 E41.10835
G1 X76.274 Y69.884 E41.12086
G1 X62.609 Y83.549 E41.76277
G1 X62.609 Y83.173 E41.77528
G1 X75.898 Y69.884 E42.39949
G1 X75.521 Y69.884 E42.41200
G1 X62.609 Y82.796 E43.01853
G1 X62.609 Y82.419 E43.03104
G1 X75.144 Y69.884 E43.61987
G1 X74.768 Y69.884 E43.63238
G1 X62.609 Y82.043 E44.20353
G1 X62.609 Y81.666 E44.21604
G1 X74.391 Y69.884 E44.76949
G1 X74.014 Y69.884 E44.78200
G1 X62.609 Y81.289 E45.31777
G1 X62.609 Y80.913 E45.33027
G1 X73.638 Y69.884 E45.84835
G1 X73.261 Y69.884 E45.86086
G1 X62.609 Y80.536 E46.36124
G1 X62.609 Y80.160 E46.37375
G1 X72.885 Y69.884 E46.85645
G1 X72.508 Y69.884 E46.86896
G1 X62.609 Y79.783 E47.33396
G1 X62.609 Y79.406 E47.34647
G1 X72.131 Y69.884 E47.79379
G1 X71.755 Y69.884 E47.80629
G1 X62.609 Y79.030 E48.23592
G1 X62.609 Y78.653 E48.24843
G1 X71.378 Y69.884 E48.66036
G1 X71.002 Y69.884 E48.67287
G1 X62.609 Y78.277 E49.06712
G1 X62.609 Y77.900 E49.07963
G1 X70.625 Y69.884 E49.45618
G1 X70.248 Y69.884 E49.46869
G1 X62.609 Y77.523 E49.82755
G1 X62.609 Y77.147 E49.84006
G1 X69.872 Y69.884 E50.18124
G1 X69.495 Y69.884 E50.19374
G1 X62.609 Y76.770 E50.51723
G1 X62.609 Y76.394 E50.52974
G1 X69.119 Y69.884 E50.83553
G1 X68.742 Y69.884 E50.84804
G1 X62.609 Y76.017 E51.13614
G1 X62.609 Y75.640 E51.14865
G1 X68.365 Y69.884 E51.41907
G1 X67.989 Y69.884 E51.43158
G1 X62.609 Y75.264 E51.68430
G1 X62.609 Y74.887 E51.69681
G1 X67.612 Y69.884 E51.93184
G1 X67.236 Y69.884 E51.94435
G1 X62.609 Y74.511 E52.16169
G1 X62.609 Y74.166 E52.17312
G1 X62.576 Y74.166 E52.17420
G1 X66.859 Y69.884 E52.37538
G1 X66.482 Y69.884 E52.38789
G1 X62.199 Y74.166 E52.58907
G1 X61.823 Y74.166 E52.60158
G1 X66.106 Y69.884 E52.80276
G1 X65.729 Y69.884 E52.81527
G1 X61.446 Y74.166 E53.01645
G1 X61.070 Y74.166 E53.02896
G1 X65.353 Y69.884 E53.23014
G1 X64.976 Y69.884 E53.24264
G1 X60.693 Y74.166 E53.44382
G1 X60.316 Y74.166 E53.45633
G1 X64.599 Y69.884 E53.65751
G1 X64.223 Y69.884 E53.67002
G1 X59.940 Y74.166 E53.87120
G1 X59.563 Y74.166 E53.88371
G1 X63.846 Y69.884 E54.08489
G1 X63.470 Y69.884 E54.09740
G1 X59.187 Y74.166 E54.29858
G1 X58.810 Y74.166 E54.31109
G1 X63.093 Y69.884 E54.51227
G1 X62.716 Y69.884 E54.52477
G1 X58.433 Y74.166 E54.72595
G1 X58.057 Y74.166 E54.73846
G1 X62.340 Y69.884 E54.93964
G1 X61.963 Y69.884 E54.95215
G1 X57.680 Y74.166 E55.15333
G1 X57.609 Y74.166 E55.15571
G1 X57.609 Y73.861 E55.16584
G1 X61.586 Y69.884 E55.35269
G1 X61.210 Y69.884 E55.36520
G1 X57.609 Y73.485 E55.53437
G1 X57.609 Y73.108 E55.54687
G1 X60.833 Y69.884 E55.69835
G1 X60.457 Y69.884 E55.71086
G1 X57.609 Y72.732 E55.84464
G1 X57.609 Y72.355 E55.85715
G1 X60.080 Y69.884 E55.97324
G1 X59.703 Y69.884 E55.98575
G1 X57.609 Y71.978 E56.08415
G1 X57.609 Y71.602 E56.09666
G1 X59.327 Y69.884 E56.17738
G1 X58.950 Y69.884 E56.18988
G1 X57.609 Y71.225 E56.25291
G1 X57.609 Y70.849 E56.26542
G1 X58.891 Y69.566 E56.32568
G1 X58.891 Y69.189 E56.33819
G1 X57.609 Y70.472 E56.39845
G1 X57.609 Y70.095 E56.41096
G1 X58.891 Y68.812 E56.47122
G1 X58.891 Y68.436 E56.48373
G1 X57.609 Y69.719 E56.54399
G1 X57.609 Y69.342 E56.55650
G1 X58.891 Y68.059 E56.61676
G1 X58.891 Y67.683 E56.62927
G1 X57.609 Y68.966 E56.68953
G1 X57.609 Y68.589 E56.70204
G1 X58.891 Y67.306 E56.76231
G1 X58.891 Y66.929 E56.77481
G1 X57.609 Y68.212 E56.83508
G1 X57.609 Y67.836 E56.84759
G1 X58.891 Y66.553 E56.90785
G1 X58.891 Y66.176 E56.92036
G1 X57.609 Y67.459 E56.98062
G1 X57.609 Y67.083 E56.99313
G1 X58.891 Y65.800 E57.05339
G1 X58.891 Y65.423 E57.06590
G1 X57.609 Y66.706 E57.12616
G1 X57.609 Y66.329 E57.13867
G1 X58.891 Y65.046 E57.19893
G1 X58.891 Y64.670 E57.21144
G1 X57.609 Y65.953 E57.27170
G1 X57.609 Y65.576 E57.28421
G1 X58.891 Y64.293 E57.34447
G1 X58.891 Y63.917 E57.35698
G1 X57.609 Y65.200 E57.41725
G1 X57.609 Y64.823 E57.42975
G1 X58.891 Y63.540 E57.49002
G1 X58.891 Y63.163 E57.50253
G1 X57.609 Y64.446 E57.56279
G1 X57.609 Y64.070 E57.57530
G1 X58.891 Y62.787 E57.63556
G1 X58.891 Y62.410 E57.64807
G1 X57.609 Y63.693 E57.70833
G1 X57.609 Y63.316 E57.72084
G1 X58.891 Y62.034 E57.78110
G1 X58.891 Y61.657 E57.79361
G1 X57.609 Y62.940 E57.85387
G1 X57.609 Y62.563 E57.86638
G1 X58.891 Y61.280 E57.92664
G1 X58.891 Y60.904 E57.93915
G1 X57.609 Y62.187 E57.99941
G1 X57.609 Y61.810 E58.01192
G1 X58.891 Y60.527 E58.07219
G1 X58.891 Y60.151 E58.08469
G1 X57.609 Y61.433 E58.14496
G1 X57.609 Y61.057 E58.15747
G1 X58.891 Y59.774 E58.21773
G1 X58.891 Y59.397 E58.23024
G1 X57.609 Y60.680 E58.29050
G1 X57.609 Y60.304 E58.30301
G1 X58.891 Y59.021 E58.36327
G1 X58.891 Y58.644 E58.37578
G1 X57.609 Y59.927 E58.43604
G1 X57.609 Y59.550 E58.44855
G1 X58.891 Y58.268 E58.50881
G1 X58.891 Y57.891 E58.52132
G1 X57.609 Y59.174 E58.58158
G1 X57.609 Y58.797 E58.59409
G1 X58.891 Y57.514 E58.65436
G1 X58.891 Y57.138 E58.66686
G1 X57.609 Y58.421 E58.72713
G1 X57.609 Y58.044 E58.73964
G1 X58.891 Y56.761 E58.79990
G1 X58.891 Y56.384 E58.81241
G1 X57.609 Y57.667 E58.87267
G1 X57.609 Y57.291 E58.88518
G1 X58.891 Y56.008 E58.94544
G1 X58.891 Y55.631 E58.95795
G1 X57.609 Y56.914 E59.01821
G1 X57.609 Y56.538 E59.03072
G1 X58.891 Y55.255 E59.09098
G1 X58.891 Y54.878 E59.10349
G1 X57.609 Y56.161 E59.16375
G1 X57.609 Y55.784 E59.17626
G1 X58.891 Y54.501 E59.23652
G1 X58.891 Y54.125 E59.24903
G1 X57.609 Y55.408 E59.30930
G1 X57.609 Y55.031 E59.32180
G1 X58.891 Y53.748 E59.38207
G1 X58.891 Y53.372 E59.39458
G1 X57.609 Y54.655 E59.45484
G1 X57.609 Y54.278 E59.46735
G1 X58.891 Y52.995 E59.52761
G1 X58.891 Y52.618 E59.54012
G1 X57.609 Y53.901 E59.60038
G1 X57.609 Y53.525 E59.61289
G1 X58.891 Y52.242 E59.67315
G1 X58.891 Y51.865 E59.68566
G1 X57.609 Y53.148 E59.74592
G1 X57.609 Y52.772 E59.75843
G1 X58.891 Y51.489 E59.81869
G1 X58.891 Y51.112 E59.83120
G1 X57.609 Y52.395 E59.89146
G1 X57.609 Y52.018 E59.90397
G1 X58.891 Y50.735 E59.96424
G1 X58.891 Y50.359 E59.97674
G1 X57.609 Y51.642 E60.03701
G1 X57.609 Y51.265 E60.04952
G1 X58.891 Y49.982 E60.10978
G1 X58.891 Y49.606 E60.12229
G1 X57.609 Y50.888 E60.18255
G1 X57.609 Y50.512 E60.19506
G1 X58.891 Y49.229 E60.25532
G1 X58.891 Y48.852 E60.26783
G1 X57.609 Y50.135 E60.32809
G1 X57.609 Y49.759 E60.34060
G1 X58.891 Y48.476 E60.40086
G1 X58.891 Y48.099 E60.41337
G1 X57.609 Y49.382 E60.47363
G1 X57.609 Y49.005 E60.48614
G1 X58.891 Y47.723 E60.54640
G1 X58.891 Y47.346 E60.55891
G1 X57.609 Y48.629 E60.61918
G1 X57.609 Y48.252 E60.63168
G1 X58.891 Y46.969 E60.69195
G1 X58.891 Y46.593 E60.70446
G1 X57.609 Y47.876 E60.76472
G1 X57.609 Y47.499 E60.77723
G1 X58.891 Y46.216 E60.83749
G1 X58.891 Y45.839 E60.85000
G1 X57.609 Y47.122 E60.91026
G1 X57.609 Y46.746 E60.92277
G1 X58.891 Y45.463 E60.98303
G1 X58.891 Y45.086 E60.99554
G1 X57.609 Y46.369 E61.05580
G1 X57.609 Y45.993 E61.06831
G1 X58.891 Y44.710 E61.12857
G1 X58.891 Y44.333 E61.14108
G1 X57.609 Y45.616 E61.20134
G1 X57.609 Y45.239 E61.21385
G1 X58.891 Y43.956 E61.27412
G1 X58.891 Y43.580 E61.28662
G1 X57.609 Y44.863 E61.34689
G1 X57.609 Y44.486 E61.35940
G1 X58.891 Y43.203 E61.41966
G1 X58.891 Y42.827 E61.43217
G1 X57.609 Y44.110 E61.49243
G1 X57.609 Y43.733 E61.50494
G1 X58.891 Y42.450 E61.56520
G1 X58.891 Y42.073 E61.57771
G1 X57.609 Y43.356 E61.63797
G1 X57.609 Y42.980 E61.65048
G1 X58.891 Y41.697 E61.71074
G1 X58.891 Y41.320 E61.72325
G1 X57.609 Y42.603 E61.78351
G1 X57.609 Y42.227 E61.79602
G1 X58.891 Y40.944 E61.85629
G1 X58.891 Y40.567 E61.86879
G1 X57.609 Y41.850 E61.92906
G1 X57.609 Y41.473 E61.94157
G1 X58.891 Y40.190 E62.00183
G1 X58.891 Y39.814 E62.01434
G1 X57.609 Y41.097 E62.07460
G1 X57.609 Y40.720 E62.08711
G1 X58.891 Y39.437 E62.14737
G1 X58.891 Y39.384 E62.14915
G1 X58.569 Y39.384 E62.15988
G1 X57.609 Y40.344 E62.20497
G1 X57.609 Y39.967 E62.21748
G1 X58.192 Y39.384 E62.24488
G1 X57.815 Y39.384 E62.25739
G1 X57.609 Y39.590 E62.26709
G1 E60.26709 F2400.00000
G92 E0
G1 X91.127 Y39.590 F7800.000
G1 E2.00000 F2400.00000
G1 F1800.000
G1 X91.109 Y39.590 E2.00060
G1 X91.109 Y39.608 E2.00120
G1 X91.333 Y39.384 E2.01176
G1 X91.710 Y39.384 E2.02427
G1 X91.109 Y39.985 E2.05252
G1 X91.109 Y40.361 E2.06503
G1 X92.086 Y39.384 E2.11096
G1 X92.391 Y39.384 E2.12109
G1 X92.391 Y39.455 E2.12347
G1 X91.109 Y40.738 E2.18373
G1 X91.109 Y41.115 E2.19624
G1 X92.391 Y39.832 E2.25650
G1 X92.391 Y40.208 E2.26901
G1 X91.109 Y41.491 E2.32928
G1 X91.109 Y41.868 E2.34178
G1 X92.391 Y40.585 E2.40205
G1 X92.391 Y40.962 E2.41456
G1 X91.109 Y42.245 E2.47482
G1 X91.109 Y42.621 E2.48733
G1 X92.391 Y41.338 E2.54759
G1 X92.391 Y41.715 E2.56010
G1 X91.109 Y42.998 E2.62036
G1 X91.109 Y43.374 E2.63287
G1 X92.391 Y42.091 E2.69313
G1 X92.391 Y42.468 E2.70564
G1 X91.109 Y43.751 E2.76590
G1 X91.109 Y44.128 E2.77841
G1 X92.391 Y42.845 E2.83867
G1 X92.391 Y43.221 E2.85118
G1 X91.109 Y44.504 E2.91144
G1 X91.109 Y44.881 E2.92395
G1 X92.391 Y43.598 E2.98422
G1 X92.391 Y43.974 E2.99672
G1 X91.109 Y45.257 E3.05699
G1 X91.109 Y45.634 E3.06950
G1 X92.391 Y44.351 E3.12976
G1 X92.391 Y44.728 E3.14227
G1 X91.109 Y46.011 E3.20253
G1 X91.109 Y46.387 E3.21504
G1 X92.391 Y45.104 E3.27530
G1 X92.391 Y45.481 E3.28781
G1 X91.109 Y46.764 E3.34807
G1 X91.109 Y47.140 E3.36058
G1 X92.391 Y45.857 E3.42084
G1 X92.391 Y46.234 E3.43335
G1 X91.109 Y47.517 E3.49361
G1 X91.109 Y47.894 E3.50612
G1 X92.391 Y46.611 E3.56638
G1 X92.391 Y46.987 E3.57889
G1 X91.109 Y48.270 E3.63916
G1 X91.109 Y48.647 E3.65166
G1 X92.391 Y47.364 E3.71193
G1 X92.391 Y47.741 E3.72444
G1 X91.109 Y49.023 E3.78470
G1 X91.109 Y49.400 E3.79721
G1 X92.391 Y48.117 E3.85747
G1 X92.391 Y48.494 E3.86998
G1 X91.109 Y49.777 E3.93024
G1 X91.109 Y50.153 E3.94275
G1 X92.391 Y48.870 E4.00301
G1 X92.391 Y49.247 E4.01552
G1 X91.109 Y50.530 E4.07578
G1 X91.109 Y50.906 E4.08829
G1 X92.391 Y49.624 E4.14855
G1 X92.391 Y50.000 E4.16106
G1 X91.109 Y51.283 E4.22133
G1 X91.109 Y51.660 E4.23383
G1 X92.391 Y50.377 E4.29410
G1 X92.391 Y50.753 E4.30661
G1 X91.109 Y52.036 E4.36687
G1 X91.109 Y52.413 E4.37938
G1 X92.391 Y51.130 E4.43964
G1 X92.391 Y51.507 E4.45215
G1 X91.109 Y52.789 E4.51241
G1 X91.109 Y53.166 E4.52492
G1 X92.391 Y51.883 E4.58518
G1 X92.391 Y52.260 E4.59769
G1 X91.109 Y53.543 E4.65795
G1 X91.109 Y53.919 E4.67046
G1 X92.391 Y52.636 E4.73072
G1 X92.391 Y53.013 E4.74323
G1 X91.109 Y54.296 E4.80349
G1 X91.109 Y54.673 E4.81600
G1 X92.391 Y53.390 E4.87627
G1 X92.391 Y53.766 E4.88877
G1 X91.109 Y55.049 E4.94904
G1 X91.109 Y55.426 E4.96155
G1 X92.391 Y54.143 E5.02181
G1 X92.391 Y54.519 E5.03432
G1 X91.109 Y55.802 E5.09458
G1 X91.109 Y56.179 E5.10709
G1 X92.391 Y54.896 E5.16735
G1 X92.391 Y55.273 E5.17986
G1 X91.109 Y56.556 E5.24012
G1 X91.109 Y56.932 E5.25263
G1 X92.391 Y55.649 E5.31289
G1 X92.391 Y56.026 E5.32540
G1 X91.109 Y57.309 E5.38566
G1 X91.109 Y57.685 E5.39817
G1 X92.391 Y56.402 E5.45843
G1 X92.391 Y56.779 E5.47094
G1 X91.109 Y58.062 E5.53121
G1 X91.109 Y58.439 E5.54371
G1 X92.391 Y57.156 E5.60398
G1 X92.391 Y57.532 E5.61649
G1 X91.109 Y58.815 E5.67675
G1 X91.109 Y59.192 E5.68926
G1 X92.391 Y57.909 E5.74952
G1 X92.391 Y58.285 E5.76203
G1 X91.109 Y59.568 E5.82229
G1 X91.109 Y59.945 E5.83480
G1 X92.391 Y58.662 E5.89506
G1 X92.391 Y59.039 E5.90757
G1 X91.109 Y60.322 E5.96783
G1 X91.109 Y60.698 E5.98034
G1 X92.391 Y59.415 E6.04060
G1 X92.391 Y59.792 E6.05311
G1 X91.109 Y61.075 E6.11338
G1 X91.109 Y61.451 E6.12588
G1 X92.391 Y60.169 E6.18615
G1 X92.391 Y60.545 E6.19866
G1 X91.109 Y61.828 E6.25892
G1 X91.109 Y62.205 E6.27143
G1 X92.391 Y60.922 E6.33169
G1 X92.391 Y61.298 E6.34420
G1 X91.109 Y62.581 E6.40446
G1 X91.109 Y62.958 E6.41697
G1 X92.391 Y61.675 E6.47723
G1 X92.391 Y62.052 E6.48974
G1 X91.109 Y63.334 E6.55000
G1 X91.109 Y63.711 E6.56251
G1 X92.391 Y62.428 E6.62277
G1 X92.391 Y62.805 E6.63528
G1 X91.109 Y64.088 E6.69554
G1 X91.109 Y64.464 E6.70805
G1 X92.391 Y63.181 E6.76832
G1 X92.391 Y63.558 E6.78082
G1 X91.109 Y64.841 E6.84109
G1 X91.109 Y65.218 E6.85360
G1 X92.391 Y63.935 E6.91386
G1 X92.391 Y64.311 E6.92637
G1 X91.109 Y65.594 E6.98663
