; generated by Slic3r 1.3.1-dev (Build adea0d9) on 2020-03-12 at 20:46:38

; external perimeters extrusion width = 0.44mm (2.86mm^3/s)
; perimeters extrusion width = 0.56mm (4.14mm^3/s)
; infill extrusion width = 0.50mm (3.66mm^3/s)
; solid infill extrusion width = 0.56mm (3.10mm^3/s)
; top infill extrusion width = 0.56mm (3.10mm^3/s)

M107
G92 E0
;D3D:START:START
T0
M104 S215 T0

G21
G90
M107
T0
G28
G29
M109 T0 S215 T0
G0 F3000
M107
T0
G92 E0
G0 X0 Y149 Z0.1 F3600
G1 Y49 E6.5 F1200
G0 Z1
G92 E0
; Filament gcode

G21 ; set units to millimeters
G90 ; use absolute coordinates
M82 ; use absolute distances for extrusion
G92 E0
G1 Z0.300 F7800.000
G1 E-2.00000 F2400.00000
G92 E0
G1 X59.054 Y69.721 F7800.000
G1 E2.00000 F2400.00000
G1 F1800.000
G1 X90.946 Y69.721 E3.05658
G1 X90.946 Y39.221 E4.06703
G1 X92.554 Y39.221 E4.12029
G1 X92.554 Y75.721 E5.32952
G1 X95.554 Y75.721 E5.42891
G1 X95.554 Y96.796 E6.12710
G1 X54.446 Y96.796 E7.48897
G1 X54.446 Y75.721 E8.18716
G1 X57.446 Y75.721 E8.28655
G1 X57.446 Y39.221 E9.49578
G1 X59.054 Y39.221 E9.54904
G1 X59.054 Y69.661 E10.55750
G1 X59.319 Y69.456 F7800.000
G1 F1800.000
G1 X90.681 Y69.456 E11.59648
G1 X90.681 Y38.956 E12.60693
G1 X92.819 Y38.956 E12.67779
G1 X92.819 Y75.456 E13.88702
G1 X95.819 Y75.456 E13.98640
G1 X95.819 Y97.062 E14.70220
G1 X54.181 Y97.062 E16.08167
G1 X54.181 Y75.456 E16.79746
G1 X57.181 Y75.456 E16.89685
G1 X57.181 Y38.956 E18.10608
G1 X59.319 Y38.956 E18.17694
G1 X59.319 Y69.396 E19.18540
G1 X59.585 Y69.190 F7800.000
G1 F1800.000
G1 X90.415 Y69.190 E20.20678
G1 X90.415 Y38.690 E21.21723
G1 X93.085 Y38.690 E21.30569
G1 X93.085 Y75.190 E22.51491
G1 X96.085 Y75.190 E22.61430
G1 X96.085 Y97.327 E23.34770
G1 X53.915 Y97.327 E24.74477
G1 X53.915 Y75.190 E25.47816
G1 X56.915 Y75.190 E25.57755
G1 X56.915 Y38.690 E26.78678
G1 X59.585 Y38.690 E26.87523
G1 X59.585 Y69.130 E27.88369
G1 X59.597 Y69.590 F7800.000
G1 E25.88369 F2400.00000
G92 E0
G1 X54.659 Y76.090 F7800.000
G1 E2.00000 F2400.00000
G1 F1800.000
G1 X54.609 Y76.090 E2.00168
G1 X54.609 Y76.141 E2.00336
G1 X54.866 Y75.884 E2.01545
G1 X55.243 Y75.884 E2.02798
G1 X54.609 Y76.518 E2.05779
G1 X54.609 Y76.895 E2.07033
G1 X55.620 Y75.884 E2.11786
G1 X55.997 Y75.884 E2.13040
G1 X54.609 Y77.272 E2.19566
G1 X54.609 Y77.649 E2.20819
G1 X56.374 Y75.884 E2.29118
G1 X56.750 Y75.884 E2.30371
G1 X54.609 Y78.025 E2.40442
G1 X54.609 Y78.402 E2.41695
G1 X57.127 Y75.884 E2.53539
G1 X57.504 Y75.884 E2.54792
G1 X54.609 Y78.779 E2.68408
G1 E0.68408 F2400.00000
G92 E0
G1 X91.109 Y69.798 F7800.000
G1 E2.00000 F2400.00000
G1 F1800.000
G1 X92.391 Y68.515 E2.06032
G1 X92.391 Y68.138 E2.07285
G1 X91.109 Y69.421 E2.13317
G1 X91.109 Y69.044 E2.14571
G1 X92.391 Y67.761 E2.20603
G1 X92.391 Y67.384 E2.21856
G1 X91.109 Y68.667 E2.27888
G1 X91.109 Y68.290 E2.29141
G1 X92.391 Y67.007 E2.35173
G1 X92.391 Y66.630 E2.36427
G1 X91.109 Y67.913 E2.42459
G1 X91.109 Y67.536 E2.43712
G1 X92.391 Y66.253 E2.49744
G1 X92.391 Y65.877 E2.50997
G1 X91.109 Y67.159 E2.57029
G1 X91.109 Y66.782 E2.58283
G1 X92.391 Y65.500 E2.64315
G1 X92.391 Y65.123 E2.65568
G1 X91.109 Y66.406 E2.71600
G1 X91.109 Y66.029 E2.72853
G1 X92.391 Y64.746 E2.78886
G1 X92.391 Y64.369 E2.80139
G1 X91.109 Y65.652 E2.86171
G1 X91.109 Y65.275 E2.87424
G1 X92.391 Y63.992 E2.93456
G1 X92.391 Y63.615 E2.94710
G1 X91.109 Y64.898 E3.00742
G1 X91.109 Y64.521 E3.01995
G1 X92.391 Y63.238 E3.08027
G1 X92.391 Y62.861 E3.09280
G1 X91.109 Y64.144 E3.15312
G1 X91.109 Y63.767 E3.16566
G1 X92.391 Y62.484 E3.22598
G1 X92.391 Y62.107 E3.23851
G1 X91.109 Y63.390 E3.29883
G1 X91.109 Y63.013 E3.31136
G1 X92.391 Y61.730 E3.37168
G1 X92.391 Y61.353 E3.38422
G1 X91.109 Y62.636 E3.44454
G1 X91.109 Y62.259 E3.45707
G1 X92.391 Y60.976 E3.51739
G1 X92.391 Y60.599 E3.52992
G1 X91.109 Y61.882 E3.59024
G1 X91.109 Y61.505 E3.60278
G1 X92.391 Y60.222 E3.66310
G1 X92.391 Y59.845 E3.67563
G1 X91.109 Y61.128 E3.73595
G1 X91.109 Y60.751 E3.74848
G1 X92.391 Y59.468 E3.80880
G1 X92.391 Y59.091 E3.82134
G1 X91.109 Y60.374 E3.88166
G1 X91.109 Y59.997 E3.89419
G1 X92.391 Y58.714 E3.95451
G1 X92.391 Y58.337 E3.96704
G1 X91.109 Y59.620 E4.02736
G1 X91.109 Y59.243 E4.03990
G1 X92.391 Y57.960 E4.10022
G1 X92.391 Y57.583 E4.11275
G1 X91.109 Y58.866 E4.17307
G1 X91.109 Y58.489 E4.18560
G1 X92.391 Y57.206 E4.24592
G1 X92.391 Y56.829 E4.25846
G1 X91.109 Y58.112 E4.31878
G1 X91.109 Y57.735 E4.33131
G1 X92.391 Y56.452 E4.39163
G1 X92.391 Y56.075 E4.40416
G1 X91.109 Y57.358 E4.46449
G1 X91.109 Y56.981 E4.47702
G1 X92.391 Y55.698 E4.53734
G1 X92.391 Y55.321 E4.54987
G1 X91.109 Y56.604 E4.61019
G1 X91.109 Y56.227 E4.62273
G1 X92.391 Y54.944 E4.68305
G1 X92.391 Y54.567 E4.69558
G1 X91.109 Y55.850 E4.75590
G1 X91.109 Y55.473 E4.76843
G1 X92.391 Y54.190 E4.82875
G1 X92.391 Y53.813 E4.84129
G1 X91.109 Y55.096 E4.90161
G1 X91.109 Y54.719 E4.91414
G1 X92.391 Y53.437 E4.97446
G1 X92.391 Y53.060 E4.98699
G1 X91.109 Y54.342 E5.04731
G1 X91.109 Y53.966 E5.05985
G1 X92.391 Y52.683 E5.12017
G1 X92.391 Y52.306 E5.13270
G1 X91.109 Y53.589 E5.19302
G1 X91.109 Y53.212 E5.20555
G1 X92.391 Y51.929 E5.26587
G1 X92.391 Y51.552 E5.27841
G1 X91.109 Y52.835 E5.33873
G1 X91.109 Y52.458 E5.35126
G1 X92.391 Y51.175 E5.41158
G1 X92.391 Y50.798 E5.42411
G1 X91.109 Y52.081 E5.48443
G1 X91.109 Y51.704 E5.49697
G1 X92.391 Y50.421 E5.55729
G1 X92.391 Y50.044 E5.56982
G1 X91.109 Y51.327 E5.63014
G1 X91.109 Y50.950 E5.64267
G1 X92.391 Y49.667 E5.70299
G1 X92.391 Y49.290 E5.71553
G1 X91.109 Y50.573 E5.77585
G1 X91.109 Y50.196 E5.78838
G1 X92.391 Y48.913 E5.84870
G1 X92.391 Y48.536 E5.86123
G1 X91.109 Y49.819 E5.92155
G1 X91.109 Y49.442 E5.93409
G1 X92.391 Y48.159 E5.99441
G1 X92.391 Y47.782 E6.00694
G1 X91.109 Y49.065 E6.06726
G1 X91.109 Y48.688 E6.07979
G1 X92.391 Y47.405 E6.14012
G1 X92.391 Y47.028 E6.15265
G1 X91.109 Y48.311 E6.21297
G1 X91.109 Y47.934 E6.22550
G1 X92.391 Y46.651 E6.28582
G1 X92.391 Y46.274 E6.29836
G1 X91.109 Y47.557 E6.35868
G1 X91.109 Y47.180 E6.37121
G1 X92.391 Y45.897 E6.43153
G1 X92.391 Y45.520 E6.44406
G1 X91.109 Y46.803 E6.50438
G1 X91.109 Y46.426 E6.51692
G1 X92.391 Y45.143 E6.57724
G1 X92.391 Y44.766 E6.58977
G1 X91.109 Y46.049 E6.65009
G1 X91.109 Y45.672 E6.66262
G1 X92.391 Y44.389 E6.72294
G1 X92.391 Y44.012 E6.73548
G1 X91.109 Y45.295 E6.79580
G1 X91.109 Y44.918 E6.80833
G1 X92.391 Y43.635 E6.86865
G1 X92.391 Y43.258 E6.88118
G1 X91.109 Y44.541 E6.94150
G1 X91.109 Y44.164 E6.95404
G1 X92.391 Y42.881 E7.01436
G1 X92.391 Y42.504 E7.02689
G1 X91.109 Y43.787 E7.08721
G1 X91.109 Y43.410 E7.09974
G1 X92.391 Y42.127 E7.16006
G1 X92.391 Y41.750 E7.17260
G1 X91.109 Y43.033 E7.23292
G1 X91.109 Y42.656 E7.24545
G1 X92.391 Y41.373 E7.30577
G1 X92.391 Y40.997 E7.31830
G1 X91.109 Y42.279 E7.37862
G1 X91.109 Y41.902 E7.39116
G1 X92.391 Y40.620 E7.45148
G1 X92.391 Y40.243 E7.46401
G1 X91.109 Y41.526 E7.52433
G1 X91.109 Y41.149 E7.53686
G1 X92.391 Y39.866 E7.59718
G1 X92.391 Y39.489 E7.60972
G1 X91.109 Y40.772 E7.67004
G1 X91.109 Y40.395 E7.68257
G1 X92.120 Y39.384 E7.73011
G1 X91.743 Y39.384 E7.74264
G1 X91.109 Y40.018 E7.77245
G1 X91.109 Y39.641 E7.78499
G1 X91.366 Y39.384 E7.79708
G1 E5.79708 F2400.00000
G92 E0
G1 X57.609 Y39.590 F7800.000
G1 E2.00000 F2400.00000
G1 F1800.000
G1 X57.815 Y39.384 E2.00971
G1 X58.192 Y39.384 E2.02225
G1 X57.609 Y39.967 E2.04969
G1 X57.609 Y40.344 E2.06223
G1 X58.569 Y39.384 E2.10740
G1 X58.891 Y39.384 E2.11811
G1 X58.891 Y39.438 E2.11993
G1 X57.609 Y40.721 E2.18025
G1 X57.609 Y41.098 E2.19278
G1 X58.891 Y39.815 E2.25311
G1 X58.891 Y40.192 E2.26564
G1 X57.609 Y41.475 E2.32596
G1 X57.609 Y41.852 E2.33849
G1 X58.891 Y40.569 E2.39881
G1 X58.891 Y40.946 E2.41135
G1 X57.609 Y42.229 E2.47167
G1 X57.609 Y42.606 E2.48420
G1 X58.891 Y41.323 E2.54452
G1 X58.891 Y41.700 E2.55705
G1 X57.609 Y42.983 E2.61737
G1 X57.609 Y43.360 E2.62991
G1 X58.891 Y42.077 E2.69023
G1 X58.891 Y42.454 E2.70276
G1 X57.609 Y43.737 E2.76308
G1 X57.609 Y44.114 E2.77561
G1 X58.891 Y42.831 E2.83593
G1 X58.891 Y43.208 E2.84847
G1 X57.609 Y44.491 E2.90879
G1 X57.609 Y44.868 E2.92132
G1 X58.891 Y43.585 E2.98164
G1 X58.891 Y43.962 E2.99417
G1 X57.609 Y45.245 E3.05449
G1 X57.609 Y45.622 E3.06703
G1 X58.891 Y44.339 E3.12735
G1 X58.891 Y44.716 E3.13988
G1 X57.609 Y45.999 E3.20020
G1 X57.609 Y46.376 E3.21273
G1 X58.891 Y45.093 E3.27305
G1 X58.891 Y45.470 E3.28559
G1 X57.609 Y46.753 E3.34591
G1 X57.609 Y47.130 E3.35844
G1 X58.891 Y45.847 E3.41876
G1 X58.891 Y46.224 E3.43129
G1 X57.609 Y47.507 E3.49161
G1 X57.609 Y47.884 E3.50415
G1 X58.891 Y46.601 E3.56447
G1 X58.891 Y46.978 E3.57700
G1 X57.609 Y48.261 E3.63732
G1 X57.609 Y48.638 E3.64985
G1 X58.891 Y47.355 E3.71017
G1 X58.891 Y47.732 E3.72271
G1 X57.609 Y49.015 E3.78303
G1 X57.609 Y49.392 E3.79556
G1 X58.891 Y48.109 E3.85588
G1 X58.891 Y48.486 E3.86841
G1 X57.609 Y49.769 E3.92873
G1 X57.609 Y50.145 E3.94127
G1 X58.891 Y48.863 E4.00159
G1 X58.891 Y49.240 E4.01412
G1 X57.609 Y50.522 E4.07444
G1 X57.609 Y50.899 E4.08697
G1 X58.891 Y49.616 E4.14729
G1 X58.891 Y49.993 E4.15983
G1 X57.609 Y51.276 E4.22015
G1 X57.609 Y51.653 E4.23268
G1 X58.891 Y50.370 E4.29300
G1 X58.891 Y50.747 E4.30553
G1 X57.609 Y52.030 E4.36586
G1 X57.609 Y52.407 E4.37839
G1 X58.891 Y51.124 E4.43871
G1 X58.891 Y51.501 E4.45124
G1 X57.609 Y52.784 E4.51156
G1 X57.609 Y53.161 E4.52410
G1 X58.891 Y51.878 E4.58442
G1 X58.891 Y52.255 E4.59695
G1 X57.609 Y53.538 E4.65727
G1 X57.609 Y53.915 E4.66980
G1 X58.891 Y52.632 E4.73012
G1 X58.891 Y53.009 E4.74266
G1 X57.609 Y54.292 E4.80298
G1 X57.609 Y54.669 E4.81551
G1 X58.891 Y53.386 E4.87583
G1 X58.891 Y53.763 E4.88836
G1 X57.609 Y55.046 E4.94868
G1 X57.609 Y55.423 E4.96122
G1 X58.891 Y54.140 E5.02154
G1 X58.891 Y54.517 E5.03407
G1 X57.609 Y55.800 E5.09439
G1 X57.609 Y56.177 E5.10692
G1 X58.891 Y54.894 E5.16724
G1 X58.891 Y55.271 E5.17978
G1 X57.609 Y56.554 E5.24010
G1 X57.609 Y56.931 E5.25263
G1 X58.891 Y55.648 E5.31295
G1 X58.891 Y56.025 E5.32548
G1 X57.609 Y57.308 E5.38580
G1 X57.609 Y57.685 E5.39834
G1 X58.891 Y56.402 E5.45866
G1 X58.891 Y56.779 E5.47119
G1 X57.609 Y58.062 E5.53151
G1 X57.609 Y58.439 E5.54404
G1 X58.891 Y57.156 E5.60436
G1 X58.891 Y57.533 E5.61690
G1 X57.609 Y58.816 E5.67722
G1 X57.609 Y59.193 E5.68975
G1 X58.891 Y57.910 E5.75007
G1 X58.891 Y58.287 E5.76260
G1 X57.609 Y59.570 E5.82292
G1 X57.609 Y59.947 E5.83546
G1 X58.891 Y58.664 E5.89578
G1 X58.891 Y59.041 E5.90831
G1 X57.609 Y60.324 E5.96863
G1 X57.609 Y60.701 E5.98116
G1 X58.891 Y59.418 E6.04148
G1 X58.891 Y59.795 E6.05402
G1 X57.609 Y61.078 E6.11434
G1 X57.609 Y61.455 E6.12687
G1 X58.891 Y60.172 E6.18719
G1 X58.891 Y60.549 E6.19972
G1 X57.609 Y61.832 E6.26004
G1 X57.609 Y62.209 E6.27258
G1 X58.891 Y60.926 E6.33290
G1 X58.891 Y61.303 E6.34543
G1 X57.609 Y62.585 E6.40575
G1 X57.609 Y62.962 E6.41828
G1 X58.891 Y61.680 E6.47861
G1 X58.891 Y62.056 E6.49114
G1 X57.609 Y63.339 E6.55146
G1 X57.609 Y63.716 E6.56399
G1 X58.891 Y62.433 E6.62431
G1 X58.891 Y62.810 E6.63685
G1 X57.609 Y64.093 E6.69717
G1 X57.609 Y64.470 E6.70970
G1 X58.891 Y63.187 E6.77002
G1 X58.891 Y63.564 E6.78255
G1 X57.609 Y64.847 E6.84287
G1 X57.609 Y65.224 E6.85541
G1 X58.891 Y63.941 E6.91573
G1 X58.891 Y64.318 E6.92826
G1 X57.609 Y65.601 E6.98858
G1 X57.609 Y65.978 E7.00111
G1 X58.891 Y64.695 E7.06143
G1 X58.891 Y65.072 E7.07397
G1 X57.609 Y66.355 E7.13429
G1 X57.609 Y66.732 E7.14682
G1 X58.891 Y65.449 E7.20714
G1 X58.891 Y65.826 E7.21967
G1 X57.609 Y67.109 E7.27999
G1 X57.609 Y67.486 E7.29253
G1 X58.891 Y66.203 E7.35285
G1 X58.891 Y66.580 E7.36538
G1 X57.609 Y67.863 E7.42570
G1 X57.609 Y68.240 E7.43823
G1 X58.891 Y66.957 E7.49855
G1 X58.891 Y67.334 E7.51109
G1 X57.609 Y68.617 E7.57141
G1 X57.609 Y68.994 E7.58394
G1 X58.891 Y67.711 E7.64426
G1 X58.891 Y68.088 E7.65679
G1 X57.609 Y69.371 E7.71711
G1 X57.609 Y69.748 E7.72965
G1 X58.891 Y68.465 E7.78997
G1 X58.891 Y68.842 E7.80250
G1 X57.609 Y70.125 E7.86282
G1 X57.609 Y70.502 E7.87535
G1 X58.891 Y69.219 E7.93567
G1 X58.891 Y69.596 E7.94821
G1 X57.609 Y70.879 E8.00853
G1 X57.609 Y71.256 E8.02106
G1 X58.981 Y69.884 E8.08558
G1 X59.358 Y69.884 E8.09811
G1 X57.609 Y71.633 E8.18036
G1 X57.609 Y72.010 E8.19289
G1 X59.735 Y69.884 E8.29286
G1 X60.112 Y69.884 E8.30539
G1 X57.609 Y72.387 E8.42309
G1 X57.609 Y72.764 E8.43562
G1 X60.489 Y69.884 E8.57104
G1 X60.866 Y69.884 E8.58357
G1 X57.609 Y73.141 E8.73671
G1 X57.609 Y73.518 E8.74925
G1 X61.243 Y69.884 E8.92011
G1 X61.620 Y69.884 E8.93265
G1 X57.609 Y73.895 E9.12124
G1 X57.609 Y74.272 E9.13377
G1 X61.997 Y69.884 E9.34008
G1 X62.374 Y69.884 E9.35262
G1 X57.609 Y74.649 E9.57666
G1 X57.609 Y75.025 E9.58919
G1 X62.750 Y69.884 E9.83095
G1 X63.127 Y69.884 E9.84349
G1 X57.609 Y75.402 E10.10297
G1 X57.609 Y75.779 E10.11551
G1 X63.504 Y69.884 E10.39272
G1 X63.881 Y69.884 E10.40525
G1 X54.609 Y79.156 E10.84124
G1 X54.609 Y79.533 E10.85377
G1 X64.258 Y69.884 E11.30749
G1 X64.635 Y69.884 E11.32002
G1 X54.609 Y79.910 E11.79146
G1 X54.609 Y80.287 E11.80399
G1 X65.012 Y69.884 E12.29316
G1 X65.389 Y69.884 E12.30569
G1 X54.609 Y80.664 E12.81258
G1 X54.609 Y81.041 E12.82511
G1 X65.766 Y69.884 E13.34972
G1 X66.143 Y69.884 E13.36225
G1 X54.609 Y81.418 E13.90459
G1 X54.609 Y81.795 E13.91712
G1 X66.520 Y69.884 E14.47718
G1 X66.897 Y69.884 E14.48971
G1 X54.609 Y82.172 E15.06750
G1 X54.609 Y82.549 E15.08003
G1 X67.274 Y69.884 E15.67554
G1 X67.651 Y69.884 E15.68807
G1 X54.609 Y82.926 E16.30130
G1 X54.609 Y83.303 E16.31384
G1 X68.028 Y69.884 E16.94479
G1 X68.405 Y69.884 E16.95733
G1 X54.609 Y83.680 E17.60601
G1 X54.609 Y84.057 E17.61854
G1 X68.782 Y69.884 E18.28495
G1 X69.159 Y69.884 E18.29748
G1 X54.609 Y84.434 E18.98161
G1 X54.609 Y84.811 E18.99414
G1 X69.536 Y69.884 E19.69600
G1 X69.913 Y69.884 E19.70853
G1 X54.609 Y85.188 E20.42811
G1 X54.609 Y85.565 E20.44064
G1 X70.290 Y69.884 E21.17794
G1 X70.667 Y69.884 E21.19048
G1 X54.609 Y85.942 E21.94550
G1 X54.609 Y86.319 E21.95803
G1 X71.044 Y69.884 E22.73079
G1 X71.421 Y69.884 E22.74332
G1 X54.609 Y86.696 E23.53379
G1 X54.609 Y87.073 E23.54633
G1 X71.798 Y69.884 E24.35453
G1 X72.175 Y69.884 E24.36706
G1 X54.609 Y87.450 E25.19298
G1 X54.609 Y87.827 E25.20552
G1 X72.552 Y69.884 E26.04916
G1 X72.929 Y69.884 E26.06170
G1 X54.609 Y88.204 E26.92307
G1 X54.609 Y88.581 E26.93560
G1 X73.306 Y69.884 E27.81470
G1 X73.683 Y69.884 E27.82723
G1 X54.609 Y88.958 E28.72405
G1 X54.609 Y89.335 E28.73659
G1 X74.060 Y69.884 E29.65113
G1 X74.437 Y69.884 E29.66367
G1 X54.609 Y89.712 E30.59594
G1 X54.609 Y90.089 E30.60847
G1 X74.814 Y69.884 E31.55846
G1 X75.191 Y69.884 E31.57100
G1 X54.609 Y90.465 E32.53871
G1 X54.609 Y90.842 E32.55125
G1 X75.567 Y69.884 E33.53669
G1 X75.944 Y69.884 E33.54922
G1 X54.609 Y91.219 E34.55239
G1 X54.609 Y91.596 E34.56492
G1 X76.321 Y69.884 E35.58581
G1 X76.698 Y69.884 E35.59835
G1 X54.609 Y91.973 E36.63696
G1 X54.609 Y92.350 E36.64949
G1 X77.075 Y69.884 E37.70583
G1 X77.452 Y69.884 E37.71837
G1 X54.609 Y92.727 E38.79243
G1 X54.609 Y93.104 E38.80496
G1 X77.829 Y69.884 E39.89675
G1 X78.206 Y69.884 E39.90929
G1 X54.609 Y93.481 E41.01880
G1 X54.609 Y93.858 E41.03133
G1 X78.583 Y69.884 E42.15857
G1 X78.960 Y69.884 E42.17110
G1 X54.609 Y94.235 E43.31606
G1 X54.609 Y94.612 E43.32859
G1 X79.337 Y69.884 E44.49128
G1 X79.714 Y69.884 E44.50381
G1 X54.609 Y94.989 E45.68422
G1 X54.609 Y95.366 E45.69676
G1 X80.091 Y69.884 E46.89489
G1 X80.468 Y69.884 E46.90742
G1 X54.609 Y95.743 E48.12328
G1 X54.609 Y96.120 E48.13581
G1 X80.845 Y69.884 E49.36940
G1 X81.222 Y69.884 E49.38193
G1 X54.609 Y96.497 E50.63324
G1 X54.609 Y96.634 E50.63778
G1 X54.849 Y96.634 E50.64577
G1 X81.599 Y69.884 E51.90350
G1 X81.976 Y69.884 E51.91603
G1 X55.226 Y96.634 E53.17376
G1 X55.603 Y96.634 E53.18629
G1 X82.353 Y69.884 E54.44402
G1 X82.730 Y69.884 E54.45655
G1 X55.980 Y96.634 E55.71428
G1 X56.357 Y96.634 E55.72681
G1 X83.107 Y69.884 E56.98454
G1 X83.484 Y69.884 E56.99707
G1 X56.734 Y96.634 E58.25480
G1 X57.111 Y96.634 E58.26734
G1 X83.861 Y69.884 E59.52506
G1 X84.238 Y69.884 E59.53760
G1 X57.488 Y96.634 E60.79533
G1 X57.865 Y96.634 E60.80786
G1 X84.615 Y69.884 E62.06559
G1 X84.992 Y69.884 E62.07812
G1 X58.242 Y96.634 E63.33585
G1 X58.619 Y96.634 E63.34838
G1 X85.369 Y69.884 E64.60611
