; generated by Slic3r 1.3.1-dev (Build adea0d9) on 2020-03-12 at 20:45:15

; external perimeters extrusion width = 0.44mm (2.86mm^3/s)
; perimeters extrusion width = 0.56mm (4.14mm^3/s)
; infill extrusion width = 0.50mm (3.66mm^3/s)
; solid infill extrusion width = 0.56mm (3.10mm^3/s)
; top infill extrusion width = 0.56mm (3.10mm^3/s)

M107
G92 E0
;D3D:START:START
T0
M104 S215 T0

G21
G90
M107
T0
G28
G29
M109 T0 S215 T0
G0 F3000
M107
T0
G92 E0
G0 X0 Y149 Z0.1 F3600
G1 Y49 E6.5 F1200
G0 Z1
G92 E0
; Filament gcode

G21 ; set units to millimeters
G90 ; use absolute coordinates
M82 ; use absolute distances for extrusion
G92 E0
G1 Z0.300 F7800.000
G1 E-2.00000 F2400.00000
G92 E0
G1 X59.054 Y70.721 F7800.000
G1 E2.00000 F2400.00000
G1 F1800.000
G1 X90.946 Y70.721 E3.05658
G1 X90.946 Y40.221 E4.06703
G1 X92.554 Y40.221 E4.12029
G1 X92.554 Y73.329 E5.21713
G1 X87.554 Y73.329 E5.38277
G1 X87.554 Y95.796 E6.12710
G1 X62.446 Y95.796 E6.95890
G1 X62.446 Y73.329 E7.70322
G1 X57.446 Y73.329 E7.86887
G1 X57.446 Y40.221 E8.96571
G1 X59.054 Y40.221 E9.01896
G1 X59.054 Y70.661 E10.02743
G1 X59.319 Y70.456 F7800.000
G1 F1800.000
G1 X90.681 Y70.456 E11.06641
G1 X90.681 Y39.956 E12.07686
G1 X92.819 Y39.956 E12.14772
G1 X92.819 Y73.594 E13.26215
G1 X87.819 Y73.594 E13.42780
G1 X87.819 Y96.062 E14.17213
G1 X62.181 Y96.062 E15.02153
G1 X62.181 Y73.594 E15.76585
G1 X57.181 Y73.594 E15.93150
G1 X57.181 Y39.956 E17.04593
G1 X59.319 Y39.956 E17.11679
G1 X59.319 Y70.396 E18.12525
G1 X59.585 Y70.190 F7800.000
G1 F1800.000
G1 X90.415 Y70.190 E19.14664
G1 X90.415 Y39.690 E20.15709
G1 X93.085 Y39.690 E20.24554
G1 X93.085 Y73.860 E21.37758
G1 X88.085 Y73.860 E21.54323
G1 X88.085 Y96.327 E22.28755
G1 X61.915 Y96.327 E23.15455
G1 X61.915 Y73.860 E23.89888
G1 X56.915 Y73.860 E24.06452
G1 X56.915 Y39.690 E25.19656
G1 X59.585 Y39.690 E25.28502
G1 X59.585 Y70.130 E26.29348
G1 X59.597 Y70.590 F7800.000
G1 E24.29348 F2400.00000
G92 E0
G1 X57.609 Y40.590 F7800.000
G1 E2.00000 F2400.00000
G1 F1800.000
G1 X57.815 Y40.384 E2.00969
G1 X58.192 Y40.384 E2.02217
G1 X57.609 Y40.967 E2.04951
G1 X57.609 Y41.343 E2.06199
G1 X58.568 Y40.384 E2.10697
G1 X58.891 Y40.384 E2.11772
G1 X58.891 Y40.436 E2.11945
G1 X57.609 Y41.719 E2.17963
G1 X57.609 Y42.095 E2.19210
G1 X58.891 Y40.812 E2.25228
G1 X58.891 Y41.188 E2.26475
G1 X57.609 Y42.471 E2.32493
G1 X57.609 Y42.847 E2.33741
G1 X58.891 Y41.564 E2.39759
G1 X58.891 Y41.940 E2.41006
G1 X57.609 Y43.223 E2.47024
G1 X57.609 Y43.599 E2.48271
G1 X58.891 Y42.316 E2.54289
G1 X58.891 Y42.692 E2.55537
G1 X57.609 Y43.975 E2.61555
G1 X57.609 Y44.351 E2.62802
G1 X58.891 Y43.068 E2.68820
G1 X58.891 Y43.444 E2.70067
G1 X57.609 Y44.727 E2.76085
G1 X57.609 Y45.103 E2.77333
G1 X58.891 Y43.821 E2.83351
G1 X58.891 Y44.197 E2.84598
G1 X57.609 Y45.480 E2.90616
G1 X57.609 Y45.856 E2.91863
G1 X58.891 Y44.573 E2.97881
G1 X58.891 Y44.949 E2.99129
G1 X57.609 Y46.232 E3.05147
G1 X57.609 Y46.608 E3.06394
G1 X58.891 Y45.325 E3.12412
G1 X58.891 Y45.701 E3.13659
G1 X57.609 Y46.984 E3.19677
G1 X57.609 Y47.360 E3.20925
G1 X58.891 Y46.077 E3.26943
G1 X58.891 Y46.453 E3.28190
G1 X57.609 Y47.736 E3.34208
G1 X57.609 Y48.112 E3.35455
G1 X58.891 Y46.829 E3.41473
G1 X58.891 Y47.205 E3.42721
G1 X57.609 Y48.488 E3.48739
G1 X57.609 Y48.864 E3.49986
G1 X58.891 Y47.581 E3.56004
G1 X58.891 Y47.957 E3.57251
G1 X57.609 Y49.240 E3.63269
G1 X57.609 Y49.616 E3.64517
G1 X58.891 Y48.334 E3.70535
G1 X58.891 Y48.710 E3.71782
G1 X57.609 Y49.993 E3.77800
G1 X57.609 Y50.369 E3.79047
G1 X58.891 Y49.086 E3.85065
G1 X58.891 Y49.462 E3.86313
G1 X57.609 Y50.745 E3.92331
G1 X57.609 Y51.121 E3.93578
G1 X58.891 Y49.838 E3.99596
G1 X58.891 Y50.214 E4.00843
G1 X57.609 Y51.497 E4.06861
G1 X57.609 Y51.873 E4.08109
G1 X58.891 Y50.590 E4.14127
G1 X58.891 Y50.966 E4.15374
G1 X57.609 Y52.249 E4.21392
G1 X57.609 Y52.625 E4.22639
G1 X58.891 Y51.342 E4.28657
G1 X58.891 Y51.718 E4.29905
G1 X57.609 Y53.001 E4.35923
G1 X57.609 Y53.377 E4.37170
G1 X58.891 Y52.094 E4.43188
G1 X58.891 Y52.471 E4.44435
G1 X57.609 Y53.753 E4.50453
G1 X57.609 Y54.130 E4.51701
G1 X58.891 Y52.847 E4.57719
G1 X58.891 Y53.223 E4.58966
G1 X57.609 Y54.506 E4.64984
G1 X57.609 Y54.882 E4.66231
G1 X58.891 Y53.599 E4.72249
G1 X58.891 Y53.975 E4.73497
G1 X57.609 Y55.258 E4.79515
G1 X57.609 Y55.634 E4.80762
G1 X58.891 Y54.351 E4.86780
G1 X58.891 Y54.727 E4.88027
G1 X57.609 Y56.010 E4.94045
G1 X57.609 Y56.386 E4.95293
G1 X58.891 Y55.103 E5.01311
G1 X58.891 Y55.479 E5.02558
G1 X57.609 Y56.762 E5.08576
G1 X57.609 Y57.138 E5.09823
G1 X58.891 Y55.855 E5.15841
G1 X58.891 Y56.231 E5.17089
G1 X57.609 Y57.514 E5.23107
G1 X57.609 Y57.890 E5.24354
G1 X58.891 Y56.607 E5.30372
G1 X58.891 Y56.984 E5.31619
G1 X57.609 Y58.266 E5.37637
G1 X57.609 Y58.643 E5.38885
G1 X58.891 Y57.360 E5.44903
G1 X58.891 Y57.736 E5.46150
G1 X57.609 Y59.019 E5.52168
G1 X57.609 Y59.395 E5.53415
G1 X58.891 Y58.112 E5.59433
G1 X58.891 Y58.488 E5.60681
G1 X57.609 Y59.771 E5.66699
G1 X57.609 Y60.147 E5.67946
G1 X58.891 Y58.864 E5.73964
G1 X58.891 Y59.240 E5.75211
G1 X57.609 Y60.523 E5.81229
G1 X57.609 Y60.899 E5.82477
G1 X58.891 Y59.616 E5.88495
G1 X58.891 Y59.992 E5.89742
G1 X57.609 Y61.275 E5.95760
G1 X57.609 Y61.651 E5.97007
G1 X58.891 Y60.368 E6.03025
G1 X58.891 Y60.744 E6.04273
G1 X57.609 Y62.027 E6.10291
G1 X57.609 Y62.403 E6.11538
G1 X58.891 Y61.120 E6.17556
G1 X58.891 Y61.497 E6.18803
G1 X57.609 Y62.779 E6.24821
G1 X57.609 Y63.156 E6.26069
G1 X58.891 Y61.873 E6.32087
G1 X58.891 Y62.249 E6.33334
G1 X57.609 Y63.532 E6.39352
G1 X57.609 Y63.908 E6.40599
G1 X58.891 Y62.625 E6.46617
G1 X58.891 Y63.001 E6.47865
G1 X57.609 Y64.284 E6.53883
G1 X57.609 Y64.660 E6.55130
G1 X58.891 Y63.377 E6.61148
G1 X58.891 Y63.753 E6.62395
G1 X57.609 Y65.036 E6.68413
G1 X57.609 Y65.412 E6.69661
G1 X58.891 Y64.129 E6.75679
G1 X58.891 Y64.505 E6.76926
G1 X57.609 Y65.788 E6.82944
G1 X57.609 Y66.164 E6.84191
G1 X58.891 Y64.881 E6.90209
G1 X58.891 Y65.257 E6.91457
G1 X57.609 Y66.540 E6.97475
G1 X57.609 Y66.916 E6.98722
G1 X58.891 Y65.634 E7.04740
G1 X58.891 Y66.010 E7.05987
G1 X57.609 Y67.293 E7.12005
G1 X57.609 Y67.669 E7.13253
G1 X58.891 Y66.386 E7.19271
G1 X58.891 Y66.762 E7.20518
G1 X57.609 Y68.045 E7.26536
G1 X57.609 Y68.421 E7.27783
G1 X58.891 Y67.138 E7.33801
G1 X58.891 Y67.514 E7.35049
G1 X57.609 Y68.797 E7.41067
G1 X57.609 Y69.173 E7.42314
G1 X58.891 Y67.890 E7.48332
G1 X58.891 Y68.266 E7.49579
G1 X57.609 Y69.549 E7.55597
G1 X57.609 Y69.925 E7.56845
G1 X58.891 Y68.642 E7.62863
G1 X58.891 Y69.018 E7.64110
G1 X57.609 Y70.301 E7.70128
G1 X57.609 Y70.677 E7.71375
G1 X58.891 Y69.394 E7.77393
G1 X58.891 Y69.770 E7.78641
G1 X57.609 Y71.053 E7.84659
G1 X57.609 Y71.429 E7.85906
G1 X58.891 Y70.147 E7.91924
G1 X58.891 Y70.523 E7.93171
G1 X57.609 Y71.806 E7.99189
G1 X57.609 Y72.182 E8.00437
G1 X58.907 Y70.884 E8.06526
G1 X59.283 Y70.884 E8.07773
G1 X57.609 Y72.558 E8.15627
G1 X57.609 Y72.934 E8.16874
G1 X59.659 Y70.884 E8.26491
G1 X60.035 Y70.884 E8.27739
G1 X57.752 Y73.166 E8.38447
G1 X58.128 Y73.166 E8.39695
G1 X60.411 Y70.884 E8.50404
G1 X60.787 Y70.884 E8.51651
G1 X58.504 Y73.166 E8.62360
G1 X58.880 Y73.166 E8.63607
G1 X61.163 Y70.884 E8.74316
G1 X61.539 Y70.884 E8.75563
G1 X59.256 Y73.166 E8.86272
G1 X59.632 Y73.166 E8.87519
G1 X61.915 Y70.884 E8.98228
G1 X62.291 Y70.884 E8.99475
G1 X60.008 Y73.166 E9.10184
G1 X60.385 Y73.166 E9.11431
G1 X62.668 Y70.884 E9.22140
G1 X63.044 Y70.884 E9.23387
G1 X60.761 Y73.166 E9.34096
G1 X61.137 Y73.166 E9.35344
G1 X63.420 Y70.884 E9.46052
G1 X63.796 Y70.884 E9.47300
G1 X61.513 Y73.166 E9.58008
G1 X61.889 Y73.166 E9.59256
G1 X64.172 Y70.884 E9.69964
G1 X64.548 Y70.884 E9.71212
G1 X62.265 Y73.166 E9.81921
G1 X62.609 Y73.166 E9.83060
G1 X62.609 Y73.199 E9.83168
G1 X64.924 Y70.884 E9.94029
G1 X65.300 Y70.884 E9.95277
G1 X62.609 Y73.575 E10.07902
G1 X62.609 Y73.951 E10.09150
G1 X65.676 Y70.884 E10.23539
G1 X66.052 Y70.884 E10.24787
G1 X62.609 Y74.327 E10.40940
G1 X62.609 Y74.703 E10.42188
G1 X66.428 Y70.884 E10.60106
G1 X66.804 Y70.884 E10.61353
G1 X62.609 Y75.079 E10.81035
G1 X62.609 Y75.456 E10.82283
G1 X67.181 Y70.884 E11.03729
G1 X67.557 Y70.884 E11.04976
G1 X62.609 Y75.832 E11.28187
G1 X62.609 Y76.208 E11.29434
G1 X67.933 Y70.884 E11.54408
G1 X68.309 Y70.884 E11.55656
G1 X62.609 Y76.584 E11.82394
G1 X62.609 Y76.960 E11.83642
G1 X68.685 Y70.884 E12.12144
G1 X69.061 Y70.884 E12.13392
G1 X62.609 Y77.336 E12.43659
G1 X62.609 Y77.712 E12.44906
G1 X69.437 Y70.884 E12.76937
G1 X69.813 Y70.884 E12.78184
G1 X62.609 Y78.088 E13.11979
G1 X62.609 Y78.464 E13.13227
G1 X70.189 Y70.884 E13.48786
G1 X70.565 Y70.884 E13.50033
G1 X62.609 Y78.840 E13.87357
G1 X62.609 Y79.216 E13.88604
G1 X70.941 Y70.884 E14.27691
G1 X71.317 Y70.884 E14.28939
G1 X62.609 Y79.592 E14.69790
G1 X62.609 Y79.969 E14.71038
G1 X71.694 Y70.884 E15.13654
G1 X72.070 Y70.884 E15.14901
G1 X62.609 Y80.345 E15.59281
G1 X62.609 Y80.721 E15.60528
G1 X72.446 Y70.884 E16.06672
G1 X72.822 Y70.884 E16.07920
G1 X62.609 Y81.097 E16.55828
G1 X62.609 Y81.473 E16.57075
G1 X73.198 Y70.884 E17.06747
G1 X73.574 Y70.884 E17.07995
G1 X62.609 Y81.849 E17.59431
G1 X62.609 Y82.225 E17.60678
G1 X73.950 Y70.884 E18.13879
G1 X74.326 Y70.884 E18.15126
G1 X62.609 Y82.601 E18.70091
G1 X62.609 Y82.977 E18.71338
G1 X74.702 Y70.884 E19.28067
G1 X75.078 Y70.884 E19.29314
G1 X62.609 Y83.353 E19.87807
G1 X62.609 Y83.729 E19.89054
G1 X75.454 Y70.884 E20.49311
G1 X75.831 Y70.884 E20.50559
G1 X62.609 Y84.106 E21.12580
G1 X62.609 Y84.482 E21.13827
G1 X76.207 Y70.884 E21.77612
G1 X76.583 Y70.884 E21.78860
G1 X62.609 Y84.858 E22.44409
G1 X62.609 Y85.234 E22.45657
G1 X76.959 Y70.884 E23.12970
G1 X77.335 Y70.884 E23.14218
G1 X62.609 Y85.610 E23.83295
G1 X62.609 Y85.986 E23.84543
G1 X77.711 Y70.884 E24.55384
G1 X78.087 Y70.884 E24.56632
G1 X62.609 Y86.362 E25.29237
G1 X62.609 Y86.738 E25.30485
G1 X78.463 Y70.884 E26.04855
G1 X78.839 Y70.884 E26.06102
G1 X62.609 Y87.114 E26.82236
G1 X62.609 Y87.490 E26.83484
G1 X79.215 Y70.884 E27.61382
G1 X79.591 Y70.884 E27.62629
G1 X62.609 Y87.866 E28.42292
G1 X62.609 Y88.242 E28.43539
G1 X79.967 Y70.884 E29.24966
G1 X80.344 Y70.884 E29.26213
G1 X62.609 Y88.619 E30.09404
G1 X62.609 Y88.995 E30.10651
G1 X80.720 Y70.884 E30.95606
G1 X81.096 Y70.884 E30.96853
G1 X62.609 Y89.371 E31.83572
G1 X62.609 Y89.747 E31.84819
G1 X81.472 Y70.884 E32.73302
G1 X81.848 Y70.884 E32.74550
G1 X62.609 Y90.123 E33.64797
G1 X62.609 Y90.499 E33.66044
G1 X82.224 Y70.884 E34.58055
G1 X82.600 Y70.884 E34.59303
G1 X62.609 Y90.875 E35.53078
G1 X62.609 Y91.251 E35.54326
G1 X82.976 Y70.884 E36.49865
G1 X83.352 Y70.884 E36.51113
G1 X62.609 Y91.627 E37.48416
G1 X62.609 Y92.003 E37.49664
G1 X83.728 Y70.884 E38.48731
G1 X84.104 Y70.884 E38.49979
G1 X62.609 Y92.379 E39.50811
G1 X62.609 Y92.755 E39.52058
G1 X84.481 Y70.884 E40.54654
G1 X84.857 Y70.884 E40.55901
G1 X62.609 Y93.132 E41.60261
G1 X62.609 Y93.508 E41.61509
G1 X85.233 Y70.884 E42.67633
G1 X85.609 Y70.884 E42.68881
G1 X62.609 Y93.884 E43.76769
G1 X62.609 Y94.260 E43.78016
G1 X85.985 Y70.884 E44.87669
G1 X86.361 Y70.884 E44.88916
G1 X62.609 Y94.636 E46.00333
G1 X62.609 Y95.012 E46.01580
G1 X86.737 Y70.884 E47.14761
G1 X87.113 Y70.884 E47.16008
G1 X62.609 Y95.388 E48.30953
G1 X62.609 Y95.634 E48.31767
G1 X62.739 Y95.634 E48.32201
G1 X87.489 Y70.884 E49.48297
G1 X87.865 Y70.884 E49.49544
G1 X63.115 Y95.634 E50.65641
G1 X63.491 Y95.634 E50.66888
G1 X88.241 Y70.884 E51.82985
G1 X88.617 Y70.884 E51.84232
G1 X63.867 Y95.634 E53.00329
G1 X64.243 Y95.634 E53.01576
G1 X88.994 Y70.884 E54.17672
G1 X89.370 Y70.884 E54.18920
G1 X64.620 Y95.634 E55.35016
G1 X64.996 Y95.634 E55.36264
G1 X87.391 Y73.238 E56.41317
G1 X87.391 Y73.614 E56.42564
G1 X65.372 Y95.634 E57.45853
G1 X65.748 Y95.634 E57.47101
G1 X87.391 Y73.990 E58.48626
G1 X87.391 Y74.366 E58.49873
G1 X66.124 Y95.634 E59.49634
G1 X66.500 Y95.634 E59.50882
G1 X87.391 Y74.742 E60.48878
G1 X87.391 Y75.118 E60.50126
G1 X66.876 Y95.634 E61.46358
G1 X67.252 Y95.634 E61.47606
G1 X87.391 Y75.494 E62.42074
G1 X87.391 Y75.870 E62.43322
G1 X67.628 Y95.634 E63.36026
G1 X68.004 Y95.634 E63.37274
G1 X87.391 Y76.246 E64.28214
G1 X87.391 Y76.623 E64.29461
G1 X68.380 Y95.634 E65.18637
G1 X68.757 Y95.634 E65.19885
G1 X87.391 Y76.999 E66.07297
G1 X87.391 Y77.375 E66.08544
G1 X69.133 Y95.634 E66.94192
G1 X69.509 Y95.634 E66.95439
G1 X87.391 Y77.751 E67.79323
G1 X87.391 Y78.127 E67.80571
G1 X69.885 Y95.634 E68.62690
G1 X70.261 Y95.634 E68.63938
G1 X87.391 Y78.503 E69.44293
G1 X87.391 Y78.879 E69.45541
G1 X70.637 Y95.634 E70.24132
G1 X71.013 Y95.634 E70.25379
G1 X87.391 Y79.255 E71.02207
G1 X87.391 Y79.631 E71.03454
G1 X71.389 Y95.634 E71.78517
G1 X71.765 Y95.634 E71.79765
G1 X87.391 Y80.007 E72.53063
G1 X87.391 Y80.383 E72.54311
G1 X72.141 Y95.634 E73.25846
G1 X72.517 Y95.634 E73.27093
G1 X87.391 Y80.759 E73.96864
G1 X87.391 Y81.136 E73.98111
G1 X72.893 Y95.634 E74.66118
G1 X73.270 Y95.634 E74.67365
G1 X87.391 Y81.512 E75.33608
G1 X87.391 Y81.888 E75.34855
G1 X73.646 Y95.634 E75.99334
G1 X74.022 Y95.634 E76.00581
G1 X87.391 Y82.264 E76.63295
G1 X87.391 Y82.640 E76.64543
G1 X74.398 Y95.634 E77.25493
G1 X74.774 Y95.634 E77.26740
G1 X87.391 Y83.016 E77.85926
G1 X87.391 Y83.392 E77.87174
G1 X75.150 Y95.634 E78.44595
G1 X75.526 Y95.634 E78.45843
G1 X87.391 Y83.768 E79.01501
G1 X87.391 Y84.144 E79.02748
G1 X75.902 Y95.634 E79.56642
G1 X76.278 Y95.634 E79.57889
G1 X87.391 Y84.520 E80.10018
G1 X87.391 Y84.896 E80.11266
G1 X76.654 Y95.634 E80.61631
G1 X77.030 Y95.634 E80.62879
G1 X87.391 Y85.273 E81.11480
G1 X87.391 Y85.649 E81.12727
G1 X77.406 Y95.634 E81.59564
G1 X77.783 Y95.634 E81.60812
G1 X87.391 Y86.025 E82.05885
G1 X87.391 Y86.401 E82.07132
G1 X78.159 Y95.634 E82.50441
G1 X78.535 Y95.634 E82.51688
G1 X87.391 Y86.777 E82.93233
G1 X87.391 Y87.153 E82.94480
G1 X78.911 Y95.634 E83.34261
G1 X79.287 Y95.634 E83.35508
G1 X87.391 Y87.529 E83.73525
G1 X87.391 Y87.905 E83.74772
G1 X79.663 Y95.634 E84.11025
G1 X80.039 Y95.634 E84.12272
G1 X87.391 Y88.281 E84.46760
G1 X87.391 Y88.657 E84.48008
G1 X80.415 Y95.634 E84.80732
G1 X80.791 Y95.634 E84.81979
G1 X87.391 Y89.033 E85.12939
G1 X87.391 Y89.409 E85.14187
G1 X81.167 Y95.634 E85.43382
G1 X81.543 Y95.634 E85.44630
G1 X87.391 Y89.786 E85.72061
G1 X87.391 Y90.162 E85.73309
G1 X81.920 Y95.634 E85.98976
G1 X82.296 Y95.634 E86.00224
G1 X87.391 Y90.538 E86.24127
G1 X87.391 Y90.914 E86.25375
G1 X82.672 Y95.634 E86.47514
G1 X83.048 Y95.634 E86.48761
G1 X87.391 Y91.290 E86.69137
G1 X87.391 Y91.666 E86.70384
G1 X83.424 Y95.634 E86.88995
G1 X83.800 Y95.634 E86.90243
G1 X87.391 Y92.042 E87.07089
G1 X87.391 Y92.418 E87.08337
G1 X84.176 Y95.634 E87.23420
G1 X84.552 Y95.634 E87.24667
G1 X87.391 Y92.794 E87.37986
G1 X87.391 Y93.170 E87.39233
G1 X84.928 Y95.634 E87.50788
G1 X85.304 Y95.634 E87.52035
G1 X87.391 Y93.546 E87.61826
G1 X87.391 Y93.923 E87.63073
G1 X85.680 Y95.634 E87.71099
G1 X86.056 Y95.634 E87.72347
G1 X87.391 Y94.299 E87.78609
G1 X87.391 Y94.675 E87.79856
G1 X86.433 Y95.634 E87.84354
G1 X86.809 Y95.634 E87.85602
G1 X87.391 Y95.051 E87.88336
G1 X87.391 Y95.427 E87.89583
G1 X87.185 Y95.634 E87.90553
G1 E85.90553 F2400.00000
G92 E0
G1 X91.976 Y73.166 F7800.000
G1 E2.00000 F2400.00000
G1 F1800.000
G1 X92.391 Y72.751 E2.01950
G1 X92.391 Y72.375 E2.03197
G1 X91.600 Y73.166 E2.06911
G1 X91.224 Y73.166 E2.08158
G1 X92.391 Y71.999 E2.13636
G1 X92.391 Y71.623 E2.14884
G1 X90.848 Y73.166 E2.22126
G1 X90.471 Y73.166 E2.23373
G1 X92.391 Y71.246 E2.32380
G1 X92.391 Y70.870 E2.33627
G1 X90.095 Y73.166 E2.44397
G1 X89.719 Y73.166 E2.45645
G1 X92.391 Y70.494 E2.58179
G1 X92.391 Y70.118 E2.59427
G1 X89.343 Y73.166 E2.73725
G1 X88.967 Y73.166 E2.74973
G1 X91.250 Y70.884 E2.85681
G1 X90.874 Y70.884 E2.86929
G1 X88.591 Y73.166 E2.97638
G1 X88.215 Y73.166 E2.98885
G1 X90.498 Y70.884 E3.09594
G1 X90.122 Y70.884 E3.10841
G1 X87.839 Y73.166 E3.21550
G1 X87.463 Y73.166 E3.22797
G1 X89.746 Y70.884 E3.33506
G1 X89.370 Y70.884 E3.34753
G1 X91.109 Y71.025 F7800.000
G1 F1800.000
G1 X92.391 Y69.742 E3.40771
G1 X92.391 Y69.366 E3.42019
G1 X91.109 Y70.649 E3.48037
G1 X91.109 Y70.273 E3.49284
G1 X92.391 Y68.990 E3.55302
G1 X92.391 Y68.614 E3.56549
