; generated by Slic3r 1.3.1-dev (Build adea0d9) on 2020-03-12 at 20:43:09

; external perimeters extrusion width = 0.44mm (2.86mm^3/s)
; perimeters extrusion width = 0.56mm (4.14mm^3/s)
; infill extrusion width = 0.50mm (3.66mm^3/s)
; solid infill extrusion width = 0.56mm (3.10mm^3/s)
; top infill extrusion width = 0.56mm (3.10mm^3/s)

M107
G92 E0
;D3D:START:START
T0
M104 S215 T0

G21
G90
M107
T0
G28
G29
M109 T0 S215 T0
G0 F3000
M107
T0
G92 E0
G0 X0 Y149 Z0.1 F3600
G1 Y49 E6.5 F1200
G0 Z1
G92 E0
; Filament gcode

G21 ; set units to millimeters
G90 ; use absolute coordinates
M82 ; use absolute distances for extrusion
G92 E0
G1 Z0.300 F7800.000
G1 E-2.00000 F2400.00000
G92 E0
G1 X73.421 Y77.827 F7800.000
G1 E2.00000 F2400.00000
G1 F1800.000
G1 X74.170 Y77.445 E2.02784
G1 X75.000 Y77.314 E2.05568
G1 X75.830 Y77.445 E2.08352
G1 X76.579 Y77.827 E2.11136
G1 X77.173 Y78.421 E2.13920
G1 X77.555 Y79.170 E2.16704
G1 X77.686 Y80.000 E2.19489
G1 X77.555 Y80.830 E2.22273
G1 X77.173 Y81.579 E2.25057
G1 X76.579 Y82.173 E2.27841
G1 X75.830 Y82.555 E2.30625
G1 X75.000 Y82.686 E2.33409
G1 X74.170 Y82.555 E2.36193
G1 X73.421 Y82.173 E2.38977
G1 X72.827 Y81.579 E2.41761
G1 X72.445 Y80.830 E2.44545
G1 X72.314 Y80.000 E2.47329
G1 X72.445 Y79.170 E2.50113
G1 X72.827 Y78.421 E2.52898
G1 X73.379 Y77.869 E2.55483
G1 X73.579 Y78.045 F7800.000
G1 F1800.000
G1 X74.253 Y77.701 E2.57988
G1 X75.000 Y77.583 E2.60494
G1 X75.747 Y77.701 E2.62999
G1 X76.421 Y78.045 E2.65504
G1 X76.955 Y78.579 E2.68009
G1 X77.299 Y79.253 E2.70515
G1 X77.417 Y80.000 E2.73020
G1 X77.299 Y80.747 E2.75525
G1 X76.955 Y81.421 E2.78031
G1 X76.421 Y81.955 E2.80536
G1 X75.747 Y82.299 E2.83041
G1 X75.000 Y82.417 E2.85547
G1 X74.253 Y82.299 E2.88052
G1 X73.579 Y81.955 E2.90557
G1 X73.045 Y81.421 E2.93063
G1 X72.701 Y80.747 E2.95568
G1 X72.583 Y80.000 E2.98073
G1 X72.701 Y79.253 E3.00579
G1 X73.045 Y78.579 E3.03084
G1 X73.537 Y78.087 E3.05391
G1 X73.537 Y77.647 F7800.000
G1 E1.05391 F2400.00000
G92 E0
G1 X74.170 Y72.555 F7800.000
G1 E2.00000 F2400.00000
G1 F1800.000
G1 X73.421 Y72.173 E2.02784
G1 X72.827 Y71.579 E2.05568
G1 X72.445 Y70.830 E2.08352
G1 X72.314 Y70.000 E2.11136
G1 X72.445 Y69.170 E2.13920
G1 X72.827 Y68.421 E2.16705
G1 X73.421 Y67.827 E2.19489
G1 X74.170 Y67.445 E2.22273
G1 X75.000 Y67.314 E2.25057
G1 X75.830 Y67.445 E2.27841
G1 X76.579 Y67.827 E2.30625
G1 X77.173 Y68.421 E2.33409
G1 X77.555 Y69.170 E2.36193
G1 X77.686 Y70.000 E2.38977
G1 X77.555 Y70.830 E2.41761
G1 X77.173 Y71.579 E2.44545
G1 X76.579 Y72.173 E2.47329
G1 X75.830 Y72.555 E2.50113
G1 X75.000 Y72.686 E2.52898
G1 X74.229 Y72.564 E2.55483
G1 X74.253 Y72.299 F7800.000
G1 F1800.000
G1 X73.579 Y71.955 E2.57988
G1 X73.045 Y71.421 E2.60494
G1 X72.701 Y70.747 E2.62999
G1 X72.583 Y70.000 E2.65504
G1 X72.701 Y69.253 E2.68010
G1 X73.045 Y68.579 E2.70515
G1 X73.579 Y68.045 E2.73020
G1 X74.253 Y67.701 E2.75526
G1 X75.000 Y67.583 E2.78031
G1 X75.747 Y67.701 E2.80536
G1 X76.421 Y68.045 E2.83041
G1 X76.955 Y68.579 E2.85547
G1 X77.299 Y69.253 E2.88052
G1 X77.417 Y70.000 E2.90557
G1 X77.299 Y70.747 E2.93063
G1 X76.955 Y71.421 E2.95568
G1 X76.421 Y71.955 E2.98073
G1 X75.747 Y72.299 E3.00579
G1 X75.000 Y72.417 E3.03084
G1 X74.312 Y72.308 E3.05391
G1 X73.956 Y72.566 F7800.000
G1 E1.05391 F2400.00000
G92 E0
G1 X74.697 Y67.093 F7800.000
G1 E2.00000 F2400.00000
G1 F1800.000
G1 X74.087 Y67.190 E2.02046
G1 X73.263 Y67.609 E2.05109
G1 X72.609 Y68.263 E2.08172
G1 X72.190 Y69.087 E2.11234
G1 X72.045 Y70.000 E2.14297
G1 X72.190 Y70.913 E2.17360
G1 X72.609 Y71.737 E2.20423
G1 X73.263 Y72.391 E2.23486
G1 X74.087 Y72.810 E2.26549
G1 X75.000 Y72.955 E2.29611
G1 X75.913 Y72.810 E2.32674
G1 X76.737 Y72.391 E2.35737
G1 X77.391 Y71.737 E2.38800
G1 X77.810 Y70.913 E2.41863
G1 X77.955 Y70.000 E2.44925
G1 X77.810 Y69.087 E2.47988
G1 X77.391 Y68.263 E2.51051
G1 X76.737 Y67.609 E2.54114
G1 X75.913 Y67.190 E2.57177
G1 X75.303 Y67.093 E2.59223
G1 X75.315 Y66.946 E2.59711
G1 X83.829 Y66.946 E2.87917
G1 X83.829 Y83.054 E3.41281
G1 X75.315 Y83.054 E3.69487
G1 X75.303 Y82.907 E3.69975
G1 X75.913 Y82.810 E3.72021
G1 X76.737 Y82.391 E3.75084
G1 X77.391 Y81.737 E3.78147
G1 X77.810 Y80.913 E3.81210
G1 X77.955 Y80.000 E3.84273
G1 X77.810 Y79.087 E3.87335
G1 X77.391 Y78.263 E3.90398
G1 X76.737 Y77.609 E3.93461
G1 X75.913 Y77.190 E3.96524
G1 X75.000 Y77.045 E3.99587
G1 X74.087 Y77.190 E4.02650
G1 X73.263 Y77.609 E4.05712
G1 X72.609 Y78.263 E4.08775
G1 X72.190 Y79.087 E4.11838
G1 X72.045 Y80.000 E4.14901
G1 X72.190 Y80.913 E4.17964
G1 X72.609 Y81.737 E4.21027
G1 X73.263 Y82.391 E4.24089
G1 X74.087 Y82.810 E4.27152
G1 X74.697 Y82.907 E4.29198
G1 X74.685 Y83.054 E4.29686
G1 X66.171 Y83.054 E4.57893
G1 X66.171 Y66.946 E5.11256
G1 X74.685 Y66.946 E5.39463
G1 X74.692 Y67.033 E5.39752
G1 E3.39752 F2400.00000
G92 E0
G1 X65.906 Y66.681 F7800.000
G1 E2.00000 F2400.00000
G1 F1800.000
G1 X84.094 Y66.681 E2.60259
G1 X84.094 Y83.319 E3.15382
G1 X65.906 Y83.319 E3.75640
G1 X65.906 Y66.741 E4.30565
G1 X65.640 Y66.415 F7800.000
G1 F1800.000
G1 X84.360 Y66.415 E4.92584
G1 X84.360 Y83.585 E5.49467
G1 X65.640 Y83.585 E6.11485
G1 X65.640 Y66.475 E6.68170
G1 X66.028 Y66.513 F7800.000
G1 X66.540 Y67.109 F7800.000
G1 F1800.000
G1 X66.334 Y67.315 E6.69140
G1 X66.334 Y67.691 E6.70386
G1 X66.916 Y67.109 E6.73118
G1 X67.292 Y67.109 E6.74364
G1 X66.334 Y68.067 E6.78858
G1 X66.334 Y68.443 E6.80105
G1 X67.668 Y67.109 E6.86361
G1 X68.044 Y67.109 E6.87607
G1 X66.334 Y68.819 E6.95626
G1 X66.334 Y69.195 E6.96872
G1 X68.420 Y67.109 E7.06653
G1 X68.796 Y67.109 E7.07899
G1 X66.334 Y69.571 E7.19443
G1 X66.334 Y69.947 E7.20689
G1 X69.172 Y67.109 E7.33995
G1 X69.547 Y67.109 E7.35241
G1 X66.334 Y70.322 E7.50309
G1 X66.334 Y70.698 E7.51555
G1 X69.923 Y67.109 E7.68385
G1 X70.299 Y67.109 E7.69631
G1 X66.334 Y71.074 E7.88224
G1 X66.334 Y71.450 E7.89470
G1 X70.675 Y67.109 E8.09825
G1 X71.051 Y67.109 E8.11071
G1 X66.334 Y71.826 E8.33188
G1 X66.334 Y72.202 E8.34434
G1 X71.427 Y67.109 E8.58313
G1 X71.803 Y67.109 E8.59559
G1 X66.334 Y72.578 E8.85201
G1 X66.334 Y72.954 E8.86447
G1 X72.179 Y67.109 E9.13851
G1 X72.555 Y67.109 E9.15097
G1 X66.334 Y73.330 E9.44263
G1 X66.334 Y73.705 E9.45509
G1 X72.930 Y67.109 E9.76437
G1 X73.306 Y67.109 E9.77684
G1 X66.334 Y74.081 E10.10374
G1 X66.334 Y74.457 E10.11620
G1 X72.190 Y68.601 E10.39077
G1 X72.037 Y68.900 E10.40191
G1 X71.994 Y69.173 E10.41104
G1 X66.334 Y74.833 E10.67643
G1 X66.334 Y75.209 E10.68889
G1 X71.923 Y69.619 E10.95096
G1 X71.879 Y69.897 E10.96028
G1 X71.899 Y70.020 E10.96440
G1 X66.334 Y75.585 E11.22532
G1 X66.334 Y75.961 E11.23778
G1 X71.950 Y70.344 E11.50111
G1 X72.002 Y70.669 E11.51200
G1 X66.334 Y76.337 E11.77774
G1 X66.334 Y76.713 E11.79020
G1 X72.076 Y70.970 E12.05945
G1 X72.203 Y71.219 E12.06871
G1 X66.334 Y77.088 E12.34390
G1 X66.334 Y77.464 E12.35636
G1 X72.330 Y71.468 E12.63750
G1 X72.457 Y71.717 E12.64677
G1 X66.334 Y77.840 E12.93385
G1 X66.334 Y78.216 E12.94631
G1 X72.627 Y71.923 E13.24135
G1 X72.815 Y72.111 E13.25016
G1 X66.334 Y78.592 E13.55401
G1 X66.334 Y78.968 E13.56647
G1 X73.003 Y72.299 E13.87913
G1 X73.190 Y72.487 E13.88794
G1 X66.334 Y79.344 E14.20941
G1 X66.334 Y79.720 E14.22187
G1 X73.434 Y72.620 E14.55475
G1 X73.683 Y72.746 E14.56401
G1 X66.334 Y80.096 E14.90856
G1 X66.334 Y80.471 E14.92102
G1 X73.932 Y72.873 E15.27724
G1 X74.107 Y72.963 E15.28377
G1 X74.203 Y72.978 E15.28699
G1 X66.334 Y80.847 E15.65593
G1 X66.334 Y81.223 E15.66839
G1 X74.527 Y73.029 E16.05254
G1 X74.852 Y73.081 E16.06344
G1 X66.334 Y81.599 E16.46280
G1 X66.334 Y81.975 E16.47526
G1 X75.204 Y73.105 E16.89114
G1 X75.651 Y73.034 E16.90613
G1 X66.334 Y82.351 E17.34294
G1 X66.334 Y82.727 E17.35540
G1 X76.097 Y72.963 E17.81315
G1 X76.862 Y72.574 E17.84159
G1 X66.545 Y82.891 E18.32529
G1 X67.297 Y82.891 F7800.000
G1 F1800.000
G1 X67.672 Y82.891 E18.33775
G1 X72.426 Y78.138 E18.56059
G1 X72.037 Y78.903 E18.58903
G1 X68.048 Y82.891 E18.77603
G1 X68.424 Y82.891 E18.78849
G1 X71.966 Y79.350 E18.95454
G1 X71.895 Y79.796 E18.96953
G1 X68.800 Y82.891 E19.11465
G1 X69.176 Y82.891 E19.12711
G1 X71.919 Y80.148 E19.25573
G1 X71.971 Y80.473 E19.26662
G1 X69.552 Y82.891 E19.38002
G1 X69.928 Y82.891 E19.39248
G1 X72.022 Y80.797 E19.49067
G1 X72.037 Y80.893 E19.49388
G1 X72.127 Y81.068 E19.50041
G1 X70.304 Y82.891 E19.58588
G1 X70.680 Y82.891 E19.59835
G1 X72.254 Y81.317 E19.67214
G1 X72.380 Y81.566 E19.68141
G1 X71.055 Y82.891 E19.74353
G1 X71.431 Y82.891 E19.75599
G1 X72.513 Y81.810 E19.80671
G1 X72.701 Y81.998 E19.81552
G1 X71.807 Y82.891 E19.85743
G1 X72.183 Y82.891 E19.86989
G1 X72.889 Y82.185 E19.90299
G1 X73.077 Y82.373 E19.91180
G1 X72.559 Y82.891 E19.93609
G1 X72.935 Y82.891 E19.94855
G1 X73.283 Y82.543 E19.96488
G1 X73.532 Y82.670 E19.97415
G1 X73.311 Y82.891 E19.98454
G1 E17.98454 F2400.00000
G92 E0
G1 X83.460 Y82.891 F7800.000
G1 E2.00000 F2400.00000
G1 F1800.000
G1 X83.666 Y82.685 E2.00969
G1 X83.666 Y82.309 E2.02215
G1 X83.084 Y82.891 E2.04947
G1 X82.708 Y82.891 E2.06193
G1 X83.666 Y81.933 E2.10687
G1 X83.666 Y81.557 E2.11933
G1 X82.332 Y82.891 E2.18189
G1 X81.956 Y82.891 E2.19435
G1 X83.666 Y81.181 E2.27454
G1 X83.666 Y80.805 E2.28700
G1 X81.580 Y82.891 E2.38480
G1 X81.204 Y82.891 E2.39726
G1 X83.666 Y80.429 E2.51269
G1 X83.666 Y80.054 E2.52515
G1 X80.829 Y82.891 E2.65821
G1 X80.453 Y82.891 E2.67067
G1 X83.666 Y79.678 E2.82134
G1 X83.666 Y79.302 E2.83380
G1 X80.077 Y82.891 E3.00210
G1 X79.701 Y82.891 E3.01456
G1 X83.666 Y78.926 E3.20048
G1 X83.666 Y78.550 E3.21294
G1 X79.325 Y82.891 E3.41648
G1 X78.949 Y82.891 E3.42894
G1 X83.666 Y78.174 E3.65011
G1 X83.666 Y77.798 E3.66257
G1 X78.573 Y82.891 E3.90136
G1 X78.197 Y82.891 E3.91382
G1 X83.666 Y77.422 E4.17023
G1 X83.666 Y77.046 E4.18269
G1 X77.821 Y82.891 E4.45672
G1 X77.446 Y82.891 E4.46919
G1 X83.666 Y76.671 E4.76084
G1 X83.666 Y76.295 E4.77330
G1 X77.070 Y82.891 E5.08258
G1 X76.694 Y82.891 E5.09504
G1 X83.666 Y75.919 E5.42194
G1 X83.666 Y75.543 E5.43440
G1 X77.810 Y81.399 E5.70897
G1 X77.963 Y81.100 E5.72013
G1 X78.006 Y80.828 E5.72925
G1 X83.666 Y75.167 E5.99464
G1 X83.666 Y74.791 E6.00710
G1 X78.077 Y80.381 E6.26918
G1 X78.121 Y80.103 E6.27850
G1 X78.101 Y79.981 E6.28262
G1 X83.666 Y74.415 E6.54354
G1 X83.666 Y74.039 E6.55600
G1 X78.050 Y79.656 E6.81933
G1 X77.998 Y79.332 E6.83022
G1 X83.666 Y73.663 E7.09596
G1 X83.666 Y73.288 E7.10842
G1 X77.924 Y79.030 E7.37766
G1 X77.797 Y78.781 E7.38693
G1 X83.666 Y72.912 E7.66211
G1 X83.666 Y72.536 E7.67457
G1 X77.670 Y78.532 E7.95571
G1 X77.543 Y78.283 E7.96498
G1 X83.666 Y72.160 E8.25206
G1 X83.666 Y71.784 E8.26452
G1 X77.373 Y78.077 E8.55956
G1 X77.185 Y77.889 E8.56837
G1 X83.666 Y71.408 E8.87221
G1 X83.666 Y71.032 E8.88468
G1 X76.998 Y77.701 E9.19733
G1 X76.810 Y77.513 E9.20614
G1 X83.666 Y70.656 E9.52761
G1 X83.666 Y70.280 E9.54007
G1 X76.566 Y77.380 E9.87294
G1 X76.317 Y77.254 E9.88221
G1 X83.666 Y69.905 E10.22675
G1 X83.666 Y69.529 E10.23921
G1 X76.068 Y77.127 E10.59543
G1 X75.893 Y77.037 E10.60196
G1 X75.797 Y77.022 E10.60518
G1 X83.666 Y69.153 E10.97411
G1 X83.666 Y68.777 E10.98657
G1 X75.473 Y76.971 E11.37072
G1 X75.148 Y76.919 E11.38161
G1 X83.666 Y68.401 E11.78098
G1 X83.666 Y68.025 E11.79344
G1 X74.796 Y76.895 E12.20930
G1 X74.350 Y76.966 E12.22429
G1 X83.666 Y67.649 E12.66110
G1 X83.666 Y67.273 E12.67356
G1 X73.903 Y77.037 E13.13130
G1 X73.138 Y77.426 E13.15974
G1 X83.455 Y67.109 E13.64343
G1 X83.079 Y67.109 E13.65590
G1 X67.297 Y82.891 E14.39584
G1 X66.921 Y82.891 E14.40830
G1 X82.704 Y67.109 E15.14825
G1 X82.328 Y67.109 E15.16071
G1 X77.574 Y71.862 E15.38357
G1 X77.963 Y71.097 E15.41201
G1 X81.952 Y67.109 E15.59901
G1 X81.576 Y67.109 E15.61147
G1 X78.034 Y70.651 E15.77754
G1 X78.105 Y70.204 E15.79253
G1 X81.200 Y67.109 E15.93765
G1 X80.824 Y67.109 E15.95011
G1 X78.081 Y69.852 E16.07873
G1 X78.029 Y69.527 E16.08962
G1 X80.448 Y67.109 E16.20303
G1 X80.072 Y67.109 E16.21549
G1 X77.978 Y69.203 E16.31368
G1 X77.963 Y69.107 E16.31690
G1 X77.873 Y68.932 E16.32343
G1 X79.696 Y67.109 E16.40890
G1 X79.321 Y67.109 E16.42136
G1 X77.746 Y68.683 E16.49516
G1 X77.620 Y68.434 E16.50443
G1 X78.945 Y67.109 E16.56655
G1 X78.569 Y67.109 E16.57901
G1 X77.487 Y68.190 E16.62974
G1 X77.299 Y68.003 E16.63855
G1 X78.193 Y67.109 E16.68046
G1 X77.817 Y67.109 E16.69292
G1 X77.111 Y67.815 E16.72602
G1 X76.923 Y67.627 E16.73483
G1 X77.441 Y67.109 E16.75912
G1 X77.065 Y67.109 E16.77158
G1 X76.717 Y67.457 E16.78792
G1 X76.468 Y67.330 E16.79719
G1 X76.689 Y67.109 E16.80758
M106 S255
G1 Z0.500 F7800.000
G1 E14.80758 F2400.00000
G92 E0
G1 X73.547 Y78.000 F7800.000
G1 E2.00000 F2400.00000
G1 F1800.000
G1 X74.236 Y77.648 E2.02554
G1 X75.000 Y77.527 E2.05109
G1 X75.764 Y77.648 E2.07663
G1 X76.453 Y78.000 E2.10217
G1 X77.000 Y78.547 E2.12772
G1 X77.352 Y79.236 E2.15326
G1 X77.473 Y80.000 E2.17881
G1 X77.352 Y80.764 E2.20435
G1 X77.000 Y81.453 E2.22989
G1 X76.453 Y82.000 E2.25544
G1 X75.764 Y82.352 E2.28098
G1 X75.000 Y82.473 E2.30652
G1 X74.236 Y82.352 E2.33207
G1 X73.547 Y82.000 E2.35761
G1 X73.000 Y81.453 E2.38316
G1 X72.648 Y80.764 E2.40870
G1 X72.527 Y80.000 E2.43424
G1 X72.648 Y79.236 E2.45979
G1 X73.000 Y78.547 E2.48533
G1 X73.504 Y78.042 E2.50889
G1 X73.505 Y77.602 F7800.000
G1 E0.50889 F2400.00000
G92 E0
G1 X74.236 Y72.352 F7800.000
G1 E2.00000 F2400.00000
G1 F1800.000
G1 X73.547 Y72.000 E2.02554
G1 X73.000 Y71.453 E2.05109
G1 X72.648 Y70.764 E2.07663
G1 X72.527 Y70.000 E2.10217
G1 X72.648 Y69.236 E2.12772
G1 X73.000 Y68.547 E2.15326
G1 X73.547 Y68.000 E2.17881
G1 X74.236 Y67.648 E2.20435
G1 X75.000 Y67.527 E2.22989
G1 X75.764 Y67.648 E2.25544
G1 X76.453 Y68.000 E2.28098
G1 X77.000 Y68.547 E2.30652
G1 X77.352 Y69.236 E2.33207
G1 X77.473 Y70.000 E2.35761
G1 X77.352 Y70.764 E2.38316
G1 X77.000 Y71.453 E2.40870
G1 X76.453 Y72.000 E2.43424
G1 X75.764 Y72.352 E2.45979
G1 X75.000 Y72.473 E2.48533
G1 X74.295 Y72.361 E2.50889
G1 X73.939 Y72.619 F7800.000
G1 E0.50889 F2400.00000
G92 E0
G1 X72.724 Y67.444 F7800.000
G1 E2.00000 F2400.00000
G1 F2400.000
G1 X72.202 Y67.967 E2.03178
G1 X71.710 Y68.931 E2.07831
G1 X71.541 Y70.000 E2.12484
G1 X71.710 Y71.069 E2.17137
G1 X72.202 Y72.033 E2.21790
G1 X72.967 Y72.798 E2.26443
G1 X73.931 Y73.290 E2.31097
G1 X75.000 Y73.459 E2.35750
G1 X76.069 Y73.290 E2.40403
G1 X77.033 Y72.798 E2.45056
G1 X77.798 Y72.033 E2.49709
G1 X78.290 Y71.069 E2.54362
G1 X78.459 Y70.000 E2.59015
G1 X78.290 Y68.931 E2.63668
G1 X77.798 Y67.967 E2.68321
G1 X77.276 Y67.444 E2.71499
G1 X83.331 Y67.444 E2.97533
G1 X83.331 Y82.556 E3.62506
G1 X77.276 Y82.556 E3.88540
G1 X77.798 Y82.033 E3.91719
G1 X78.290 Y81.069 E3.96372
G1 X78.459 Y80.000 E4.01025
G1 X78.290 Y78.931 E4.05678
G1 X77.798 Y77.967 E4.10331
G1 X77.033 Y77.202 E4.14984
G1 X76.069 Y76.710 E4.19637
G1 X75.000 Y76.541 E4.24290
G1 X73.931 Y76.710 E4.28943
G1 X72.967 Y77.202 E4.33596
G1 X72.202 Y77.967 E4.38249
G1 X71.710 Y78.931 E4.42902
G1 X71.541 Y80.000 E4.47555
G1 X71.710 Y81.069 E4.52209
G1 X72.202 Y82.033 E4.56862
G1 X72.724 Y82.556 E4.60040
G1 X66.669 Y82.556 E4.86074
G1 X66.669 Y67.444 E5.51047
G1 X72.664 Y67.444 E5.76823
G1 X74.178 Y67.165 F7800.000
G1 F2400.000
G1 X73.275 Y67.625 E5.81181
G1 X72.625 Y68.275 E5.85130
G1 X72.208 Y69.093 E5.89079
G1 X72.064 Y70.000 E5.93028
G1 X72.208 Y70.907 E5.96977
G1 X72.625 Y71.725 E6.00926
G1 X73.275 Y72.375 E6.04874
G1 X74.093 Y72.792 E6.08823
G1 X75.000 Y72.936 E6.12772
G1 X75.907 Y72.792 E6.16721
G1 X76.725 Y72.375 E6.20670
G1 X77.375 Y71.725 E6.24619
G1 X77.792 Y70.907 E6.28567
G1 X77.936 Y70.000 E6.32516
G1 X77.792 Y69.093 E6.36465
G1 X77.375 Y68.275 E6.40414
G1 X76.725 Y67.625 E6.44363
G1 X75.822 Y67.165 E6.48721
G1 X75.879 Y66.927 E6.49773
G1 X83.848 Y66.927 E6.84034
G1 X83.848 Y83.073 E7.53454
G1 X75.879 Y83.073 E7.87715
G1 X75.822 Y82.835 E7.88767
G1 X76.725 Y82.375 E7.93125
G1 X77.375 Y81.725 E7.97074
G1 X77.792 Y80.907 E8.01023
G1 X77.936 Y80.000 E8.04972
G1 X77.792 Y79.093 E8.08920
G1 X77.375 Y78.275 E8.12869
G1 X76.725 Y77.625 E8.16818
G1 X75.907 Y77.208 E8.20767
G1 X75.000 Y77.064 E8.24716
G1 X74.093 Y77.208 E8.28665
G1 X73.275 Y77.625 E8.32613
G1 X72.625 Y78.275 E8.36562
G1 X72.208 Y79.093 E8.40511
G1 X72.064 Y80.000 E8.44460
G1 X72.208 Y80.907 E8.48409
