; generated by Slic3r 1.3.1-dev (Build adea0d9) on 2020-03-12 at 20:46:10

; external perimeters extrusion width = 0.44mm (2.86mm^3/s)
; perimeters extrusion width = 0.56mm (4.14mm^3/s)
; infill extrusion width = 0.50mm (3.66mm^3/s)
; solid infill extrusion width = 0.56mm (3.10mm^3/s)
; top infill extrusion width = 0.56mm (3.10mm^3/s)

M107
G92 E0
;D3D:START:START
T0
M104 S215 T0

G21
G90
M107
T0
G28
G29
M109 T0 S215 T0
G0 F3000
M107
T0
G92 E0
G0 X0 Y149 Z0.1 F3600
G1 Y49 E6.5 F1200
G0 Z1
G92 E0
; Filament gcode

G21 ; set units to millimeters
G90 ; use absolute coordinates
M82 ; use absolute distances for extrusion
G92 E0
G1 Z0.300 F7800.000
G1 E-2.00000 F2400.00000
G92 E0
G1 X50.513 Y95.359 F7800.000
G1 E2.00000 F2400.00000
G1 F1800.000
G1 X51.337 Y94.940 E2.03063
G1 X52.250 Y94.795 E2.06126
G1 X53.163 Y94.940 E2.09189
G1 X53.987 Y95.359 E2.12251
G1 X54.641 Y96.013 E2.15314
G1 X55.060 Y96.837 E2.18377
G1 X55.205 Y97.750 E2.21440
G1 X55.060 Y98.663 E2.24503
G1 X54.641 Y99.487 E2.27566
G1 X53.987 Y100.141 E2.30628
G1 X53.163 Y100.560 E2.33691
G1 X52.250 Y100.705 E2.36754
G1 X51.337 Y100.560 E2.39817
G1 X50.513 Y100.141 E2.42880
G1 X49.859 Y99.487 E2.45943
G1 X49.440 Y98.663 E2.49005
G1 X49.295 Y97.750 E2.52068
G1 X49.440 Y96.837 E2.55131
G1 X49.859 Y96.013 E2.58194
G1 X50.471 Y95.402 E2.61058
G1 X50.671 Y95.577 F7800.000
G1 F1800.000
G1 X51.420 Y95.195 E2.63842
G1 X52.250 Y95.064 E2.66626
G1 X53.080 Y95.195 E2.69410
G1 X53.829 Y95.577 E2.72194
G1 X54.423 Y96.171 E2.74978
G1 X54.805 Y96.920 E2.77763
G1 X54.936 Y97.750 E2.80547
G1 X54.805 Y98.580 E2.83331
G1 X54.423 Y99.329 E2.86115
G1 X53.829 Y99.923 E2.88899
G1 X53.080 Y100.305 E2.91683
G1 X52.250 Y100.436 E2.94467
G1 X51.420 Y100.305 E2.97251
G1 X50.671 Y99.923 E3.00035
G1 X50.077 Y99.329 E3.02819
G1 X49.695 Y98.580 E3.05603
G1 X49.564 Y97.750 E3.08388
G1 X49.695 Y96.920 E3.11172
G1 X50.077 Y96.171 E3.13956
G1 X50.629 Y95.619 E3.16541
G1 X50.829 Y95.795 F7800.000
G1 F1800.000
G1 X51.503 Y95.451 E3.19046
G1 X52.250 Y95.333 E3.21552
G1 X52.997 Y95.451 E3.24057
G1 X53.671 Y95.795 E3.26562
G1 X54.205 Y96.329 E3.29068
G1 X54.549 Y97.003 E3.31573
G1 X54.667 Y97.750 E3.34078
G1 X54.549 Y98.497 E3.36584
G1 X54.205 Y99.171 E3.39089
G1 X53.671 Y99.705 E3.41594
G1 X52.997 Y100.049 E3.44100
G1 X52.250 Y100.167 E3.46605
G1 X51.503 Y100.049 E3.49110
G1 X50.829 Y99.705 E3.51616
G1 X50.295 Y99.171 E3.54121
G1 X49.951 Y98.497 E3.56626
G1 X49.833 Y97.750 E3.59132
G1 X49.951 Y97.003 E3.61637
G1 X50.295 Y96.329 E3.64142
G1 X50.787 Y95.837 E3.66449
G1 X50.787 Y95.397 F7800.000
G1 E1.66449 F2400.00000
G92 E0
G1 X70.767 Y78.960 F7800.000
G1 E2.00000 F2400.00000
G1 F1800.000
G1 X70.317 Y78.416 E2.02339
G1 X70.100 Y78.097 E2.03618
G1 X69.754 Y77.469 E2.05994
G1 X69.490 Y76.802 E2.08370
G1 X69.304 Y76.075 E2.10854
G1 X69.214 Y75.364 E2.13230
G1 X69.214 Y74.647 E2.15605
G1 X69.308 Y73.903 E2.18090
G1 X69.486 Y73.208 E2.20465
G1 X69.754 Y72.532 E2.22877
G1 X70.105 Y71.893 E2.25289
G1 X70.526 Y71.313 E2.27665
G1 X70.782 Y71.024 E2.28944
G1 X71.296 Y70.540 E2.31284
G1 X71.903 Y70.100 E2.33768
G1 X72.532 Y69.754 E2.36144
G1 X73.198 Y69.490 E2.38519
G1 X73.925 Y69.304 E2.41003
G1 X74.636 Y69.214 E2.43379
G1 X75.353 Y69.214 E2.45755
G1 X76.097 Y69.308 E2.48239
G1 X76.792 Y69.486 E2.50615
G1 X77.458 Y69.750 E2.52990
G1 X78.115 Y70.111 E2.55475
G1 X78.696 Y70.533 E2.57850
G1 X79.218 Y71.024 E2.60226
G1 X79.474 Y71.313 E2.61505
G1 X79.895 Y71.893 E2.63881
G1 X80.246 Y72.531 E2.66293
G1 X80.510 Y73.198 E2.68669
G1 X80.614 Y73.558 E2.69911
G1 X80.696 Y73.925 E2.71154
G1 X80.786 Y74.636 E2.73530
G1 X80.786 Y75.353 E2.75905
G1 X80.751 Y75.727 E2.77148
G1 X80.692 Y76.097 E2.78391
G1 X80.514 Y76.792 E2.80766
G1 X80.246 Y77.468 E2.83179
G1 X79.895 Y78.107 E2.85591
G1 X79.474 Y78.687 E2.87966
G1 X79.218 Y78.976 E2.89245
G1 X78.704 Y79.460 E2.91585
G1 X78.407 Y79.690 E2.92827
G1 X78.097 Y79.900 E2.94070
G1 X77.468 Y80.246 E2.96446
G1 X76.802 Y80.510 E2.98822
G1 X76.442 Y80.614 E3.00064
G1 X76.075 Y80.696 E3.01307
G1 X75.364 Y80.786 E3.03683
G1 X74.647 Y80.786 E3.06058
G1 X74.263 Y80.750 E3.07337
G1 X73.569 Y80.618 E3.09677
G1 X73.198 Y80.510 E3.10956
G1 X72.531 Y80.246 E3.13331
G1 X71.903 Y79.900 E3.15707
G1 X71.584 Y79.683 E3.16986
G1 X71.040 Y79.233 E3.19325
G1 X70.809 Y79.003 E3.20406
G1 X70.963 Y78.781 F7800.000
G1 F1800.000
G1 X70.529 Y78.257 E3.22662
G1 X70.326 Y77.958 E3.23858
G1 X69.995 Y77.355 E3.26137
G1 X69.742 Y76.716 E3.28416
G1 X69.566 Y76.030 E3.30762
G1 X69.479 Y75.347 E3.33041
G1 X69.479 Y74.659 E3.35320
G1 X69.568 Y73.957 E3.37665
G1 X69.739 Y73.291 E3.39944
G1 X69.995 Y72.645 E3.42246
G1 X70.330 Y72.036 E3.44547
G1 X70.734 Y71.480 E3.46826
G1 X70.973 Y71.209 E3.48022
G1 X71.469 Y70.743 E3.50278
G1 X72.042 Y70.326 E3.52624
G1 X72.645 Y69.995 E3.54903
G1 X73.284 Y69.742 E3.57182
G1 X73.970 Y69.566 E3.59528
G1 X74.653 Y69.479 E3.61807
G1 X75.341 Y69.479 E3.64085
G1 X76.043 Y69.568 E3.66431
G1 X76.709 Y69.739 E3.68710
G1 X77.349 Y69.992 E3.70989
G1 X77.969 Y70.334 E3.73335
G1 X78.526 Y70.738 E3.75614
G1 X79.027 Y71.209 E3.77893
G1 X79.266 Y71.480 E3.79089
G1 X79.670 Y72.036 E3.81368
G1 X80.005 Y72.645 E3.83669
G1 X80.258 Y73.284 E3.85948
G1 X80.357 Y73.625 E3.87121
G1 X80.434 Y73.970 E3.88295
G1 X80.521 Y74.653 E3.90574
G1 X80.521 Y75.341 E3.92853
G1 X80.487 Y75.693 E3.94026
G1 X80.432 Y76.043 E3.95200
G1 X80.261 Y76.709 E3.97479
G1 X80.005 Y77.355 E3.99780
G1 X79.670 Y77.964 E4.02081
G1 X79.266 Y78.520 E4.04360
G1 X79.027 Y78.791 E4.05556
G1 X78.531 Y79.257 E4.07812
G1 X78.251 Y79.475 E4.08986
G1 X77.958 Y79.674 E4.10160
G1 X77.355 Y80.005 E4.12438
G1 X76.716 Y80.258 E4.14717
G1 X76.375 Y80.357 E4.15891
G1 X76.030 Y80.434 E4.17064
G1 X75.347 Y80.521 E4.19343
G1 X74.659 Y80.521 E4.21622
G1 X74.300 Y80.487 E4.22818
G1 X73.631 Y80.359 E4.25074
G1 X73.284 Y80.258 E4.26271
G1 X72.645 Y80.005 E4.28549
G1 X72.042 Y79.674 E4.30828
G1 X71.743 Y79.471 E4.32024
G1 X71.219 Y79.037 E4.34280
G1 X71.006 Y78.824 E4.35278
G1 X71.160 Y78.602 F7800.000
G1 F1800.000
G1 X70.742 Y78.097 E4.37451
G1 X70.553 Y77.819 E4.38564
G1 X70.236 Y77.242 E4.40746
G1 X69.993 Y76.629 E4.42928
G1 X69.828 Y75.984 E4.45136
G1 X69.745 Y75.331 E4.47318
G1 X69.745 Y74.672 E4.49500
G1 X69.829 Y74.011 E4.51707
G1 X69.992 Y73.373 E4.53890
G1 X70.236 Y72.758 E4.56080
G1 X70.554 Y72.179 E4.58271
G1 X70.941 Y71.646 E4.60453
G1 X71.164 Y71.394 E4.61566
G1 X71.642 Y70.945 E4.63739
G1 X72.181 Y70.553 E4.65947
G1 X72.758 Y70.236 E4.68129
G1 X73.371 Y69.993 E4.70311
G1 X74.016 Y69.828 E4.72518
G1 X74.669 Y69.745 E4.74700
G1 X75.328 Y69.745 E4.76882
G1 X75.989 Y69.829 E4.79090
G1 X76.627 Y69.992 E4.81272
G1 X77.239 Y70.235 E4.83454
G1 X77.823 Y70.556 E4.85662
G1 X78.356 Y70.943 E4.87844
G1 X78.836 Y71.394 E4.90026
G1 X79.059 Y71.646 E4.91139
G1 X79.446 Y72.179 E4.93321
G1 X79.764 Y72.758 E4.95511
G1 X80.007 Y73.371 E4.97693
G1 X80.100 Y73.691 E4.98798
G1 X80.172 Y74.016 E4.99902
G1 X80.255 Y74.669 E5.02084
G1 X80.255 Y75.328 E5.04266
G1 X80.224 Y75.660 E5.05371
G1 X80.171 Y75.989 E5.06475
G1 X80.008 Y76.627 E5.08657
G1 X79.764 Y77.242 E5.10848
G1 X79.446 Y77.821 E5.13038
G1 X79.059 Y78.354 E5.15220
G1 X78.836 Y78.606 E5.16333
G1 X78.358 Y79.055 E5.18507
G1 X78.095 Y79.260 E5.19611
G1 X77.819 Y79.447 E5.20715
G1 X77.242 Y79.764 E5.22897
G1 X76.629 Y80.007 E5.25079
G1 X76.309 Y80.100 E5.26184
G1 X75.984 Y80.172 E5.27288
G1 X75.331 Y80.255 E5.29470
G1 X74.672 Y80.255 E5.31652
G1 X74.338 Y80.223 E5.32765
G1 X73.693 Y80.100 E5.34938
G1 X73.370 Y80.007 E5.36052
G1 X72.758 Y79.764 E5.38233
G1 X72.181 Y79.447 E5.40415
G1 X71.903 Y79.258 E5.41528
G1 X71.398 Y78.840 E5.43702
G1 X71.203 Y78.645 E5.44616
G1 X70.770 Y78.690 F7800.000
G1 E3.44616 F2400.00000
G92 E0
G1 X95.359 Y53.987 F7800.000
G1 E2.00000 F2400.00000
G1 F1800.000
G1 X94.940 Y53.163 E2.03063
G1 X94.795 Y52.250 E2.06126
G1 X94.940 Y51.337 E2.09189
G1 X95.359 Y50.513 E2.12251
G1 X96.013 Y49.859 E2.15314
G1 X96.837 Y49.440 E2.18377
G1 X97.750 Y49.295 E2.21440
G1 X98.663 Y49.440 E2.24503
G1 X99.487 Y49.859 E2.27566
G1 X100.141 Y50.513 E2.30628
G1 X100.560 Y51.337 E2.33691
G1 X100.705 Y52.250 E2.36754
G1 X100.560 Y53.163 E2.39817
G1 X100.141 Y53.987 E2.42880
G1 X99.487 Y54.641 E2.45943
G1 X98.663 Y55.060 E2.49005
G1 X97.750 Y55.205 E2.52068
G1 X96.837 Y55.060 E2.55131
G1 X96.013 Y54.641 E2.58194
G1 X95.402 Y54.029 E2.61058
G1 X95.577 Y53.829 F7800.000
G1 F1800.000
G1 X95.195 Y53.080 E2.63842
G1 X95.064 Y52.250 E2.66626
G1 X95.195 Y51.420 E2.69410
G1 X95.577 Y50.671 E2.72194
G1 X96.171 Y50.077 E2.74978
G1 X96.920 Y49.695 E2.77763
G1 X97.750 Y49.564 E2.80547
G1 X98.580 Y49.695 E2.83331
G1 X99.329 Y50.077 E2.86115
G1 X99.923 Y50.671 E2.88899
G1 X100.305 Y51.420 E2.91683
G1 X100.436 Y52.250 E2.94467
G1 X100.305 Y53.080 E2.97251
G1 X99.923 Y53.829 E3.00035
G1 X99.329 Y54.423 E3.02819
G1 X98.580 Y54.805 E3.05603
G1 X97.750 Y54.936 E3.08388
G1 X96.920 Y54.805 E3.11172
G1 X96.171 Y54.423 E3.13956
G1 X95.619 Y53.871 E3.16541
G1 X95.795 Y53.671 F7800.000
G1 F1800.000
G1 X95.451 Y52.997 E3.19046
G1 X95.333 Y52.250 E3.21552
G1 X95.451 Y51.503 E3.24057
G1 X95.795 Y50.829 E3.26562
G1 X96.329 Y50.295 E3.29068
G1 X97.003 Y49.951 E3.31573
G1 X97.750 Y49.833 E3.34078
G1 X98.497 Y49.951 E3.36584
G1 X99.171 Y50.295 E3.39089
G1 X99.705 Y50.829 E3.41594
G1 X100.049 Y51.503 E3.44100
G1 X100.167 Y52.250 E3.46605
G1 X100.049 Y52.997 E3.49110
G1 X99.705 Y53.671 E3.51616
G1 X99.171 Y54.205 E3.54121
G1 X98.497 Y54.549 E3.56626
G1 X97.750 Y54.667 E3.59132
G1 X97.003 Y54.549 E3.61637
G1 X96.329 Y54.205 E3.64142
G1 X95.837 Y53.713 E3.66449
G1 X95.397 Y53.713 F7800.000
G1 E1.66449 F2400.00000
G92 E0
G1 X55.205 Y52.250 F7800.000
G1 E2.00000 F2400.00000
G1 F1800.000
G1 X55.060 Y53.163 E2.03063
G1 X54.641 Y53.987 E2.06126
G1 X53.987 Y54.641 E2.09189
G1 X53.163 Y55.060 E2.12251
G1 X52.250 Y55.205 E2.15314
G1 X51.337 Y55.060 E2.18377
G1 X50.513 Y54.641 E2.21440
G1 X49.859 Y53.987 E2.24503
G1 X49.440 Y53.163 E2.27566
G1 X49.295 Y52.250 E2.30628
G1 X49.440 Y51.337 E2.33691
G1 X49.859 Y50.513 E2.36754
G1 X50.513 Y49.859 E2.39817
G1 X51.337 Y49.440 E2.42880
G1 X52.250 Y49.295 E2.45943
G1 X53.163 Y49.440 E2.49005
G1 X53.987 Y49.859 E2.52068
G1 X54.641 Y50.513 E2.55131
G1 X55.060 Y51.337 E2.58194
G1 X55.196 Y52.191 E2.61058
G1 X54.936 Y52.250 F7800.000
G1 F1800.000
G1 X54.805 Y53.080 E2.63842
G1 X54.423 Y53.829 E2.66626
G1 X53.829 Y54.423 E2.69410
G1 X53.080 Y54.805 E2.72194
G1 X52.250 Y54.936 E2.74978
G1 X51.420 Y54.805 E2.77763
G1 X50.671 Y54.423 E2.80547
G1 X50.077 Y53.829 E2.83331
G1 X49.695 Y53.080 E2.86115
G1 X49.564 Y52.250 E2.88899
G1 X49.695 Y51.420 E2.91683
G1 X50.077 Y50.671 E2.94467
G1 X50.671 Y50.077 E2.97251
G1 X51.420 Y49.695 E3.00035
G1 X52.250 Y49.564 E3.02819
G1 X53.080 Y49.695 E3.05603
G1 X53.829 Y50.077 E3.08388
G1 X54.423 Y50.671 E3.11172
G1 X54.805 Y51.420 E3.13956
G1 X54.927 Y52.191 E3.16541
G1 X54.667 Y52.250 F7800.000
G1 F1800.000
G1 X54.549 Y52.997 E3.19046
G1 X54.205 Y53.671 E3.21552
G1 X53.671 Y54.205 E3.24057
G1 X52.997 Y54.549 E3.26562
G1 X52.250 Y54.667 E3.29068
G1 X51.503 Y54.549 E3.31573
G1 X50.829 Y54.205 E3.34078
G1 X50.295 Y53.671 E3.36584
G1 X49.951 Y52.997 E3.39089
G1 X49.833 Y52.250 E3.41594
G1 X49.951 Y51.503 E3.44100
G1 X50.295 Y50.829 E3.46605
G1 X50.829 Y50.295 E3.49110
G1 X51.503 Y49.951 E3.51616
G1 X52.250 Y49.833 E3.54121
G1 X52.997 Y49.951 E3.56626
G1 X53.671 Y50.295 E3.59132
G1 X54.205 Y50.829 E3.61637
G1 X54.549 Y51.503 E3.64142
G1 X54.658 Y52.191 E3.66449
G1 X55.013 Y52.450 F7800.000
G1 E1.66449 F2400.00000
G92 E0
G1 X96.013 Y95.359 F7800.000
G1 E2.00000 F2400.00000
G1 F1800.000
G1 X96.837 Y94.940 E2.03063
G1 X97.750 Y94.795 E2.06126
G1 X98.663 Y94.940 E2.09189
G1 X99.487 Y95.359 E2.12251
G1 X100.141 Y96.013 E2.15314
G1 X100.560 Y96.837 E2.18377
G1 X100.705 Y97.750 E2.21440
G1 X100.560 Y98.663 E2.24503
G1 X100.141 Y99.487 E2.27566
G1 X99.487 Y100.141 E2.30628
G1 X98.663 Y100.560 E2.33691
G1 X97.750 Y100.705 E2.36754
G1 X96.837 Y100.560 E2.39817
G1 X96.013 Y100.141 E2.42880
G1 X95.359 Y99.487 E2.45943
G1 X94.940 Y98.663 E2.49005
G1 X94.795 Y97.750 E2.52068
G1 X94.940 Y96.837 E2.55131
G1 X95.359 Y96.013 E2.58194
G1 X95.971 Y95.402 E2.61058
G1 X96.171 Y95.577 F7800.000
G1 F1800.000
G1 X96.920 Y95.195 E2.63842
G1 X97.750 Y95.064 E2.66626
G1 X98.580 Y95.195 E2.69410
G1 X99.329 Y95.577 E2.72194
G1 X99.923 Y96.171 E2.74978
G1 X100.305 Y96.920 E2.77763
G1 X100.436 Y97.750 E2.80547
G1 X100.305 Y98.580 E2.83331
G1 X99.923 Y99.329 E2.86115
G1 X99.329 Y99.923 E2.88899
G1 X98.580 Y100.305 E2.91683
G1 X97.750 Y100.436 E2.94467
G1 X96.920 Y100.305 E2.97251
G1 X96.171 Y99.923 E3.00035
G1 X95.577 Y99.329 E3.02819
G1 X95.195 Y98.580 E3.05603
G1 X95.064 Y97.750 E3.08387
G1 X95.195 Y96.920 E3.11172
G1 X95.577 Y96.171 E3.13956
G1 X96.129 Y95.619 E3.16541
G1 X96.329 Y95.795 F7800.000
G1 F1800.000
G1 X97.003 Y95.451 E3.19046
G1 X97.750 Y95.333 E3.21552
G1 X98.497 Y95.451 E3.24057
G1 X99.171 Y95.795 E3.26562
G1 X99.705 Y96.329 E3.29068
G1 X100.049 Y97.003 E3.31573
G1 X100.167 Y97.750 E3.34078
G1 X100.049 Y98.497 E3.36584
G1 X99.705 Y99.171 E3.39089
G1 X99.171 Y99.705 E3.41594
G1 X98.497 Y100.049 E3.44100
G1 X97.750 Y100.167 E3.46605
G1 X97.003 Y100.049 E3.49110
G1 X96.329 Y99.705 E3.51616
G1 X95.795 Y99.171 E3.54121
G1 X95.451 Y98.497 E3.56626
G1 X95.333 Y97.750 E3.59132
G1 X95.451 Y97.003 E3.61637
G1 X95.795 Y96.329 E3.64142
G1 X96.287 Y95.837 E3.66449
G1 X96.287 Y95.397 F7800.000
G1 E1.66449 F2400.00000
G92 E0
G1 X105.454 Y97.734 F7800.000
G1 E2.00000 F2400.00000
G1 F1800.000
G1 X105.422 Y98.441 E2.02342
G1 X105.329 Y99.125 E2.04632
G1 X105.175 Y99.799 E2.06921
G1 X104.962 Y100.457 E2.09211
G1 X104.690 Y101.092 E2.11501
G1 X104.363 Y101.701 E2.13791
G1 X103.982 Y102.278 E2.16081
G1 X103.551 Y102.818 E2.18371
G1 X103.073 Y103.318 E2.20661
G1 X102.553 Y103.772 E2.22951
G1 X101.994 Y104.179 E2.25241
G1 X101.400 Y104.533 E2.27530
G1 X100.777 Y104.833 E2.29820
G1 X100.130 Y105.076 E2.32110
G1 X99.464 Y105.260 E2.34400
G1 X98.784 Y105.383 E2.36690
G1 X98.096 Y105.445 E2.38980
G1 X51.904 Y105.445 E3.92009
G1 X51.216 Y105.383 E3.94299
G1 X50.536 Y105.260 E3.96589
G1 X49.870 Y105.076 E3.98879
G1 X49.223 Y104.833 E4.01169
G1 X48.600 Y104.533 E4.03459
G1 X48.006 Y104.179 E4.05748
G1 X47.447 Y103.772 E4.08038
G1 X46.927 Y103.318 E4.10328
G1 X46.449 Y102.818 E4.12618
G1 X46.018 Y102.278 E4.14908
G1 X45.637 Y101.701 E4.17198
G1 X45.310 Y101.092 E4.19488
G1 X45.038 Y100.457 E4.21778
G1 X44.825 Y99.799 E4.24068
G1 X44.671 Y99.125 E4.26357
G1 X44.578 Y98.441 E4.28647
G1 X44.546 Y97.734 E4.30989
G1 X44.546 Y52.266 E5.81625
G1 X44.578 Y51.559 E5.83967
G1 X44.671 Y50.875 E5.86257
G1 X44.825 Y50.201 E5.88546
G1 X45.038 Y49.543 E5.90836
G1 X45.310 Y48.908 E5.93126
G1 X45.637 Y48.299 E5.95416
G1 X46.018 Y47.722 E5.97706
G1 X46.449 Y47.182 E5.99996
G1 X46.927 Y46.682 E6.02286
G1 X47.447 Y46.227 E6.04576
G1 X48.006 Y45.821 E6.06865
G1 X48.600 Y45.467 E6.09155
G1 X49.223 Y45.167 E6.11445
G1 X49.870 Y44.924 E6.13735
G1 X50.536 Y44.740 E6.16025
G1 X51.216 Y44.617 E6.18315
G1 X51.904 Y44.555 E6.20605
G1 X98.096 Y44.555 E7.73634
G1 X98.784 Y44.617 E7.75924
G1 X99.464 Y44.740 E7.78214
G1 X100.130 Y44.924 E7.80503
G1 X100.777 Y45.167 E7.82794
G1 X101.400 Y45.467 E7.85083
G1 X101.994 Y45.821 E7.87373
G1 X102.553 Y46.227 E7.89663
G1 X103.073 Y46.682 E7.91953
G1 X103.551 Y47.182 E7.94243
G1 X103.982 Y47.722 E7.96533
G1 X104.363 Y48.299 E7.98823
G1 X104.690 Y48.908 E8.01113
G1 X104.962 Y49.543 E8.03403
G1 X105.175 Y50.201 E8.05692
G1 X105.329 Y50.875 E8.07982
G1 X105.422 Y51.559 E8.10272
G1 X105.454 Y52.266 E8.12614
G1 X105.454 Y97.674 E9.63051
G1 X105.719 Y97.740 F7800.000
G1 F1800.000
G1 X105.687 Y98.464 E9.65452
G1 X105.591 Y99.173 E9.67821
G1 X105.432 Y99.870 E9.70190
G1 X105.211 Y100.550 E9.72558
G1 X104.930 Y101.208 E9.74928
G1 X104.591 Y101.837 E9.77297
G1 X104.197 Y102.434 E9.79666
G1 X103.751 Y102.993 E9.82034
G1 X103.257 Y103.510 E9.84403
G1 X102.719 Y103.980 E9.86772
G1 X102.140 Y104.401 E9.89141
G1 X101.526 Y104.767 E9.91510
G1 X100.882 Y105.078 E9.93879
G1 X100.212 Y105.329 E9.96248
G1 X99.523 Y105.519 E9.98617
