; generated by Slic3r 1.3.1-dev (Build adea0d9) on 2020-03-12 at 20:45:43

; external perimeters extrusion width = 0.44mm (2.86mm^3/s)
; perimeters extrusion width = 0.56mm (4.14mm^3/s)
; infill extrusion width = 0.50mm (3.66mm^3/s)
; solid infill extrusion width = 0.56mm (3.10mm^3/s)
; top infill extrusion width = 0.56mm (3.10mm^3/s)

M107
G92 E0
;D3D:START:START
T0
M104 S215 T0

G21
G90
M107
T0
G28
G29
M109 T0 S215 T0
G0 F3000
M107
T0
G92 E0
G0 X0 Y149 Z0.1 F3600
G1 Y49 E6.5 F1200
G0 Z1
G92 E0
; Filament gcode

G21 ; set units to millimeters
G90 ; use absolute coordinates
M82 ; use absolute distances for extrusion
G92 E0
G1 Z12.300 F7800.000
G1 E-2.00000 F2400.00000
G92 E0
G1 X57.214 Y57.214 F7800.000
G1 E2.00000 F2400.00000
G1 F1800.000
G1 X92.786 Y57.214 E2.52377
G1 X92.786 Y92.786 E3.04753
G1 X57.214 Y92.786 E3.57130
G1 X57.214 Y57.274 E4.09418
G1 X57.037 Y57.037 F7800.000
G1 F1800.000
G1 X92.963 Y57.037 E4.62316
G1 X92.963 Y92.963 E5.15214
G1 X57.037 Y92.963 E5.68112
G1 X57.037 Y57.097 E6.20922
G1 X56.860 Y56.860 F7800.000
G1 F1800.000
G1 X93.140 Y56.860 E6.74341
G1 X93.140 Y93.140 E7.27761
G1 X56.860 Y93.140 E7.81180
G1 X56.860 Y56.920 E8.34511
G1 X57.246 Y56.964 F7800.000
G1 X57.323 Y57.460 F7800.000
G1 F1800.000
G1 X57.461 Y57.322 E8.34799
G1 X57.711 Y57.322 E8.35168
G1 X57.322 Y57.711 E8.35978
G1 X57.322 Y57.962 E8.36348
G1 X57.962 Y57.322 E8.37681
G1 X58.213 Y57.322 E8.38050
G1 X57.322 Y58.213 E8.39906
G1 X57.322 Y58.463 E8.40275
G1 X58.463 Y57.322 E8.42653
G1 X58.714 Y57.322 E8.43022
G1 X57.322 Y58.714 E8.45922
G1 X57.322 Y58.965 E8.46292
G1 X58.965 Y57.322 E8.49714
G1 X59.215 Y57.322 E8.50084
G1 X57.322 Y59.215 E8.54029
G1 X57.322 Y59.466 E8.54398
G1 X59.466 Y57.322 E8.58866
G1 X59.716 Y57.322 E8.59235
G1 X57.322 Y59.716 E8.64225
G1 X57.322 Y59.967 E8.64594
G1 X59.967 Y57.322 E8.70107
G1 X60.218 Y57.322 E8.70476
G1 X57.322 Y60.218 E8.76511
G1 X57.322 Y60.468 E8.76880
G1 X60.468 Y57.322 E8.83437
G1 X60.719 Y57.322 E8.83807
G1 X57.322 Y60.719 E8.90886
G1 X57.322 Y60.970 E8.91256
G1 X60.970 Y57.322 E8.98858
G1 X61.220 Y57.322 E8.99227
G1 X57.322 Y61.220 E9.07352
G1 X57.322 Y61.471 E9.07721
G1 X61.471 Y57.322 E9.16368
G1 X61.722 Y57.322 E9.16737
G1 X57.322 Y61.722 E9.25906
G1 X57.322 Y61.972 E9.26276
G1 X61.972 Y57.322 E9.35968
G1 X62.223 Y57.322 E9.36337
G1 X57.322 Y62.223 E9.46551
G1 X57.322 Y62.474 E9.46921
G1 X62.474 Y57.322 E9.57657
G1 X62.724 Y57.322 E9.58026
G1 X57.322 Y62.724 E9.69285
G1 X57.322 Y62.975 E9.69655
G1 X62.975 Y57.322 E9.81436
G1 X63.226 Y57.322 E9.81806
G1 X57.322 Y63.226 E9.94109
G1 X57.322 Y63.476 E9.94479
G1 X63.476 Y57.322 E10.07305
G1 X63.727 Y57.322 E10.07674
G1 X57.322 Y63.727 E10.21023
G1 X57.322 Y63.978 E10.21393
G1 X63.978 Y57.322 E10.35264
G1 X64.228 Y57.322 E10.35633
G1 X57.322 Y64.228 E10.50027
G1 X57.322 Y64.479 E10.50396
G1 X64.479 Y57.322 E10.65312
G1 X64.730 Y57.322 E10.65681
G1 X57.322 Y64.730 E10.81120
G1 X57.322 Y64.980 E10.81489
G1 X64.980 Y57.322 E10.97450
G1 X65.231 Y57.322 E10.97819
G1 X57.322 Y65.231 E11.14302
G1 X57.322 Y65.482 E11.14672
G1 X65.482 Y57.322 E11.31677
G1 X65.732 Y57.322 E11.32047
G1 X57.322 Y65.732 E11.49575
G1 X57.322 Y65.983 E11.49944
G1 X65.983 Y57.322 E11.67995
G1 X66.234 Y57.322 E11.68364
G1 X57.322 Y66.234 E11.86937
G1 X57.322 Y66.484 E11.87306
G1 X66.484 Y57.322 E12.06402
G1 X66.735 Y57.322 E12.06771
G1 X57.322 Y66.735 E12.26389
G1 X57.322 Y66.986 E12.26758
G1 X66.986 Y57.322 E12.46898
G1 X67.236 Y57.322 E12.47268
G1 X57.322 Y67.236 E12.67930
G1 X57.322 Y67.487 E12.68300
G1 X67.487 Y57.322 E12.89485
G1 X67.737 Y57.322 E12.89854
G1 X57.322 Y67.737 E13.11562
G1 X57.322 Y67.988 E13.11931
G1 X67.988 Y57.322 E13.34161
G1 X68.239 Y57.322 E13.34530
G1 X57.322 Y68.239 E13.57283
G1 X57.322 Y68.489 E13.57652
G1 X68.489 Y57.322 E13.80927
G1 X68.740 Y57.322 E13.81296
G1 X57.322 Y68.740 E14.05093
G1 X57.322 Y68.991 E14.05463
G1 X68.991 Y57.322 E14.29782
G1 X69.241 Y57.322 E14.30152
G1 X57.322 Y69.241 E14.54994
G1 X57.322 Y69.492 E14.55363
G1 X69.492 Y57.322 E14.80727
G1 X69.743 Y57.322 E14.81097
G1 X57.322 Y69.743 E15.06984
G1 X57.322 Y69.993 E15.07353
G1 X69.993 Y57.322 E15.33762
G1 X70.244 Y57.322 E15.34132
G1 X57.322 Y70.244 E15.61063
G1 X57.322 Y70.495 E15.61433
G1 X70.495 Y57.322 E15.88887
G1 X70.745 Y57.322 E15.89256
G1 X57.322 Y70.745 E16.17233
G1 X57.322 Y70.996 E16.17602
G1 X70.996 Y57.322 E16.46101
G1 X71.247 Y57.322 E16.46470
G1 X57.322 Y71.247 E16.75492
G1 X57.322 Y71.497 E16.75861
G1 X71.497 Y57.322 E17.05405
G1 X71.748 Y57.322 E17.05774
G1 X57.322 Y71.748 E17.35841
G1 X57.322 Y71.999 E17.36210
G1 X71.999 Y57.322 E17.66799
G1 X72.249 Y57.322 E17.67168
G1 X57.322 Y72.249 E17.98279
G1 X57.322 Y72.500 E17.98648
G1 X72.500 Y57.322 E18.30282
G1 X72.751 Y57.322 E18.30651
G1 X57.322 Y72.751 E18.62807
G1 X57.322 Y73.001 E18.63177
G1 X73.001 Y57.322 E18.95855
G1 X73.252 Y57.322 E18.96224
G1 X57.322 Y73.252 E19.29425
G1 X57.322 Y73.503 E19.29794
G1 X73.503 Y57.322 E19.63518
G1 X73.753 Y57.322 E19.63887
G1 X57.322 Y73.753 E19.98133
G1 X57.322 Y74.004 E19.98502
G1 X74.004 Y57.322 E20.33270
G1 X74.255 Y57.322 E20.33639
G1 X57.322 Y74.255 E20.68930
G1 X57.322 Y74.505 E20.69299
G1 X74.505 Y57.322 E21.05112
G1 X74.756 Y57.322 E21.05481
G1 X57.322 Y74.756 E21.41817
G1 X57.322 Y75.007 E21.42186
G1 X75.007 Y57.322 E21.79044
G1 X75.257 Y57.322 E21.79413
G1 X57.322 Y75.257 E22.16793
G1 X57.322 Y75.508 E22.17163
G1 X75.508 Y57.322 E22.55065
G1 X75.759 Y57.322 E22.55435
G1 X57.322 Y75.758 E22.93860
G1 X57.322 Y76.009 E22.94229
G1 X76.009 Y57.322 E23.33176
G1 X76.260 Y57.322 E23.33546
G1 X57.322 Y76.260 E23.73016
G1 X57.322 Y76.510 E23.73385
G1 X76.510 Y57.322 E24.13377
G1 X76.761 Y57.322 E24.13747
G1 X57.322 Y76.761 E24.54261
G1 X57.322 Y77.012 E24.54631
G1 X77.012 Y57.322 E24.95668
G1 X77.262 Y57.322 E24.96037
G1 X57.322 Y77.262 E25.37597
G1 X57.322 Y77.513 E25.37966
G1 X77.513 Y57.322 E25.80048
G1 X77.764 Y57.322 E25.80418
G1 X57.322 Y77.764 E26.23022
G1 X57.322 Y78.014 E26.23391
G1 X78.014 Y57.322 E26.66518
G1 X78.265 Y57.322 E26.66887
G1 X57.322 Y78.265 E27.10537
G1 X57.322 Y78.516 E27.10906
G1 X78.516 Y57.322 E27.55078
G1 X78.766 Y57.322 E27.55447
G1 X57.322 Y78.766 E28.00141
G1 X57.322 Y79.017 E28.00511
G1 X79.017 Y57.322 E28.45727
G1 X79.268 Y57.322 E28.46096
G1 X57.322 Y79.268 E28.91835
G1 X57.322 Y79.518 E28.92205
G1 X79.518 Y57.322 E29.38466
G1 X79.769 Y57.322 E29.38835
G1 X57.322 Y79.769 E29.85619
G1 X57.322 Y80.020 E29.85989
G1 X80.020 Y57.322 E30.33295
G1 X80.270 Y57.322 E30.33664
G1 X57.322 Y80.270 E30.81493
G1 X57.322 Y80.521 E30.81862
G1 X80.521 Y57.322 E31.30213
G1 X80.772 Y57.322 E31.30582
G1 X57.322 Y80.772 E31.79456
G1 X57.322 Y81.022 E31.79825
G1 X81.022 Y57.322 E32.29221
G1 X81.273 Y57.322 E32.29591
G1 X57.322 Y81.273 E32.79509
G1 X57.322 Y81.524 E32.79878
G1 X81.524 Y57.322 E33.30319
G1 X81.774 Y57.322 E33.30688
G1 X57.322 Y81.774 E33.81651
G1 X57.322 Y82.025 E33.82021
G1 X82.025 Y57.322 E34.33506
G1 X82.276 Y57.322 E34.33876
G1 X57.322 Y82.276 E34.85884
G1 X57.322 Y82.526 E34.86253
G1 X82.526 Y57.322 E35.38784
G1 X82.777 Y57.322 E35.39153
G1 X57.322 Y82.777 E35.92206
G1 X57.322 Y83.028 E35.92575
G1 X83.028 Y57.322 E36.46150
G1 X83.278 Y57.322 E36.46520
G1 X57.322 Y83.278 E37.00618
G1 X57.322 Y83.529 E37.00987
G1 X83.529 Y57.322 E37.55607
G1 X83.780 Y57.322 E37.55976
G1 X57.322 Y83.780 E38.11119
G1 X57.322 Y84.030 E38.11488
G1 X84.030 Y57.322 E38.67153
G1 X84.281 Y57.322 E38.67523
G1 X57.322 Y84.281 E39.23710
G1 X57.322 Y84.531 E39.24079
G1 X84.531 Y57.322 E39.80789
G1 X84.782 Y57.322 E39.81159
G1 X57.322 Y84.782 E40.38391
G1 X57.322 Y85.033 E40.38760
G1 X85.033 Y57.322 E40.96515
G1 X85.283 Y57.322 E40.96884
G1 X57.322 Y85.283 E41.55161
G1 X57.322 Y85.534 E41.55531
G1 X85.534 Y57.322 E42.14330
G1 X85.785 Y57.322 E42.14700
G1 X57.322 Y85.785 E42.74021
G1 X57.322 Y86.035 E42.74391
G1 X86.035 Y57.322 E43.34235
G1 X86.286 Y57.322 E43.34605
G1 X57.322 Y86.286 E43.94971
G1 X57.322 Y86.537 E43.95341
G1 X86.537 Y57.322 E44.56230
G1 X86.787 Y57.322 E44.56599
G1 X57.322 Y86.787 E45.18011
G1 X57.322 Y87.038 E45.18380
G1 X87.038 Y57.322 E45.80314
G1 X87.289 Y57.322 E45.80684
G1 X57.322 Y87.289 E46.43140
G1 X57.322 Y87.539 E46.43509
G1 X87.539 Y57.322 E47.06488
G1 X87.790 Y57.322 E47.06858
G1 X57.322 Y87.790 E47.70359
G1 X57.322 Y88.041 E47.70728
G1 X88.041 Y57.322 E48.34752
G1 X88.291 Y57.322 E48.35121
G1 X57.322 Y88.291 E48.99668
G1 X57.322 Y88.542 E49.00037
G1 X88.542 Y57.322 E49.65106
G1 X88.793 Y57.322 E49.65475
G1 X57.322 Y88.793 E50.31066
G1 X57.322 Y89.043 E50.31435
G1 X89.043 Y57.322 E50.97549
G1 X89.294 Y57.322 E50.97918
G1 X57.322 Y89.294 E51.64554
G1 X57.322 Y89.545 E51.64923
G1 X89.545 Y57.322 E52.32082
G1 X89.795 Y57.322 E52.32451
G1 X57.322 Y89.795 E53.00132
G1 X57.322 Y90.046 E53.00501
G1 X90.046 Y57.322 E53.68704
G1 X90.297 Y57.322 E53.69074
G1 X57.322 Y90.297 E54.37799
G1 X57.322 Y90.547 E54.38168
G1 X90.547 Y57.322 E55.07416
G1 X90.798 Y57.322 E55.07786
G1 X57.322 Y90.798 E55.77556
G1 X57.322 Y91.049 E55.77926
G1 X91.049 Y57.322 E56.48218
G1 X91.299 Y57.322 E56.48588
G1 X57.322 Y91.299 E57.19403
G1 X57.322 Y91.550 E57.19772
G1 X91.550 Y57.322 E57.91110
G1 X91.801 Y57.322 E57.91479
G1 X57.322 Y91.801 E58.63339
G1 X57.322 Y92.051 E58.63709
G1 X92.051 Y57.322 E59.36091
G1 X92.302 Y57.322 E59.36461
G1 X57.322 Y92.302 E60.09366
G1 X57.322 Y92.552 E60.09735
G1 X92.552 Y57.322 E60.83162
G1 X92.678 Y57.322 E60.83347
G1 X92.678 Y57.448 E60.83532
G1 X57.448 Y92.678 E61.56958
G1 X57.698 Y92.678 E61.57328
G1 X92.678 Y57.699 E62.30232
G1 X92.678 Y57.949 E62.30601
G1 X57.949 Y92.678 E63.02983
G1 X58.200 Y92.678 E63.03352
G1 X92.678 Y58.200 E63.75212
G1 X92.678 Y58.450 E63.75581
G1 X58.450 Y92.678 E64.46918
G1 X58.701 Y92.678 E64.47287
G1 X92.678 Y58.701 E65.18102
G1 X92.678 Y58.952 E65.18471
G1 X58.952 Y92.678 E65.88763
G1 X59.202 Y92.678 E65.89133
G1 X92.678 Y59.202 E66.58902
G1 X92.678 Y59.453 E66.59272
G1 X59.453 Y92.678 E67.28519
G1 X59.704 Y92.678 E67.28888
G1 X92.678 Y59.704 E67.97613
G1 X92.678 Y59.954 E67.97983
G1 X59.954 Y92.678 E68.66185
G1 X60.205 Y92.678 E68.66554
G1 X92.678 Y60.205 E69.34234
G1 X92.678 Y60.456 E69.34604
G1 X60.456 Y92.678 E70.01761
G1 X60.706 Y92.678 E70.02131
G1 X92.678 Y60.706 E70.68766
G1 X92.678 Y60.957 E70.69135
G1 X60.957 Y92.678 E71.35248
G1 X61.208 Y92.678 E71.35617
G1 X92.678 Y61.208 E72.01208
G1 X92.678 Y61.458 E72.01577
G1 X61.458 Y92.678 E72.66645
G1 X61.709 Y92.678 E72.67014
G1 X92.678 Y61.709 E73.31560
G1 X92.678 Y61.960 E73.31929
G1 X61.960 Y92.678 E73.95952
G1 X62.210 Y92.678 E73.96321
G1 X92.678 Y62.210 E74.59822
G1 X92.678 Y62.461 E74.60191
G1 X62.461 Y92.678 E75.23169
G1 X62.712 Y92.678 E75.23539
G1 X92.678 Y62.712 E75.85995
G1 X92.678 Y62.962 E75.86364
G1 X62.962 Y92.678 E76.48297
G1 X63.213 Y92.678 E76.48667
G1 X92.678 Y63.213 E77.10078
G1 X92.678 Y63.464 E77.10447
G1 X63.464 Y92.678 E77.71335
G1 X63.714 Y92.678 E77.71705
G1 X92.678 Y63.714 E78.32071
G1 X92.678 Y63.965 E78.32440
G1 X63.965 Y92.678 E78.92284
G1 X64.216 Y92.678 E78.92653
G1 X92.678 Y64.216 E79.51974
G1 X92.678 Y64.466 E79.52344
G1 X64.466 Y92.678 E80.11143
G1 X64.717 Y92.678 E80.11512
G1 X92.678 Y64.717 E80.69788
G1 X92.678 Y64.968 E80.70158
G1 X64.968 Y92.678 E81.27912
G1 X65.218 Y92.678 E81.28281
G1 X92.678 Y65.218 E81.85512
G1 X92.678 Y65.469 E81.85882
G1 X65.469 Y92.678 E82.42591
G1 X65.720 Y92.678 E82.42960
G1 X92.678 Y65.720 E82.99147
G1 X92.678 Y65.970 E82.99516
G1 X65.970 Y92.678 E83.55181
G1 X66.221 Y92.678 E83.55550
G1 X92.678 Y66.221 E84.10692
G1 X92.678 Y66.471 E84.11061
G1 X66.471 Y92.678 E84.65681
G1 X66.722 Y92.678 E84.66050
G1 X92.678 Y66.722 E85.20147
G1 X92.678 Y66.973 E85.20516
G1 X66.973 Y92.678 E85.74091
G1 X67.223 Y92.678 E85.74460
G1 X92.678 Y67.223 E86.27512
G1 X92.678 Y67.474 E86.27882
G1 X67.474 Y92.678 E86.80411
G1 X67.725 Y92.678 E86.80781
G1 X92.678 Y67.725 E87.32788
G1 X92.678 Y67.975 E87.33158
G1 X67.975 Y92.678 E87.84642
G1 X68.226 Y92.678 E87.85012
G1 X92.678 Y68.226 E88.35974
G1 X92.678 Y68.477 E88.36344
G1 X68.477 Y92.678 E88.86784
G1 X68.727 Y92.678 E88.87153
G1 X92.678 Y68.727 E89.37071
G1 X92.678 Y68.978 E89.37440
G1 X68.978 Y92.678 E89.86835
G1 X69.229 Y92.678 E89.87204
G1 X92.678 Y69.229 E90.36077
G1 X92.678 Y69.479 E90.36447
G1 X69.479 Y92.678 E90.84797
G1 X69.730 Y92.678 E90.85166
G1 X92.678 Y69.730 E91.32994
G1 X92.678 Y69.981 E91.33364
G1 X69.981 Y92.678 E91.80669
G1 X70.231 Y92.678 E91.81038
G1 X92.678 Y70.231 E92.27821
G1 X92.678 Y70.482 E92.28191
G1 X70.482 Y92.678 E92.74451
G1 X70.733 Y92.678 E92.74821
G1 X92.678 Y70.733 E93.20559
G1 X92.678 Y70.983 E93.20928
G1 X70.983 Y92.678 E93.66144
G1 X71.234 Y92.678 E93.66514
G1 X92.678 Y71.234 E94.11207
G1 X92.678 Y71.485 E94.11576
G1 X71.485 Y92.678 E94.55747
G1 X71.735 Y92.678 E94.56117
G1 X92.678 Y71.735 E94.99765
G1 X92.678 Y71.986 E95.00134
G1 X71.986 Y92.678 E95.43261
G1 X72.237 Y92.678 E95.43630
G1 X92.678 Y72.237 E95.86234
G1 X92.678 Y72.487 E95.86603
G1 X72.487 Y92.678 E96.28684
G1 X72.738 Y92.678 E96.29054
G1 X92.678 Y72.738 E96.70612
G1 X92.678 Y72.989 E96.70982
G1 X72.989 Y92.678 E97.12018
G1 X73.239 Y92.678 E97.12388
G1 X92.678 Y73.239 E97.52902
G1 X92.678 Y73.490 E97.53271
G1 X73.490 Y92.678 E97.93262
G1 X73.741 Y92.678 E97.93632
G1 X92.678 Y73.741 E98.33101
G1 X92.678 Y73.991 E98.33470
G1 X73.991 Y92.678 E98.72417
G1 X74.242 Y92.678 E98.72786
G1 X92.678 Y74.242 E99.11211
G1 X92.678 Y74.493 E99.11580
G1 X74.492 Y92.678 E99.49482
G1 X74.743 Y92.678 E99.49851
G1 X92.678 Y74.743 E99.87231
G1 X92.678 Y74.994 E99.87600
G1 X74.994 Y92.678 E100.24457
G1 X75.244 Y92.678 E100.24827
G1 X92.678 Y75.244 E100.61161
G1 X92.678 Y75.495 E100.61531
G1 X75.495 Y92.678 E100.97343
G1 X75.746 Y92.678 E100.97712
G1 X92.678 Y75.746 E101.33002
G1 X92.678 Y75.996 E101.33371
G1 X75.996 Y92.678 E101.68138
G1 X76.247 Y92.678 E101.68508
G1 X92.678 Y76.247 E102.02753
G1 X92.678 Y76.498 E102.03122
G1 X76.498 Y92.678 E102.36845
G1 X76.748 Y92.678 E102.37214
G1 X92.678 Y76.748 E102.70414
G1 X92.678 Y76.999 E102.70783
G1 X76.999 Y92.678 E103.03461
G1 X77.250 Y92.678 E103.03830
G1 X92.678 Y77.250 E103.35986
G1 X92.678 Y77.500 E103.36355
G1 X77.500 Y92.678 E103.67988
G1 X77.751 Y92.678 E103.68357
G1 X92.678 Y77.751 E103.99467
G1 X92.678 Y78.002 E103.99837
G1 X78.002 Y92.678 E104.30425
G1 X78.252 Y92.678 E104.30794
G1 X92.678 Y78.252 E104.60860
G1 X92.678 Y78.503 E104.61229
G1 X78.503 Y92.678 E104.90772
G1 X78.754 Y92.678 E104.91142
G1 X92.678 Y78.754 E105.20162
G1 X92.678 Y79.004 E105.20532
G1 X79.004 Y92.678 E105.49030
G1 X79.255 Y92.678 E105.49399
G1 X92.678 Y79.255 E105.77375
G1 X92.678 Y79.506 E105.77744
G1 X79.506 Y92.678 E106.05198
G1 X79.756 Y92.678 E106.05567
G1 X92.678 Y79.756 E106.32498
G1 X92.678 Y80.007 E106.32868
G1 X80.007 Y92.678 E106.59276
G1 X80.258 Y92.678 E106.59645
G1 X92.678 Y80.258 E106.85532
G1 X92.678 Y80.508 E106.85901
G1 X80.508 Y92.678 E107.11265
G1 X80.759 Y92.678 E107.11634
G1 X92.678 Y80.759 E107.36475
G1 X92.678 Y81.010 E107.36845
G1 X81.010 Y92.678 E107.61164
G1 X81.260 Y92.678 E107.61533
G1 X92.678 Y81.260 E107.85329
G1 X92.678 Y81.511 E107.85699
G1 X81.511 Y92.678 E108.08973
G1 X81.762 Y92.678 E108.09342
G1 X92.678 Y81.762 E108.32094
G1 X92.678 Y82.012 E108.32463
G1 X82.012 Y92.678 E108.54692
G1 X82.263 Y92.678 E108.55062
G1 X92.678 Y82.263 E108.76768
G1 X92.678 Y82.514 E108.77138
G1 X82.514 Y92.678 E108.98322
G1 X82.764 Y92.678 E108.98691
G1 X92.678 Y82.764 E109.19353
G1 X92.678 Y83.015 E109.19723
G1 X83.015 Y92.678 E109.39862
G1 X83.265 Y92.678 E109.40232
G1 X92.678 Y83.265 E109.59849
G1 X92.678 Y83.516 E109.60218
G1 X83.516 Y92.678 E109.79313
G1 X83.767 Y92.678 E109.79682
G1 X92.678 Y83.767 E109.98254
G1 X92.678 Y84.017 E109.98624
G1 X84.017 Y92.678 E110.16673
G1 X84.268 Y92.678 E110.17043
G1 X92.678 Y84.268 E110.34570
G1 X92.678 Y84.519 E110.34939
G1 X84.519 Y92.678 E110.51944
G1 X84.769 Y92.678 E110.52314
G1 X92.678 Y84.769 E110.68796
G1 X92.678 Y85.020 E110.69166
G1 X85.020 Y92.678 E110.85126
G1 X85.271 Y92.678 E110.85495
G1 X92.678 Y85.271 E111.00933
G1 X92.678 Y85.521 E111.01302
