; generated by Slic3r 1.3.1-dev (Build adea0d9) on 2020-03-12 at 20:46:57

; external perimeters extrusion width = 0.44mm (2.86mm^3/s)
; perimeters extrusion width = 0.56mm (4.14mm^3/s)
; infill extrusion width = 0.50mm (3.66mm^3/s)
; solid infill extrusion width = 0.56mm (3.10mm^3/s)
; top infill extrusion width = 0.56mm (3.10mm^3/s)

M107
G92 E0
;D3D:START:START
T0
M104 S215 T0

G21
G90
M107
T0
G28
G29
M109 T0 S215 T0
G0 F3000
M107
T0
G92 E0
G0 X0 Y149 Z0.1 F3600
G1 Y49 E6.5 F1200
G0 Z1
G92 E0
; Filament gcode

G21 ; set units to millimeters
G90 ; use absolute coordinates
M82 ; use absolute distances for extrusion
G92 E0
G1 Z0.300 F7800.000
G1 E-2.00000 F2400.00000
G92 E0
G1 X59.054 Y58.721 F7800.000
G1 E2.00000 F2400.00000
G1 F1800.000
G1 X90.946 Y58.721 E3.05658
G1 X90.946 Y8.721 E4.71306
G1 X92.554 Y8.721 E4.76632
G1 X92.554 Y58.373 E6.41126
G1 X100.554 Y64.373 E6.74255
G1 X100.554 Y130.289 E8.92633
G1 X96.946 Y130.289 E9.04584
G1 X96.946 Y68.329 E11.09856
G1 X53.054 Y68.329 E12.55270
G1 X53.054 Y130.289 E14.60542
G1 X49.446 Y130.289 E14.72494
G1 X49.446 Y64.373 E16.90871
G1 X57.446 Y58.373 E17.24001
G1 X57.446 Y8.721 E18.88495
G1 X59.054 Y8.721 E18.93821
G1 X59.054 Y58.661 E20.59270
G1 X59.319 Y58.456 F7800.000
G1 F1800.000
G1 X90.681 Y58.456 E21.63168
G1 X90.681 Y8.456 E23.28815
G1 X92.819 Y8.456 E23.35901
G1 X92.819 Y58.240 E25.00835
G1 X100.819 Y64.240 E25.33965
G1 X100.819 Y130.555 E27.53662
G1 X96.681 Y130.555 E27.67374
G1 X96.681 Y68.594 E29.72646
G1 X53.319 Y68.594 E31.16300
G1 X53.319 Y130.555 E33.21572
G1 X49.181 Y130.555 E33.35284
G1 X49.181 Y64.240 E35.54981
G1 X57.181 Y58.240 E35.88110
G1 X57.181 Y8.456 E37.53045
G1 X59.319 Y8.456 E37.60130
G1 X59.319 Y58.396 E39.25579
G1 X59.585 Y58.190 F7800.000
G1 F1800.000
G1 X90.415 Y58.190 E40.27717
G1 X90.415 Y8.190 E41.93365
G1 X93.085 Y8.190 E42.02211
G1 X93.085 Y58.108 E43.67585
G1 X101.085 Y64.108 E44.00714
G1 X101.085 Y130.821 E46.21732
G1 X96.415 Y130.821 E46.37203
G1 X96.415 Y68.860 E48.42475
G1 X53.585 Y68.860 E49.84369
G1 X53.585 Y130.821 E51.89641
G1 X48.915 Y130.821 E52.05113
G1 X48.915 Y64.108 E54.26130
G1 X56.915 Y58.108 E54.59260
G1 X56.915 Y8.190 E56.24634
G1 X59.585 Y8.190 E56.33480
G1 X59.585 Y58.130 E57.98928
G1 X59.592 Y58.590 F7800.000
G1 E55.98928 F2400.00000
G92 E0
G1 X50.810 Y63.657 F7800.000
G1 E2.00000 F2400.00000
G1 F1800.000
G1 X49.609 Y64.858 E2.05634
G1 X49.609 Y65.234 E2.06882
G1 X52.314 Y62.528 E2.19574
G1 X53.818 Y61.400 E2.25812
G1 X49.609 Y65.610 E2.45562
G1 X49.609 Y65.986 E2.46809
G1 X55.323 Y60.272 E2.73617
G1 X56.827 Y59.143 E2.79855
G1 X49.609 Y66.362 E3.13721
G1 E1.13721 F2400.00000
G92 E0
G1 X52.891 Y67.969 F7800.000
G1 E2.00000 F2400.00000
G1 F1800.000
G1 X49.609 Y71.252 E2.15401
G1 X49.609 Y71.628 E2.16649
G1 X52.891 Y68.345 E2.32049
G1 X52.891 Y68.721 E2.33297
G1 X49.609 Y72.004 E2.48698
G1 X49.609 Y72.380 E2.49946
G1 X52.891 Y69.097 E2.65346
G1 X52.891 Y69.473 E2.66594
G1 X49.609 Y72.756 E2.81995
G1 X49.609 Y73.132 E2.83243
G1 X52.891 Y69.850 E2.98643
G1 X52.891 Y70.226 E2.99891
G1 X49.609 Y73.509 E3.15292
G1 X49.609 Y73.885 E3.16540
G1 X52.891 Y70.602 E3.31941
G1 X52.891 Y70.978 E3.33188
G1 X49.609 Y74.261 E3.48589
G1 X49.609 Y74.637 E3.49837
G1 X52.891 Y71.354 E3.65238
G1 X52.891 Y71.730 E3.66485
G1 X49.609 Y75.013 E3.81886
G1 X49.609 Y75.389 E3.83134
G1 X52.891 Y72.106 E3.98535
G1 X52.891 Y72.482 E3.99782
G1 X49.609 Y75.765 E4.15183
G1 X49.609 Y76.141 E4.16431
G1 X52.891 Y72.859 E4.31832
G1 X52.891 Y73.235 E4.33079
G1 X49.609 Y76.518 E4.48480
G1 X49.609 Y76.894 E4.49728
G1 X52.891 Y73.611 E4.65129
G1 X52.891 Y73.987 E4.66376
G1 X49.609 Y77.270 E4.81777
G1 X49.609 Y77.646 E4.83025
G1 X52.891 Y74.363 E4.98426
G1 X52.891 Y74.739 E4.99673
G1 X49.609 Y78.022 E5.15074
G1 X49.609 Y78.398 E5.16322
G1 X52.891 Y75.115 E5.31723
G1 X52.891 Y75.491 E5.32970
G1 X49.609 Y78.774 E5.48371
G1 X49.609 Y79.150 E5.49619
G1 X52.891 Y75.867 E5.65020
G1 X52.891 Y76.244 E5.66267
G1 X49.609 Y79.527 E5.81668
G1 X49.609 Y79.903 E5.82916
G1 X52.891 Y76.620 E5.98317
G1 X52.891 Y76.996 E5.99564
G1 X49.609 Y80.279 E6.14965
G1 X49.609 Y80.655 E6.16213
G1 X52.891 Y77.372 E6.31614
G1 X52.891 Y77.748 E6.32861
G1 X49.609 Y81.031 E6.48262
G1 X49.609 Y81.407 E6.49510
G1 X52.891 Y78.124 E6.64911
G1 X52.891 Y78.500 E6.66158
G1 X49.609 Y81.783 E6.81559
G1 X49.609 Y82.159 E6.82807
G1 X52.891 Y78.876 E6.98208
G1 X52.891 Y79.253 E6.99456
G1 X49.609 Y82.536 E7.14856
G1 X49.609 Y82.912 E7.16104
G1 X52.891 Y79.629 E7.31505
G1 X52.891 Y80.005 E7.32753
G1 X49.609 Y83.288 E7.48153
G1 X49.609 Y83.664 E7.49401
G1 X52.891 Y80.381 E7.64802
G1 X52.891 Y80.757 E7.66050
G1 X49.609 Y84.040 E7.81451
G1 X49.609 Y84.416 E7.82698
G1 X52.891 Y81.133 E7.98099
G1 X52.891 Y81.509 E7.99347
G1 X49.609 Y84.792 E8.14748
G1 X49.609 Y85.168 E8.15995
G1 X52.891 Y81.885 E8.31396
G1 X52.891 Y82.262 E8.32644
G1 X49.609 Y85.544 E8.48045
G1 X49.609 Y85.921 E8.49292
G1 X52.891 Y82.638 E8.64693
G1 X52.891 Y83.014 E8.65941
G1 X49.609 Y86.297 E8.81342
G1 X49.609 Y86.673 E8.82589
G1 X52.891 Y83.390 E8.97990
G1 X52.891 Y83.766 E8.99238
G1 X49.609 Y87.049 E9.14639
G1 X49.609 Y87.425 E9.15886
G1 X52.891 Y84.142 E9.31287
G1 X52.891 Y84.518 E9.32535
G1 X49.609 Y87.801 E9.47936
G1 X49.609 Y88.177 E9.49183
G1 X52.891 Y84.894 E9.64584
G1 X52.891 Y85.271 E9.65832
G1 X49.609 Y88.553 E9.81233
G1 X49.609 Y88.930 E9.82480
G1 X52.891 Y85.647 E9.97881
G1 X52.891 Y86.023 E9.99129
G1 X49.609 Y89.306 E10.14530
G1 X49.609 Y89.682 E10.15777
G1 X52.891 Y86.399 E10.31178
G1 X52.891 Y86.775 E10.32426
G1 X49.609 Y90.058 E10.47827
G1 X49.609 Y90.434 E10.49074
G1 X52.891 Y87.151 E10.64475
G1 X52.891 Y87.527 E10.65723
G1 X49.609 Y90.810 E10.81124
G1 X49.609 Y91.186 E10.82371
G1 X52.891 Y87.903 E10.97772
G1 X52.891 Y88.279 E10.99020
G1 X49.609 Y91.562 E11.14421
G1 X49.609 Y91.939 E11.15669
G1 X52.891 Y88.656 E11.31069
G1 X52.891 Y89.032 E11.32317
G1 X49.609 Y92.315 E11.47718
G1 X49.609 Y92.691 E11.48966
G1 X52.891 Y89.408 E11.64366
G1 X52.891 Y89.784 E11.65614
G1 X49.609 Y93.067 E11.81015
G1 X49.609 Y93.443 E11.82263
G1 X52.891 Y90.160 E11.97663
G1 X52.891 Y90.536 E11.98911
G1 X49.609 Y93.819 E12.14312
G1 X49.609 Y94.195 E12.15560
G1 X52.891 Y90.912 E12.30960
G1 X52.891 Y91.288 E12.32208
G1 X49.609 Y94.571 E12.47609
G1 X49.609 Y94.948 E12.48857
G1 X52.891 Y91.665 E12.64257
G1 X52.891 Y92.041 E12.65505
G1 X49.609 Y95.324 E12.80906
G1 X49.609 Y95.700 E12.82154
G1 X52.891 Y92.417 E12.97555
G1 X52.891 Y92.793 E12.98802
G1 X49.609 Y96.076 E13.14203
G1 X49.609 Y96.452 E13.15451
G1 X52.891 Y93.169 E13.30852
G1 X52.891 Y93.545 E13.32099
G1 X49.609 Y96.828 E13.47500
G1 X49.609 Y97.204 E13.48748
G1 X52.891 Y93.921 E13.64149
G1 X52.891 Y94.297 E13.65396
G1 X49.609 Y97.580 E13.80797
G1 X49.609 Y97.956 E13.82045
G1 X52.891 Y94.674 E13.97446
G1 X52.891 Y95.050 E13.98693
G1 X49.609 Y98.333 E14.14094
G1 X49.609 Y98.709 E14.15342
G1 X52.891 Y95.426 E14.30743
G1 X52.891 Y95.802 E14.31990
G1 X49.609 Y99.085 E14.47391
G1 X49.609 Y99.461 E14.48639
G1 X52.891 Y96.178 E14.64040
G1 X52.891 Y96.554 E14.65287
G1 X49.609 Y99.837 E14.80688
G1 X49.609 Y100.213 E14.81936
G1 X52.891 Y96.930 E14.97337
G1 X52.891 Y97.306 E14.98584
G1 X49.609 Y100.589 E15.13985
G1 X49.609 Y100.965 E15.15233
G1 X52.891 Y97.683 E15.30634
G1 X52.891 Y98.059 E15.31881
G1 X49.609 Y101.342 E15.47282
G1 X49.609 Y101.718 E15.48530
G1 X52.891 Y98.435 E15.63931
G1 X52.891 Y98.811 E15.65179
G1 X49.609 Y102.094 E15.80579
G1 X49.609 Y102.470 E15.81827
G1 X52.891 Y99.187 E15.97228
G1 X52.891 Y99.563 E15.98476
G1 X49.609 Y102.846 E16.13876
G1 X49.609 Y103.222 E16.15124
G1 X52.891 Y99.939 E16.30525
G1 X52.891 Y100.315 E16.31773
G1 X49.609 Y103.598 E16.47173
G1 X49.609 Y103.974 E16.48421
G1 X52.891 Y100.692 E16.63822
G1 X52.891 Y101.068 E16.65070
G1 X49.609 Y104.351 E16.80470
G1 X49.609 Y104.727 E16.81718
G1 X52.891 Y101.444 E16.97119
G1 X52.891 Y101.820 E16.98367
G1 X49.609 Y105.103 E17.13768
G1 X49.609 Y105.479 E17.15015
G1 X52.891 Y102.196 E17.30416
G1 X52.891 Y102.572 E17.31664
G1 X49.609 Y105.855 E17.47065
G1 X49.609 Y106.231 E17.48312
G1 X52.891 Y102.948 E17.63713
G1 X52.891 Y103.324 E17.64961
G1 X49.609 Y106.607 E17.80362
G1 X49.609 Y106.983 E17.81609
G1 X52.891 Y103.700 E17.97010
G1 X52.891 Y104.077 E17.98258
G1 X49.609 Y107.360 E18.13659
G1 X49.609 Y107.736 E18.14906
G1 X52.891 Y104.453 E18.30307
G1 X52.891 Y104.829 E18.31555
G1 X49.609 Y108.112 E18.46956
G1 X49.609 Y108.488 E18.48203
G1 X52.891 Y105.205 E18.63604
G1 X52.891 Y105.581 E18.64852
G1 X49.609 Y108.864 E18.80253
G1 X49.609 Y109.240 E18.81500
G1 X52.891 Y105.957 E18.96901
G1 X52.891 Y106.333 E18.98149
G1 X49.609 Y109.616 E19.13550
G1 X49.609 Y109.992 E19.14797
G1 X52.891 Y106.709 E19.30198
G1 X52.891 Y107.086 E19.31446
G1 X49.609 Y110.368 E19.46847
G1 X49.609 Y110.745 E19.48094
G1 X52.891 Y107.462 E19.63495
G1 X52.891 Y107.838 E19.64743
G1 X49.609 Y111.121 E19.80144
G1 X49.609 Y111.497 E19.81391
G1 X52.891 Y108.214 E19.96792
G1 X52.891 Y108.590 E19.98040
G1 X49.609 Y111.873 E20.13441
G1 X49.609 Y112.249 E20.14688
G1 X52.891 Y108.966 E20.30089
G1 X52.891 Y109.342 E20.31337
G1 X49.609 Y112.625 E20.46738
G1 X49.609 Y113.001 E20.47985
G1 X52.891 Y109.718 E20.63386
G1 X52.891 Y110.095 E20.64634
G1 X49.609 Y113.377 E20.80035
G1 X49.609 Y113.754 E20.81282
G1 X52.891 Y110.471 E20.96683
G1 X52.891 Y110.847 E20.97931
G1 X49.609 Y114.130 E21.13332
G1 X49.609 Y114.506 E21.14579
G1 X52.891 Y111.223 E21.29980
G1 X52.891 Y111.599 E21.31228
G1 X49.609 Y114.882 E21.46629
G1 X49.609 Y115.258 E21.47876
G1 X52.891 Y111.975 E21.63277
G1 X52.891 Y112.351 E21.64525
G1 X49.609 Y115.634 E21.79926
G1 X49.609 Y116.010 E21.81173
G1 X52.891 Y112.727 E21.96574
G1 X52.891 Y113.104 E21.97822
G1 X49.609 Y116.386 E22.13223
G1 X49.609 Y116.763 E22.14470
G1 X52.891 Y113.480 E22.29871
G1 X52.891 Y113.856 E22.31119
G1 X49.609 Y117.139 E22.46520
G1 X49.609 Y117.515 E22.47768
G1 X52.891 Y114.232 E22.63168
G1 X52.891 Y114.608 E22.64416
G1 X49.609 Y117.891 E22.79817
G1 X49.609 Y118.267 E22.81065
G1 X52.891 Y114.984 E22.96465
G1 X52.891 Y115.360 E22.97713
G1 X49.609 Y118.643 E23.13114
G1 X49.609 Y119.019 E23.14362
G1 X52.891 Y115.736 E23.29762
G1 X52.891 Y116.112 E23.31010
G1 X49.609 Y119.395 E23.46411
G1 X49.609 Y119.772 E23.47659
G1 X52.891 Y116.489 E23.63059
G1 X52.891 Y116.865 E23.64307
G1 X49.609 Y120.148 E23.79708
G1 X49.609 Y120.524 E23.80956
G1 X52.891 Y117.241 E23.96356
G1 X52.891 Y117.617 E23.97604
G1 X49.609 Y120.900 E24.13005
G1 X49.609 Y121.276 E24.14253
G1 X52.891 Y117.993 E24.29653
G1 X52.891 Y118.369 E24.30901
G1 X49.609 Y121.652 E24.46302
G1 X49.609 Y122.028 E24.47550
G1 X52.891 Y118.745 E24.62950
G1 X52.891 Y119.121 E24.64198
G1 X49.609 Y122.404 E24.79599
G1 X49.609 Y122.780 E24.80847
G1 X52.891 Y119.498 E24.96247
G1 X52.891 Y119.874 E24.97495
G1 X49.609 Y123.157 E25.12896
G1 X49.609 Y123.533 E25.14144
G1 X52.891 Y120.250 E25.29545
G1 X52.891 Y120.626 E25.30792
G1 X49.609 Y123.909 E25.46193
G1 X49.609 Y124.285 E25.47441
G1 X52.891 Y121.002 E25.62842
G1 X52.891 Y121.378 E25.64089
G1 X49.609 Y124.661 E25.79490
G1 X49.609 Y125.037 E25.80738
G1 X52.891 Y121.754 E25.96139
G1 X52.891 Y122.130 E25.97386
G1 X49.609 Y125.413 E26.12787
G1 X49.609 Y125.789 E26.14035
G1 X52.891 Y122.507 E26.29436
G1 X52.891 Y122.883 E26.30683
G1 X49.609 Y126.166 E26.46084
G1 X49.609 Y126.542 E26.47332
G1 X52.891 Y123.259 E26.62733
G1 X52.891 Y123.635 E26.63980
G1 X49.609 Y126.918 E26.79381
G1 X49.609 Y127.294 E26.80629
G1 X52.891 Y124.011 E26.96030
G1 X52.891 Y124.387 E26.97277
G1 X49.609 Y127.670 E27.12678
G1 X49.609 Y128.046 E27.13926
G1 X52.891 Y124.763 E27.29327
G1 X52.891 Y125.139 E27.30574
G1 X49.609 Y128.422 E27.45975
G1 X49.609 Y128.798 E27.47223
G1 X52.891 Y125.516 E27.62624
G1 X52.891 Y125.892 E27.63871
G1 X49.609 Y129.175 E27.79272
G1 X49.609 Y129.551 E27.80520
G1 X52.891 Y126.268 E27.95921
G1 X52.891 Y126.644 E27.97168
G1 X49.609 Y129.927 E28.12569
G1 X49.609 Y130.127 E28.13233
G1 X49.784 Y130.127 E28.13817
G1 X52.891 Y127.020 E28.28392
G1 X52.891 Y127.396 E28.29640
G1 X50.161 Y130.127 E28.42451
G1 X50.537 Y130.127 E28.43699
G1 X52.891 Y127.772 E28.54746
G1 X52.891 Y128.148 E28.55993
G1 X50.913 Y130.127 E28.65276
G1 X51.289 Y130.127 E28.66523
G1 X52.891 Y128.524 E28.74041
G1 X52.891 Y128.901 E28.75289
G1 X51.665 Y130.127 E28.81042
G1 X52.041 Y130.127 E28.82290
G1 X52.891 Y129.277 E28.86278
G1 X52.891 Y129.653 E28.87526
G1 X52.417 Y130.127 E28.89751
G1 E26.89751 F2400.00000
G92 E0
G1 X100.185 Y130.127 F7800.000
G1 E2.00000 F2400.00000
G1 F1800.000
G1 X100.391 Y129.920 E2.00970
G1 X100.391 Y129.544 E2.02218
G1 X99.809 Y130.127 E2.04952
G1 X99.432 Y130.127 E2.06200
G1 X100.391 Y129.168 E2.10698
G1 X100.391 Y128.792 E2.11946
G1 X99.056 Y130.127 E2.18209
G1 X98.680 Y130.127 E2.19457
G1 X100.391 Y128.416 E2.27485
G1 X100.391 Y128.040 E2.28732
G1 X98.304 Y130.127 E2.38524
G1 X97.928 Y130.127 E2.39772
G1 X100.391 Y127.664 E2.51329
G1 X100.391 Y127.287 E2.52576
G1 X97.552 Y130.127 E2.65897
G1 X97.176 Y130.127 E2.67145
G1 X100.391 Y126.911 E2.82231
G1 X100.391 Y126.535 E2.83478
G1 X97.109 Y129.818 E2.98879
G1 X97.109 Y129.442 E3.00127
G1 X100.391 Y126.159 E3.15528
G1 X100.391 Y125.783 E3.16775
G1 X97.109 Y129.066 E3.32176
G1 X97.109 Y128.690 E3.33424
G1 X100.391 Y125.407 E3.48825
G1 X100.391 Y125.031 E3.50072
G1 X97.109 Y128.314 E3.65473
G1 X97.109 Y127.938 E3.66721
G1 X100.391 Y124.655 E3.82122
G1 X100.391 Y124.278 E3.83369
G1 X97.109 Y127.561 E3.98770
G1 X97.109 Y127.185 E4.00018
G1 X100.391 Y123.902 E4.15419
G1 X100.391 Y123.526 E4.16666
G1 X97.109 Y126.809 E4.32067
G1 X97.109 Y126.433 E4.33315
G1 X100.391 Y123.150 E4.48716
G1 X100.391 Y122.774 E4.49963
G1 X97.109 Y126.057 E4.65364
G1 X97.109 Y125.681 E4.66612
G1 X100.391 Y122.398 E4.82013
G1 X100.391 Y122.022 E4.83261
G1 X97.109 Y125.305 E4.98661
G1 X97.109 Y124.929 E4.99909
G1 X100.391 Y121.646 E5.15310
G1 X100.391 Y121.269 E5.16558
G1 X97.109 Y124.552 E5.31958
G1 X97.109 Y124.176 E5.33206
G1 X100.391 Y120.893 E5.48607
G1 X100.391 Y120.517 E5.49855
G1 X97.109 Y123.800 E5.65255
G1 X97.109 Y123.424 E5.66503
G1 X100.391 Y120.141 E5.81904
G1 X100.391 Y119.765 E5.83152
G1 X97.109 Y123.048 E5.98552
G1 X97.109 Y122.672 E5.99800
G1 X100.391 Y119.389 E6.15201
G1 X100.391 Y119.013 E6.16449
G1 X97.109 Y122.296 E6.31850
G1 X97.109 Y121.920 E6.33097
G1 X100.391 Y118.637 E6.48498
G1 X100.391 Y118.261 E6.49746
G1 X97.109 Y121.543 E6.65147
G1 X97.109 Y121.167 E6.66394
G1 X100.391 Y117.884 E6.81795
G1 X100.391 Y117.508 E6.83043
G1 X97.109 Y120.791 E6.98444
G1 X97.109 Y120.415 E6.99691
G1 X100.391 Y117.132 E7.15092
G1 X100.391 Y116.756 E7.16340
G1 X97.109 Y120.039 E7.31741
G1 X97.109 Y119.663 E7.32988
G1 X100.391 Y116.380 E7.48389
G1 X100.391 Y116.004 E7.49637
G1 X97.109 Y119.287 E7.65038
G1 X97.109 Y118.911 E7.66285
G1 X100.391 Y115.628 E7.81686
G1 X100.391 Y115.252 E7.82934
G1 X97.109 Y118.534 E7.98335
G1 X97.109 Y118.158 E7.99582
G1 X100.391 Y114.875 E8.14983
G1 X100.391 Y114.499 E8.16231
G1 X97.109 Y117.782 E8.31632
G1 X97.109 Y117.406 E8.32879
G1 X100.391 Y114.123 E8.48280
G1 X100.391 Y113.747 E8.49528
G1 X97.109 Y117.030 E8.64929
G1 X97.109 Y116.654 E8.66176
G1 X100.391 Y113.371 E8.81577
G1 X100.391 Y112.995 E8.82825
G1 X97.109 Y116.278 E8.98226
G1 X97.109 Y115.902 E8.99473
G1 X100.391 Y112.619 E9.14874
G1 X100.391 Y112.243 E9.16122
G1 X97.109 Y115.525 E9.31523
G1 X97.109 Y115.149 E9.32770
G1 X100.391 Y111.866 E9.48171
G1 X100.391 Y111.490 E9.49419
G1 X97.109 Y114.773 E9.64820
G1 X97.109 Y114.397 E9.66067
G1 X100.391 Y111.114 E9.81468
G1 X100.391 Y110.738 E9.82716
G1 X97.109 Y114.021 E9.98117
G1 X97.109 Y113.645 E9.99365
G1 X100.391 Y110.362 E10.14765
G1 X100.391 Y109.986 E10.16013
G1 X97.109 Y113.269 E10.31414
G1 X97.109 Y112.893 E10.32662
G1 X100.391 Y109.610 E10.48062
G1 X100.391 Y109.234 E10.49310
G1 X97.109 Y112.517 E10.64711
G1 X97.109 Y112.140 E10.65959
G1 X100.391 Y108.857 E10.81359
G1 X100.391 Y108.481 E10.82607
G1 X97.109 Y111.764 E10.98008
G1 X97.109 Y111.388 E10.99256
G1 X100.391 Y108.105 E11.14657
G1 X100.391 Y107.729 E11.15904
G1 X97.109 Y111.012 E11.31305
G1 X97.109 Y110.636 E11.32553
