; generated by Slic3r 1.3.1-dev (Build adea0d9) on 2020-03-12 at 20:42:46

; external perimeters extrusion width = 0.44mm (2.86mm^3/s)
; perimeters extrusion width = 0.56mm (4.14mm^3/s)
; infill extrusion width = 0.50mm (3.66mm^3/s)
; solid infill extrusion width = 0.56mm (3.10mm^3/s)
; top infill extrusion width = 0.56mm (3.10mm^3/s)

M107
G92 E0
;D3D:START:START
T0
M104 S215 T0

G21
G90
M107
T0
G28
G29
M109 T0 S215 T0
G0 F3000
M107
T0
G92 E0
G0 X0 Y149 Z0.1 F3600
G1 Y49 E6.5 F1200
G0 Z1
G92 E0
; Filament gcode

G21 ; set units to millimeters
G90 ; use absolute coordinates
M82 ; use absolute distances for extrusion
G92 E0
G1 Z0.300 F7800.000
G1 E-2.00000 F2400.00000
G92 E0
G1 X59.054 Y86.446 F7800.000
G1 E2.00000 F2400.00000
G1 F1800.000
G1 X90.946 Y86.446 E3.05658
G1 X90.946 Y55.946 E4.06703
G1 X92.554 Y55.946 E4.12029
G1 X92.554 Y91.054 E5.28338
G1 X80.654 Y91.054 E5.67763
G1 X80.654 Y94.054 E5.77701
G1 X69.346 Y94.054 E6.15163
G1 X69.346 Y91.054 E6.25102
G1 X57.446 Y91.054 E6.64526
G1 X57.446 Y55.946 E7.80835
G1 X59.054 Y55.946 E7.86161
G1 X59.054 Y86.386 E8.87007
G1 X59.319 Y86.181 F7800.000
G1 F1800.000
G1 X90.681 Y86.181 E9.90906
G1 X90.681 Y55.681 E10.91951
G1 X92.819 Y55.681 E10.99036
G1 X92.819 Y91.319 E12.17106
G1 X80.919 Y91.319 E12.56530
G1 X80.919 Y94.319 E12.66469
G1 X69.081 Y94.319 E13.05690
G1 X69.081 Y91.319 E13.15629
G1 X57.181 Y91.319 E13.55053
G1 X57.181 Y55.681 E14.73122
G1 X59.319 Y55.681 E14.80208
G1 X59.319 Y86.121 E15.81054
G1 X59.585 Y85.915 F7800.000
G1 F1800.000
G1 X90.415 Y85.915 E16.83193
G1 X90.415 Y55.415 E17.84238
G1 X93.085 Y55.415 E17.93083
G1 X93.085 Y91.585 E19.12913
G1 X81.185 Y91.585 E19.52337
G1 X81.185 Y94.585 E19.62276
G1 X68.815 Y94.585 E20.03257
G1 X68.815 Y91.585 E20.13196
G1 X56.915 Y91.585 E20.52620
G1 X56.915 Y55.415 E21.72449
G1 X59.585 Y55.415 E21.81295
G1 X59.585 Y85.855 E22.82141
G1 X59.597 Y86.315 F7800.000
G1 E20.82141 F2400.00000
G92 E0
G1 X80.491 Y90.934 F7800.000
G1 E2.00000 F2400.00000
G1 F1800.000
G1 X80.491 Y91.310 E2.01246
G1 X77.910 Y93.891 E2.13347
G1 X78.286 Y93.891 E2.14593
G1 X80.491 Y91.686 E2.24932
G1 X80.491 Y92.062 E2.26178
G1 X78.662 Y93.891 E2.34755
G1 X79.037 Y93.891 E2.36001
G1 X80.491 Y92.437 E2.42817
G1 X80.491 Y92.813 E2.44063
G1 X79.413 Y93.891 E2.49117
G1 X79.789 Y93.891 E2.50363
G1 X80.491 Y93.189 E2.53656
G1 X80.491 Y93.565 E2.54901
G1 X80.165 Y93.891 E2.56432
G1 E0.56432 F2400.00000
G92 E0
G1 X92.185 Y90.891 F7800.000
G1 E2.00000 F2400.00000
G1 F1800.000
G1 X92.391 Y90.685 E2.00969
G1 X92.391 Y90.309 E2.02215
G1 X91.809 Y90.891 E2.04946
G1 X91.433 Y90.891 E2.06191
G1 X92.391 Y89.933 E2.10684
G1 X92.391 Y89.557 E2.11930
G1 X91.057 Y90.891 E2.18184
G1 X90.681 Y90.891 E2.19429
G1 X92.391 Y89.181 E2.27445
G1 X92.391 Y88.806 E2.28691
G1 X90.306 Y90.891 E2.38469
G1 X89.930 Y90.891 E2.39714
G1 X92.391 Y88.430 E2.51254
G1 X92.391 Y88.054 E2.52499
G1 X89.554 Y90.891 E2.65800
G1 X89.178 Y90.891 E2.67046
G1 X92.391 Y87.678 E2.82109
G1 X92.391 Y87.302 E2.83355
G1 X88.802 Y90.891 E3.00179
G1 X88.426 Y90.891 E3.01425
G1 X92.391 Y86.926 E3.20011
G1 X92.391 Y86.551 E3.21257
G1 X88.051 Y90.891 E3.41604
G1 X87.675 Y90.891 E3.42850
G1 X92.391 Y86.175 E3.64960
G1 X92.391 Y85.799 E3.66205
G1 X87.299 Y90.891 E3.90076
G1 X86.923 Y90.891 E3.91322
G1 X91.206 Y86.609 E4.11399
G1 X90.830 Y86.609 E4.12644
G1 X86.547 Y90.891 E4.32721
G1 X86.171 Y90.891 E4.33966
G1 X90.454 Y86.609 E4.54043
G1 X90.079 Y86.609 E4.55288
G1 X85.796 Y90.891 E4.75365
G1 X85.420 Y90.891 E4.76610
G1 X89.703 Y86.609 E4.96687
G1 X89.327 Y86.609 E4.97932
G1 X85.044 Y90.891 E5.18009
G1 X84.668 Y90.891 E5.19254
G1 X88.951 Y86.609 E5.39331
G1 X88.575 Y86.609 E5.40577
G1 X84.292 Y90.891 E5.60653
G1 X83.917 Y90.891 E5.61899
G1 X88.199 Y86.609 E5.81975
G1 X87.824 Y86.609 E5.83221
G1 X83.541 Y90.891 E6.03297
G1 X83.165 Y90.891 E6.04543
G1 X87.448 Y86.609 E6.24619
G1 X87.072 Y86.609 E6.25865
G1 X82.789 Y90.891 E6.45941
G1 X82.413 Y90.891 E6.47187
G1 X86.696 Y86.609 E6.67263
G1 X86.320 Y86.609 E6.68509
G1 X82.037 Y90.891 E6.88585
G1 X81.662 Y90.891 E6.89831
G1 X85.944 Y86.609 E7.09907
G1 X85.569 Y86.609 E7.11153
G1 X81.286 Y90.891 E7.31229
G1 X80.910 Y90.891 E7.32475
G1 X85.193 Y86.609 E7.52551
G1 X84.817 Y86.609 E7.53797
G1 X80.534 Y90.891 E7.73873
G1 X80.285 Y90.891 E7.74699
G1 X80.285 Y91.141 E7.75526
G1 X77.534 Y93.891 E7.88420
G1 X77.158 Y93.891 E7.89666
G1 X84.441 Y86.609 E8.23805
G1 X84.065 Y86.609 E8.25050
G1 X76.782 Y93.891 E8.59189
G1 X76.407 Y93.891 E8.60435
G1 X83.690 Y86.609 E8.94574
G1 X83.314 Y86.609 E8.95820
G1 X76.031 Y93.891 E9.29958
G1 X75.655 Y93.891 E9.31204
G1 X82.938 Y86.609 E9.65343
G1 X82.562 Y86.609 E9.66589
G1 X75.279 Y93.891 E10.00728
G1 X74.903 Y93.891 E10.01973
G1 X82.186 Y86.609 E10.36112
G1 X81.810 Y86.609 E10.37358
G1 X74.527 Y93.891 E10.71497
G1 X74.152 Y93.891 E10.72743
G1 X81.435 Y86.609 E11.06882
G1 X81.059 Y86.609 E11.08127
G1 X73.776 Y93.891 E11.42266
G1 X73.400 Y93.891 E11.43512
G1 X80.683 Y86.609 E11.77651
G1 X80.307 Y86.609 E11.78897
G1 X73.024 Y93.891 E12.13035
G1 X72.648 Y93.891 E12.14281
G1 X79.931 Y86.609 E12.48420
G1 X79.555 Y86.609 E12.49666
G1 X72.272 Y93.891 E12.83805
G1 X71.897 Y93.891 E12.85050
G1 X79.180 Y86.609 E13.19189
G1 X78.804 Y86.609 E13.20435
G1 X71.521 Y93.891 E13.54574
G1 X71.145 Y93.891 E13.55820
G1 X78.428 Y86.609 E13.89959
G1 X78.052 Y86.609 E13.91204
G1 X70.769 Y93.891 E14.25343
G1 X70.393 Y93.891 E14.26589
G1 X77.676 Y86.609 E14.60728
G1 X77.300 Y86.609 E14.61974
G1 X70.018 Y93.891 E14.96113
G1 X69.642 Y93.891 E14.97358
G1 X76.925 Y86.609 E15.31497
G1 X76.549 Y86.609 E15.32743
G1 X69.509 Y93.649 E15.65744
G1 X69.509 Y93.273 E15.66990
G1 X76.173 Y86.609 E15.98230
G1 X75.797 Y86.609 E15.99475
G1 X69.509 Y92.897 E16.28954
G1 X69.509 Y92.521 E16.30199
G1 X75.421 Y86.609 E16.57916
G1 X75.045 Y86.609 E16.59161
G1 X69.509 Y92.145 E16.85116
G1 X69.509 Y91.770 E16.86362
G1 X74.670 Y86.609 E17.10555
G1 X74.294 Y86.609 E17.11800
G1 X69.509 Y91.394 E17.34232
G1 X69.509 Y91.018 E17.35477
G1 X73.918 Y86.609 E17.56147
G1 X73.542 Y86.609 E17.57392
G1 X69.259 Y90.891 E17.77469
G1 X68.883 Y90.891 E17.78715
G1 X73.166 Y86.609 E17.98791
G1 X72.791 Y86.609 E18.00037
G1 X68.508 Y90.891 E18.20113
G1 X68.132 Y90.891 E18.21359
G1 X72.415 Y86.609 E18.41435
G1 X72.039 Y86.609 E18.42681
G1 X67.756 Y90.891 E18.62757
G1 X67.380 Y90.891 E18.64003
G1 X71.663 Y86.609 E18.84079
G1 X71.287 Y86.609 E18.85325
G1 X67.004 Y90.891 E19.05401
G1 X66.628 Y90.891 E19.06647
G1 X70.911 Y86.609 E19.26723
G1 X70.536 Y86.609 E19.27969
G1 X66.253 Y90.891 E19.48045
G1 X65.877 Y90.891 E19.49291
G1 X70.160 Y86.609 E19.69367
G1 X69.784 Y86.609 E19.70613
G1 X65.501 Y90.891 E19.90689
G1 X65.125 Y90.891 E19.91935
G1 X69.408 Y86.609 E20.12011
G1 X69.032 Y86.609 E20.13257
G1 X64.749 Y90.891 E20.33333
G1 X64.374 Y90.891 E20.34579
G1 X68.656 Y86.609 E20.54656
G1 X68.281 Y86.609 E20.55901
G1 X63.998 Y90.891 E20.75978
G1 X63.622 Y90.891 E20.77223
G1 X67.905 Y86.609 E20.97300
G1 X67.529 Y86.609 E20.98545
G1 X63.246 Y90.891 E21.18622
G1 X62.870 Y90.891 E21.19867
G1 X67.153 Y86.609 E21.39944
G1 X66.777 Y86.609 E21.41189
G1 X62.494 Y90.891 E21.61266
G1 X62.119 Y90.891 E21.62512
G1 X66.401 Y86.609 E21.82588
G1 X66.026 Y86.609 E21.83834
G1 X61.743 Y90.891 E22.03910
G1 X61.367 Y90.891 E22.05156
G1 X65.650 Y86.609 E22.25232
G1 X65.274 Y86.609 E22.26478
G1 X60.991 Y90.891 E22.46554
G1 X60.615 Y90.891 E22.47800
G1 X64.898 Y86.609 E22.67876
G1 X64.522 Y86.609 E22.69122
G1 X60.239 Y90.891 E22.89198
G1 X59.864 Y90.891 E22.90444
G1 X64.147 Y86.609 E23.10520
G1 X63.771 Y86.609 E23.11766
G1 X59.488 Y90.891 E23.31842
G1 X59.112 Y90.891 E23.33088
G1 X63.395 Y86.609 E23.53164
G1 X63.019 Y86.609 E23.54410
G1 X58.736 Y90.891 E23.74486
G1 X58.360 Y90.891 E23.75732
G1 X62.643 Y86.609 E23.95808
G1 X62.267 Y86.609 E23.97054
G1 X57.984 Y90.891 E24.17130
G1 X57.609 Y90.891 E24.18376
G1 X61.892 Y86.609 E24.38453
G1 X61.516 Y86.609 E24.39698
G1 X57.609 Y90.516 E24.58013
G1 X57.609 Y90.140 E24.59259
G1 X61.140 Y86.609 E24.75812
G1 X60.764 Y86.609 E24.77058
G1 X57.609 Y89.764 E24.91850
G1 X57.609 Y89.388 E24.93095
G1 X60.388 Y86.609 E25.06125
G1 X60.012 Y86.609 E25.07371
G1 X57.609 Y89.012 E25.18639
G1 X57.609 Y88.637 E25.19885
G1 X59.637 Y86.609 E25.29391
G1 X59.261 Y86.609 E25.30637
G1 X57.609 Y88.261 E25.38382
G1 X57.609 Y87.885 E25.39627
G1 X58.891 Y86.602 E25.45641
G1 X58.891 Y86.226 E25.46887
G1 X57.609 Y87.509 E25.52901
G1 X57.609 Y87.133 E25.54146
G1 X58.891 Y85.850 E25.60160
G1 X58.891 Y85.475 E25.61406
G1 X57.609 Y86.757 E25.67420
G1 X57.609 Y86.382 E25.68665
G1 X58.891 Y85.099 E25.74679
G1 X58.891 Y84.723 E25.75925
G1 X57.609 Y86.006 E25.81939
G1 X57.609 Y85.630 E25.83184
G1 X58.891 Y84.347 E25.89198
G1 X58.891 Y83.971 E25.90444
G1 X57.609 Y85.254 E25.96458
G1 X57.609 Y84.878 E25.97703
G1 X58.891 Y83.595 E26.03717
G1 X58.891 Y83.220 E26.04963
G1 X57.609 Y84.502 E26.10977
G1 X57.609 Y84.127 E26.12222
G1 X58.891 Y82.844 E26.18236
G1 X58.891 Y82.468 E26.19482
G1 X57.609 Y83.751 E26.25496
G1 X57.609 Y83.375 E26.26741
G1 X58.891 Y82.092 E26.32755
G1 X58.891 Y81.716 E26.34001
G1 X57.609 Y82.999 E26.40014
G1 X57.609 Y82.623 E26.41260
G1 X58.891 Y81.340 E26.47274
G1 X58.891 Y80.965 E26.48520
G1 X57.609 Y82.248 E26.54533
G1 X57.609 Y81.872 E26.55779
G1 X58.891 Y80.589 E26.61793
G1 X58.891 Y80.213 E26.63039
G1 X57.609 Y81.496 E26.69052
G1 X57.609 Y81.120 E26.70298
G1 X58.891 Y79.837 E26.76312
G1 X58.891 Y79.461 E26.77558
G1 X57.609 Y80.744 E26.83571
G1 X57.609 Y80.368 E26.84817
G1 X58.891 Y79.085 E26.90831
G1 X58.891 Y78.710 E26.92077
G1 X57.609 Y79.993 E26.98090
G1 X57.609 Y79.617 E26.99336
G1 X58.891 Y78.334 E27.05350
G1 X58.891 Y77.958 E27.06595
G1 X57.609 Y79.241 E27.12609
G1 X57.609 Y78.865 E27.13855
G1 X58.891 Y77.582 E27.19869
G1 X58.891 Y77.206 E27.21114
G1 X57.609 Y78.489 E27.27128
G1 X57.609 Y78.113 E27.28374
G1 X58.891 Y76.830 E27.34388
G1 X58.891 Y76.455 E27.35633
G1 X57.609 Y77.738 E27.41647
G1 X57.609 Y77.362 E27.42893
G1 X58.891 Y76.079 E27.48907
G1 X58.891 Y75.703 E27.50152
G1 X57.609 Y76.986 E27.56166
G1 X57.609 Y76.610 E27.57412
G1 X58.891 Y75.327 E27.63426
G1 X58.891 Y74.951 E27.64671
G1 X57.609 Y76.234 E27.70685
G1 X57.609 Y75.858 E27.71931
G1 X58.891 Y74.576 E27.77945
G1 X58.891 Y74.200 E27.79190
G1 X57.609 Y75.483 E27.85204
G1 X57.609 Y75.107 E27.86450
G1 X58.891 Y73.824 E27.92464
G1 X58.891 Y73.448 E27.93709
G1 X57.609 Y74.731 E27.99723
G1 X57.609 Y74.355 E28.00969
G1 X58.891 Y73.072 E28.06982
G1 X58.891 Y72.696 E28.08228
G1 X57.609 Y73.979 E28.14242
G1 X57.609 Y73.603 E28.15488
G1 X58.891 Y72.321 E28.21501
G1 X58.891 Y71.945 E28.22747
G1 X57.609 Y73.228 E28.28761
G1 X57.609 Y72.852 E28.30007
G1 X58.891 Y71.569 E28.36020
G1 X58.891 Y71.193 E28.37266
G1 X57.609 Y72.476 E28.43280
G1 X57.609 Y72.100 E28.44526
G1 X58.891 Y70.817 E28.50539
G1 X58.891 Y70.441 E28.51785
G1 X57.609 Y71.724 E28.57799
G1 X57.609 Y71.349 E28.59044
G1 X58.891 Y70.066 E28.65058
G1 X58.891 Y69.690 E28.66304
G1 X57.609 Y70.973 E28.72318
G1 X57.609 Y70.597 E28.73563
G1 X58.891 Y69.314 E28.79577
G1 X58.891 Y68.938 E28.80823
G1 X57.609 Y70.221 E28.86837
G1 X57.609 Y69.845 E28.88082
G1 X58.891 Y68.562 E28.94096
G1 X58.891 Y68.186 E28.95342
G1 X57.609 Y69.469 E29.01356
G1 X57.609 Y69.094 E29.02601
G1 X58.891 Y67.811 E29.08615
G1 X58.891 Y67.435 E29.09861
G1 X57.609 Y68.718 E29.15875
G1 X57.609 Y68.342 E29.17120
G1 X58.891 Y67.059 E29.23134
G1 X58.891 Y66.683 E29.24380
G1 X57.609 Y67.966 E29.30394
G1 X57.609 Y67.590 E29.31639
G1 X58.891 Y66.307 E29.37653
G1 X58.891 Y65.931 E29.38899
G1 X57.609 Y67.214 E29.44912
G1 X57.609 Y66.839 E29.46158
G1 X58.891 Y65.556 E29.52172
G1 X58.891 Y65.180 E29.53418
G1 X57.609 Y66.463 E29.59431
G1 X57.609 Y66.087 E29.60677
G1 X58.891 Y64.804 E29.66691
G1 X58.891 Y64.428 E29.67937
G1 X57.609 Y65.711 E29.73950
G1 X57.609 Y65.335 E29.75196
G1 X58.891 Y64.052 E29.81210
G1 X58.891 Y63.677 E29.82456
G1 X57.609 Y64.959 E29.88469
G1 X57.609 Y64.584 E29.89715
G1 X58.891 Y63.301 E29.95729
G1 X58.891 Y62.925 E29.96975
G1 X57.609 Y64.208 E30.02988
G1 X57.609 Y63.832 E30.04234
G1 X58.891 Y62.549 E30.10248
G1 X58.891 Y62.173 E30.11493
G1 X57.609 Y63.456 E30.17507
G1 X57.609 Y63.080 E30.18753
G1 X58.891 Y61.797 E30.24767
G1 X58.891 Y61.422 E30.26012
G1 X57.609 Y62.704 E30.32026
G1 X57.609 Y62.329 E30.33272
G1 X58.891 Y61.046 E30.39286
G1 X58.891 Y60.670 E30.40531
G1 X57.609 Y61.953 E30.46545
G1 X57.609 Y61.577 E30.47791
G1 X58.891 Y60.294 E30.53805
G1 X58.891 Y59.918 E30.55050
G1 X57.609 Y61.201 E30.61064
G1 X57.609 Y60.825 E30.62310
G1 X58.891 Y59.542 E30.68324
G1 X58.891 Y59.167 E30.69569
G1 X57.609 Y60.450 E30.75583
G1 X57.609 Y60.074 E30.76829
G1 X58.891 Y58.791 E30.82843
G1 X58.891 Y58.415 E30.84088
G1 X57.609 Y59.698 E30.90102
G1 X57.609 Y59.322 E30.91348
G1 X58.891 Y58.039 E30.97361
G1 X58.891 Y57.663 E30.98607
G1 X57.609 Y58.946 E31.04621
G1 X57.609 Y58.570 E31.05867
G1 X58.891 Y57.287 E31.11880
G1 X58.891 Y56.912 E31.13126
G1 X57.609 Y58.195 E31.19140
G1 X57.609 Y57.819 E31.20386
G1 X58.891 Y56.536 E31.26399
G1 X58.891 Y56.160 E31.27645
G1 X57.609 Y57.443 E31.33659
G1 X57.609 Y57.067 E31.34905
G1 X58.567 Y56.109 E31.39398
G1 X58.191 Y56.109 E31.40644
G1 X57.609 Y56.691 E31.43375
G1 X57.609 Y56.315 E31.44621
G1 X57.815 Y56.109 E31.45591
G1 E29.45591 F2400.00000
G92 E0
G1 X91.640 Y56.109 F7800.000
G1 E2.00000 F2400.00000
G1 F1800.000
G1 X91.109 Y56.640 E2.02491
G1 X91.109 Y57.016 E2.03736
G1 X92.016 Y56.109 E2.07989
G1 X92.391 Y56.109 E2.09234
G1 X91.109 Y57.392 E2.15248
G1 X91.109 Y57.767 E2.16494
G1 X92.391 Y56.484 E2.22508
G1 X92.391 Y56.860 E2.23753
G1 X91.109 Y58.143 E2.29767
G1 X91.109 Y58.519 E2.31013
G1 X92.391 Y57.236 E2.37027
G1 X92.391 Y57.612 E2.38272
G1 X91.109 Y58.895 E2.44286
G1 X91.109 Y59.271 E2.45532
G1 X92.391 Y57.988 E2.51546
G1 X92.391 Y58.364 E2.52791
G1 X91.109 Y59.647 E2.58805
G1 X91.109 Y60.022 E2.60051
G1 X92.391 Y58.739 E2.66064
G1 X92.391 Y59.115 E2.67310
G1 X91.109 Y60.398 E2.73324
G1 X91.109 Y60.774 E2.74570
G1 X92.391 Y59.491 E2.80583
G1 X92.391 Y59.867 E2.81829
G1 X91.109 Y61.150 E2.87843
G1 X91.109 Y61.526 E2.89089
G1 X92.391 Y60.243 E2.95102
G1 X92.391 Y60.619 E2.96348
G1 X91.109 Y61.901 E3.02362
G1 X91.109 Y62.277 E3.03608
G1 X92.391 Y60.994 E3.09621
G1 X92.391 Y61.370 E3.10867
G1 X91.109 Y62.653 E3.16881
G1 X91.109 Y63.029 E3.18127
G1 X92.391 Y61.746 E3.24140
G1 X92.391 Y62.122 E3.25386
G1 X91.109 Y63.405 E3.31400
G1 X91.109 Y63.781 E3.32645
G1 X92.391 Y62.498 E3.38659
G1 X92.391 Y62.874 E3.39905
G1 X91.109 Y64.156 E3.45919
G1 X91.109 Y64.532 E3.47164
G1 X92.391 Y63.249 E3.53178
G1 X92.391 Y63.625 E3.54424
G1 X91.109 Y64.908 E3.60438
G1 X91.109 Y65.284 E3.61683
G1 X92.391 Y64.001 E3.67697
G1 X92.391 Y64.377 E3.68943
G1 X91.109 Y65.660 E3.74957
G1 X91.109 Y66.036 E3.76202
G1 X92.391 Y64.753 E3.82216
G1 X92.391 Y65.128 E3.83462
G1 X91.109 Y66.411 E3.89476
G1 X91.109 Y66.787 E3.90721
G1 X92.391 Y65.504 E3.96735
G1 X92.391 Y65.880 E3.97981
G1 X91.109 Y67.163 E4.03995
G1 X91.109 Y67.539 E4.05240
G1 X92.391 Y66.256 E4.11254
G1 X92.391 Y66.632 E4.12500
G1 X91.109 Y67.915 E4.18513
G1 X91.109 Y68.291 E4.19759
G1 X92.391 Y67.008 E4.25773
G1 X92.391 Y67.383 E4.27019
G1 X91.109 Y68.666 E4.33032
G1 X91.109 Y69.042 E4.34278
G1 X92.391 Y67.759 E4.40292
G1 X92.391 Y68.135 E4.41538
G1 X91.109 Y69.418 E4.47551
G1 X91.109 Y69.794 E4.48797
G1 X92.391 Y68.511 E4.54811
G1 X92.391 Y68.887 E4.56057
G1 X91.109 Y70.170 E4.62070
G1 X91.109 Y70.546 E4.63316
G1 X92.391 Y69.263 E4.69330
G1 X92.391 Y69.638 E4.70576
G1 X91.109 Y70.921 E4.76589
G1 X91.109 Y71.297 E4.77835
G1 X92.391 Y70.014 E4.83849
G1 X92.391 Y70.390 E4.85094
G1 X91.109 Y71.673 E4.91108
G1 X91.109 Y72.049 E4.92354
G1 X92.391 Y70.766 E4.98368
G1 X92.391 Y71.142 E4.99613
G1 X91.109 Y72.425 E5.05627
G1 X91.109 Y72.800 E5.06873
G1 X92.391 Y71.518 E5.12887
G1 X92.391 Y71.893 E5.14132
G1 X91.109 Y73.176 E5.20146
G1 X91.109 Y73.552 E5.21392
G1 X92.391 Y72.269 E5.27406
G1 X92.391 Y72.645 E5.28651
G1 X91.109 Y73.928 E5.34665
G1 X91.109 Y74.304 E5.35911
G1 X92.391 Y73.021 E5.41925
G1 X92.391 Y73.397 E5.43170
