; generated by Slic3r 1.3.1-dev (Build adea0d9) on 2020-03-12 at 20:47:42

; external perimeters extrusion width = 0.44mm (2.86mm^3/s)
; perimeters extrusion width = 0.56mm (4.14mm^3/s)
; infill extrusion width = 0.50mm (3.66mm^3/s)
; solid infill extrusion width = 0.56mm (3.10mm^3/s)
; top infill extrusion width = 0.56mm (3.10mm^3/s)

M107
G92 E0
;D3D:START:START
T0
M104 S215 T0

G21
G90
M107
T0
G28
G29
M109 T0 S215 T0
G0 F3000
M107
T0
G92 E0
G0 X0 Y149 Z0.1 F3600
G1 Y49 E6.5 F1200
G0 Z1
G92 E0
; Filament gcode

G21 ; set units to millimeters
G90 ; use absolute coordinates
M82 ; use absolute distances for extrusion
G92 E0
G1 Z0.300 F7800.000
G1 E-2.00000 F2400.00000
G92 E0
G1 X72.359 Y72.067 F7800.000
G1 E2.00000 F2400.00000
G1 F1800.000
G1 X72.680 Y71.807 E2.01369
G1 X73.026 Y71.582 E2.02738
G1 X73.395 Y71.394 E2.04106
G1 X73.780 Y71.246 E2.05475
G1 X74.179 Y71.139 E2.06844
G1 X74.587 Y71.074 E2.08213
G1 X75.000 Y71.053 E2.09581
G1 X75.413 Y71.074 E2.10950
G1 X75.821 Y71.139 E2.12319
G1 X76.254 Y71.255 E2.13806
G1 X76.609 Y71.396 E2.15070
G1 X76.974 Y71.582 E2.16426
G1 X77.320 Y71.807 E2.17795
G1 X77.641 Y72.067 E2.19164
G1 X77.933 Y72.359 E2.20532
G1 X78.193 Y72.680 E2.21901
G1 X78.418 Y73.026 E2.23270
G1 X78.606 Y73.395 E2.24639
G1 X78.754 Y73.780 E2.26007
G1 X78.861 Y74.179 E2.27376
G1 X78.926 Y74.587 E2.28745
G1 X78.947 Y75.000 E2.30114
G1 X78.926 Y75.413 E2.31483
G1 X78.861 Y75.821 E2.32851
G1 X78.754 Y76.220 E2.34220
G1 X78.606 Y76.605 E2.35589
G1 X78.418 Y76.974 E2.36958
G1 X78.193 Y77.320 E2.38326
G1 X77.933 Y77.641 E2.39695
G1 X77.641 Y77.933 E2.41064
G1 X77.320 Y78.193 E2.42433
G1 X76.974 Y78.418 E2.43802
G1 X76.605 Y78.606 E2.45170
G1 X76.220 Y78.754 E2.46539
G1 X75.821 Y78.861 E2.47908
G1 X75.413 Y78.926 E2.49277
G1 X75.000 Y78.947 E2.50645
G1 X74.587 Y78.926 E2.52014
G1 X74.179 Y78.861 E2.53383
G1 X73.780 Y78.754 E2.54752
G1 X73.395 Y78.606 E2.56121
G1 X73.026 Y78.418 E2.57489
G1 X72.680 Y78.193 E2.58858
G1 X72.359 Y77.933 E2.60227
G1 X72.067 Y77.641 E2.61596
G1 X71.807 Y77.320 E2.62964
G1 X71.582 Y76.974 E2.64333
G1 X71.396 Y76.609 E2.65690
G1 X71.255 Y76.254 E2.66953
G1 X71.139 Y75.821 E2.68440
G1 X71.074 Y75.413 E2.69809
G1 X71.053 Y75.000 E2.71178
G1 X71.074 Y74.587 E2.72547
G1 X71.139 Y74.179 E2.73915
G1 X71.246 Y73.780 E2.75284
G1 X71.394 Y73.395 E2.76653
G1 X71.582 Y73.026 E2.78022
G1 X71.807 Y72.680 E2.79391
G1 X72.067 Y72.359 E2.80759
G1 X72.316 Y72.109 E2.81929
G1 X72.537 Y72.264 F7800.000
G1 F1800.000
G1 X72.836 Y72.022 E2.83206
G1 X73.159 Y71.812 E2.84482
G1 X73.503 Y71.637 E2.85759
G1 X73.862 Y71.499 E2.87035
G1 X74.235 Y71.399 E2.88312
G1 X74.615 Y71.339 E2.89589
G1 X75.000 Y71.319 E2.90865
G1 X75.385 Y71.339 E2.92142
G1 X75.765 Y71.399 E2.93418
G1 X76.171 Y71.508 E2.94808
G1 X76.499 Y71.638 E2.95980
G1 X76.841 Y71.812 E2.97248
G1 X77.164 Y72.022 E2.98525
G1 X77.463 Y72.264 E2.99802
G1 X77.736 Y72.537 E3.01078
G1 X77.978 Y72.836 E3.02355
G1 X78.188 Y73.159 E3.03631
G1 X78.363 Y73.503 E3.04908
G1 X78.501 Y73.862 E3.06184
G1 X78.601 Y74.235 E3.07461
G1 X78.661 Y74.615 E3.08737
G1 X78.681 Y75.000 E3.10014
G1 X78.661 Y75.385 E3.11290
G1 X78.601 Y75.765 E3.12567
G1 X78.501 Y76.138 E3.13844
G1 X78.363 Y76.497 E3.15120
G1 X78.188 Y76.841 E3.16397
G1 X77.978 Y77.164 E3.17673
G1 X77.736 Y77.463 E3.18950
G1 X77.463 Y77.736 E3.20226
G1 X77.164 Y77.978 E3.21503
G1 X76.841 Y78.188 E3.22779
G1 X76.497 Y78.363 E3.24056
G1 X76.138 Y78.501 E3.25332
G1 X75.765 Y78.601 E3.26609
G1 X75.385 Y78.661 E3.27886
G1 X75.000 Y78.681 E3.29162
G1 X74.615 Y78.661 E3.30439
G1 X74.235 Y78.601 E3.31715
G1 X73.862 Y78.501 E3.32992
G1 X73.503 Y78.363 E3.34268
G1 X73.159 Y78.188 E3.35545
G1 X72.836 Y77.978 E3.36821
G1 X72.537 Y77.736 E3.38098
G1 X72.264 Y77.463 E3.39374
G1 X72.022 Y77.164 E3.40651
G1 X71.812 Y76.841 E3.41927
G1 X71.638 Y76.499 E3.43196
G1 X71.508 Y76.171 E3.44368
G1 X71.399 Y75.765 E3.45758
G1 X71.339 Y75.385 E3.47034
G1 X71.319 Y75.000 E3.48311
G1 X71.339 Y74.615 E3.49587
G1 X71.399 Y74.235 E3.50864
G1 X71.499 Y73.862 E3.52140
G1 X71.637 Y73.503 E3.53417
G1 X71.812 Y73.159 E3.54694
G1 X72.022 Y72.836 E3.55970
G1 X72.264 Y72.537 E3.57247
G1 X72.494 Y72.307 E3.58324
G1 X72.715 Y72.462 F7800.000
G1 F1800.000
G1 X72.993 Y72.237 E3.59509
G1 X73.292 Y72.042 E3.60693
G1 X73.611 Y71.880 E3.61877
G1 X73.945 Y71.752 E3.63062
G1 X74.290 Y71.659 E3.64246
G1 X74.643 Y71.603 E3.65430
G1 X75.000 Y71.585 E3.66615
G1 X75.357 Y71.603 E3.67799
G1 X75.710 Y71.659 E3.68983
G1 X76.087 Y71.760 E3.70276
G1 X76.390 Y71.880 E3.71355
G1 X76.708 Y72.042 E3.72537
G1 X77.007 Y72.237 E3.73721
G1 X77.285 Y72.462 E3.74905
G1 X77.538 Y72.715 E3.76090
G1 X77.763 Y72.993 E3.77274
G1 X77.958 Y73.292 E3.78458
G1 X78.120 Y73.611 E3.79643
G1 X78.248 Y73.945 E3.80827
G1 X78.341 Y74.290 E3.82011
G1 X78.397 Y74.643 E3.83196
G1 X78.415 Y75.000 E3.84380
G1 X78.397 Y75.357 E3.85564
G1 X78.341 Y75.710 E3.86748
G1 X78.248 Y76.055 E3.87933
G1 X78.120 Y76.389 E3.89117
G1 X77.958 Y76.708 E3.90301
G1 X77.763 Y77.007 E3.91486
G1 X77.538 Y77.285 E3.92670
G1 X77.285 Y77.538 E3.93854
G1 X77.007 Y77.763 E3.95039
G1 X76.708 Y77.958 E3.96223
G1 X76.389 Y78.120 E3.97407
G1 X76.055 Y78.248 E3.98592
G1 X75.710 Y78.341 E3.99776
G1 X75.357 Y78.397 E4.00960
G1 X75.000 Y78.415 E4.02144
G1 X74.643 Y78.397 E4.03329
G1 X74.290 Y78.341 E4.04513
G1 X73.945 Y78.248 E4.05697
G1 X73.611 Y78.120 E4.06882
G1 X73.292 Y77.958 E4.08066
G1 X72.993 Y77.763 E4.09250
G1 X72.715 Y77.538 E4.10435
G1 X72.462 Y77.285 E4.11619
G1 X72.237 Y77.007 E4.12803
G1 X72.042 Y76.708 E4.13988
G1 X71.880 Y76.390 E4.15169
G1 X71.760 Y76.087 E4.16248
G1 X71.659 Y75.710 E4.17541
G1 X71.603 Y75.357 E4.18725
G1 X71.585 Y75.000 E4.19910
G1 X71.603 Y74.643 E4.21094
G1 X71.659 Y74.290 E4.22278
G1 X71.752 Y73.945 E4.23463
G1 X71.880 Y73.611 E4.24647
G1 X72.042 Y73.292 E4.25831
G1 X72.237 Y72.993 E4.27016
G1 X72.462 Y72.715 E4.28200
G1 X72.672 Y72.504 E4.29185
G1 X72.640 Y72.112 F7800.000
G1 X72.130 Y71.895 F7800.000
G1 F1800.000
G1 X72.377 Y71.684 E4.30263
G1 X72.797 Y71.391 E4.31957
G1 X73.074 Y71.236 E4.33012
G1 X73.537 Y71.034 E4.34683
G1 X74.020 Y70.887 E4.36355
G1 X74.339 Y70.824 E4.37432
G1 X74.661 Y70.786 E4.38510
G1 X75.173 Y70.776 E4.40204
G1 X75.490 Y70.801 E4.41259
G1 X75.987 Y70.889 E4.42930
G1 X76.470 Y71.036 E4.44602
G1 X76.764 Y71.158 E4.45657
G1 X77.215 Y71.399 E4.47351
G1 X77.485 Y71.579 E4.48428
G1 X77.741 Y71.781 E4.49505
G1 X78.109 Y72.135 E4.51200
G1 X78.316 Y72.377 E4.52254
G1 X78.608 Y72.797 E4.53949
G1 X78.764 Y73.074 E4.55003
G1 X78.966 Y73.537 E4.56675
G1 X79.113 Y74.020 E4.58347
G1 X79.176 Y74.339 E4.59424
G1 X79.214 Y74.661 E4.60501
G1 X79.224 Y75.173 E4.62196
G1 X79.199 Y75.490 E4.63250
G1 X79.111 Y75.987 E4.64922
G1 X78.964 Y76.470 E4.66594
G1 X78.842 Y76.764 E4.67648
G1 X78.601 Y77.215 E4.69343
G1 X78.421 Y77.485 E4.70420
G1 X78.219 Y77.741 E4.71497
G1 X77.865 Y78.109 E4.73192
G1 X77.623 Y78.316 E4.74246
G1 X77.203 Y78.608 E4.75941
G1 X76.926 Y78.764 E4.76995
G1 X76.463 Y78.966 E4.78667
G1 X75.980 Y79.113 E4.80339
G1 X75.661 Y79.176 E4.81416
G1 X75.339 Y79.214 E4.82493
G1 X74.827 Y79.224 E4.84188
G1 X74.510 Y79.199 E4.85242
G1 X74.013 Y79.111 E4.86914
G1 X73.530 Y78.964 E4.88586
G1 X73.236 Y78.842 E4.89640
G1 X72.785 Y78.601 E4.91335
G1 X72.515 Y78.421 E4.92412
G1 X72.259 Y78.219 E4.93489
G1 X71.891 Y77.865 E4.95184
G1 X71.684 Y77.623 E4.96238
G1 X71.392 Y77.203 E4.97933
G1 X71.236 Y76.926 E4.98987
G1 X71.034 Y76.463 E5.00659
G1 X70.887 Y75.980 E5.02331
G1 X70.824 Y75.661 E5.03408
G1 X70.786 Y75.339 E5.04485
G1 X70.776 Y74.827 E5.06179
G1 X70.801 Y74.510 E5.07234
G1 X70.889 Y74.013 E5.08906
G1 X71.036 Y73.530 E5.10578
G1 X71.158 Y73.236 E5.11632
G1 X71.399 Y72.785 E5.13327
G1 X71.575 Y72.520 E5.14381
G1 X71.900 Y72.125 E5.16076
G1 X72.087 Y71.938 E5.16954
G1 X71.949 Y71.700 F7800.000
G1 F1800.000
G1 X72.215 Y71.473 E5.18109
G1 X72.656 Y71.166 E5.19890
G1 X72.956 Y70.998 E5.21031
G1 X73.445 Y70.784 E5.22798
G1 X73.955 Y70.629 E5.24565
G1 X74.297 Y70.561 E5.25720
G1 X74.643 Y70.520 E5.26875
G1 X75.181 Y70.510 E5.28656
G1 X75.524 Y70.537 E5.29797
G1 X76.049 Y70.631 E5.31563
G1 X76.559 Y70.785 E5.33330
G1 X76.878 Y70.917 E5.34471
G1 X77.352 Y71.171 E5.36252
G1 X77.642 Y71.364 E5.37407
G1 X77.915 Y71.580 E5.38562
G1 X78.303 Y71.953 E5.40343
G1 X78.527 Y72.215 E5.41484
G1 X78.834 Y72.656 E5.43265
G1 X79.002 Y72.956 E5.44406
G1 X79.216 Y73.445 E5.46173
G1 X79.371 Y73.955 E5.47940
G1 X79.439 Y74.297 E5.49095
G1 X79.480 Y74.643 E5.50250
G1 X79.490 Y75.181 E5.52031
G1 X79.463 Y75.524 E5.53172
G1 X79.369 Y76.049 E5.54939
G1 X79.215 Y76.559 E5.56706
G1 X79.083 Y76.878 E5.57847
G1 X78.829 Y77.352 E5.59628
G1 X78.636 Y77.642 E5.60783
G1 X78.420 Y77.915 E5.61938
G1 X78.047 Y78.303 E5.63719
G1 X77.785 Y78.527 E5.64859
G1 X77.344 Y78.834 E5.66640
G1 X77.044 Y79.002 E5.67781
G1 X76.555 Y79.216 E5.69548
G1 X76.045 Y79.371 E5.71315
G1 X75.703 Y79.439 E5.72470
G1 X75.357 Y79.480 E5.73625
G1 X74.819 Y79.490 E5.75406
G1 X74.476 Y79.463 E5.76547
G1 X73.951 Y79.369 E5.78314
G1 X73.441 Y79.215 E5.80081
G1 X73.122 Y79.083 E5.81222
G1 X72.648 Y78.829 E5.83003
G1 X72.358 Y78.636 E5.84158
G1 X72.085 Y78.420 E5.85313
G1 X71.697 Y78.047 E5.87094
G1 X71.473 Y77.785 E5.88235
G1 X71.166 Y77.344 E5.90016
G1 X70.998 Y77.044 E5.91157
G1 X70.784 Y76.555 E5.92924
G1 X70.629 Y76.045 E5.94690
G1 X70.561 Y75.703 E5.95845
G1 X70.520 Y75.357 E5.97000
G1 X70.510 Y74.819 E5.98781
G1 X70.537 Y74.476 E5.99922
G1 X70.631 Y73.951 E6.01689
G1 X70.785 Y73.441 E6.03456
G1 X70.917 Y73.122 E6.04597
G1 X71.171 Y72.648 E6.06378
G1 X71.362 Y72.362 E6.07519
G1 X71.703 Y71.946 E6.09300
G1 X71.907 Y71.742 E6.10256
G1 X71.769 Y71.505 F7800.000
G1 F1800.000
G1 X72.052 Y71.263 E6.11489
G1 X72.514 Y70.941 E6.13356
G1 X72.838 Y70.760 E6.14584
G1 X73.353 Y70.534 E6.16446
G1 X73.890 Y70.371 E6.18308
G1 X74.255 Y70.299 E6.19541
G1 X74.625 Y70.255 E6.20774
G1 X75.188 Y70.244 E6.22641
G1 X75.558 Y70.273 E6.23868
G1 X76.111 Y70.372 E6.25730
G1 X76.649 Y70.535 E6.27592
G1 X76.991 Y70.677 E6.28820
G1 X77.488 Y70.942 E6.30687
G1 X77.798 Y71.149 E6.31920
G1 X78.090 Y71.380 E6.33153
G1 X78.496 Y71.770 E6.35020
G1 X78.737 Y72.052 E6.36248
G1 X79.059 Y72.514 E6.38115
G1 X79.240 Y72.838 E6.39343
G1 X79.466 Y73.353 E6.41205
G1 X79.629 Y73.890 E6.43067
G1 X79.701 Y74.255 E6.44299
G1 X79.745 Y74.625 E6.45532
G1 X79.756 Y75.188 E6.47400
G1 X79.727 Y75.558 E6.48627
G1 X79.628 Y76.111 E6.50489
G1 X79.465 Y76.649 E6.52351
G1 X79.323 Y76.991 E6.53579
G1 X79.058 Y77.488 E6.55446
G1 X78.851 Y77.798 E6.56679
G1 X78.620 Y78.090 E6.57912
G1 X78.230 Y78.496 E6.59779
G1 X77.948 Y78.737 E6.61006
G1 X77.486 Y79.059 E6.62874
G1 X77.162 Y79.240 E6.64101
G1 X76.647 Y79.466 E6.65963
G1 X76.110 Y79.629 E6.67825
G1 X75.745 Y79.701 E6.69058
G1 X75.375 Y79.745 E6.70291
G1 X74.812 Y79.756 E6.72158
G1 X74.442 Y79.727 E6.73386
G1 X73.889 Y79.628 E6.75248
G1 X73.351 Y79.465 E6.77110
G1 X73.009 Y79.323 E6.78337
G1 X72.512 Y79.058 E6.80205
G1 X72.202 Y78.851 E6.81437
G1 X71.910 Y78.620 E6.82670
G1 X71.504 Y78.230 E6.84538
G1 X71.263 Y77.948 E6.85765
G1 X70.941 Y77.486 E6.87632
G1 X70.760 Y77.162 E6.88860
G1 X70.534 Y76.647 E6.90722
G1 X70.371 Y76.110 E6.92584
G1 X70.299 Y75.745 E6.93817
G1 X70.255 Y75.375 E6.95050
G1 X70.244 Y74.812 E6.96917
G1 X70.273 Y74.442 E6.98144
G1 X70.372 Y73.889 E7.00006
G1 X70.535 Y73.351 E7.01868
G1 X70.677 Y73.009 E7.03096
G1 X70.942 Y72.512 E7.04963
G1 X71.148 Y72.204 E7.06191
G1 X71.506 Y71.768 E7.08058
G1 X71.727 Y71.547 E7.09092
G1 X72.125 Y71.613 F7800.000
M106 S255
G1 Z0.500 F7800.000
G1 X72.372 Y72.081 F7800.000
G1 F933.404
G1 X72.691 Y71.822 E7.10860
G1 X73.036 Y71.598 E7.12628
G1 X73.402 Y71.412 E7.14395
G1 X73.786 Y71.264 E7.16163
G1 X74.183 Y71.158 E7.17931
G1 X74.589 Y71.094 E7.19699
G1 X75.000 Y71.072 E7.21466
G1 X75.411 Y71.094 E7.23234
G1 X75.817 Y71.158 E7.25002
G1 X76.214 Y71.264 E7.26770
G1 X76.598 Y71.412 E7.28537
G1 X76.964 Y71.598 E7.30305
G1 X77.309 Y71.822 E7.32073
G1 X77.628 Y72.081 E7.33841
G1 X77.919 Y72.372 E7.35609
G1 X78.178 Y72.691 E7.37376
G1 X78.402 Y73.036 E7.39144
G1 X78.588 Y73.402 E7.40912
G1 X78.736 Y73.786 E7.42680
G1 X78.842 Y74.183 E7.44447
G1 X78.906 Y74.589 E7.46215
G1 X78.928 Y75.000 E7.47983
G1 X78.906 Y75.411 E7.49751
G1 X78.842 Y75.817 E7.51518
G1 X78.736 Y76.214 E7.53286
G1 X78.588 Y76.598 E7.55054
G1 X78.402 Y76.964 E7.56822
G1 X78.178 Y77.309 E7.58589
G1 X77.919 Y77.628 E7.60357
G1 X77.628 Y77.919 E7.62125
G1 X77.309 Y78.178 E7.63893
G1 X76.964 Y78.402 E7.65660
G1 X76.598 Y78.588 E7.67428
G1 X76.214 Y78.736 E7.69196
G1 X75.817 Y78.842 E7.70964
G1 X75.411 Y78.906 E7.72732
G1 X75.000 Y78.928 E7.74499
G1 X74.589 Y78.906 E7.76267
G1 X74.183 Y78.842 E7.78035
G1 X73.786 Y78.736 E7.79803
G1 X73.402 Y78.588 E7.81570
G1 X73.036 Y78.402 E7.83338
G1 X72.691 Y78.178 E7.85106
G1 X72.372 Y77.919 E7.86874
G1 X72.081 Y77.628 E7.88641
G1 X71.822 Y77.309 E7.90409
G1 X71.598 Y76.964 E7.92177
G1 X71.412 Y76.598 E7.93945
G1 X71.264 Y76.214 E7.95712
G1 X71.158 Y75.817 E7.97480
G1 X71.094 Y75.411 E7.99248
G1 X71.072 Y75.000 E8.01016
G1 X71.094 Y74.589 E8.02783
G1 X71.158 Y74.183 E8.04551
G1 X71.264 Y73.786 E8.06319
G1 X71.412 Y73.402 E8.08087
G1 X71.598 Y73.036 E8.09855
G1 X71.822 Y72.691 E8.11622
G1 X72.081 Y72.372 E8.13390
G1 X72.329 Y72.123 E8.14900
G1 X72.678 Y72.421 F7800.000
G1 F1800.000
G1 X72.960 Y72.192 E8.16099
G1 X73.265 Y71.995 E8.17298
G1 X73.589 Y71.830 E8.18498
G1 X73.928 Y71.700 E8.19697
G1 X74.278 Y71.606 E8.20896
G1 X74.637 Y71.549 E8.22096
G1 X75.000 Y71.530 E8.23295
G1 X75.363 Y71.549 E8.24494
G1 X75.722 Y71.606 E8.25694
G1 X76.072 Y71.700 E8.26893
G1 X76.411 Y71.830 E8.28092
G1 X76.735 Y71.995 E8.29292
G1 X77.040 Y72.192 E8.30491
G1 X77.322 Y72.421 E8.31690
G1 X77.579 Y72.678 E8.32890
G1 X77.808 Y72.960 E8.34089
G1 X78.005 Y73.265 E8.35288
G1 X78.170 Y73.589 E8.36488
G1 X78.300 Y73.928 E8.37687
G1 X78.394 Y74.278 E8.38886
G1 X78.451 Y74.637 E8.40086
G1 X78.470 Y75.000 E8.41285
G1 X78.451 Y75.363 E8.42484
G1 X78.394 Y75.722 E8.43684
G1 X78.300 Y76.072 E8.44883
G1 X78.170 Y76.411 E8.46082
G1 X78.005 Y76.735 E8.47282
G1 X77.808 Y77.040 E8.48481
G1 X77.579 Y77.322 E8.49680
G1 X77.322 Y77.579 E8.50880
G1 X77.040 Y77.808 E8.52079
G1 X76.735 Y78.005 E8.53278
G1 X76.411 Y78.170 E8.54478
G1 X76.072 Y78.300 E8.55677
G1 X75.722 Y78.394 E8.56876
G1 X75.363 Y78.451 E8.58076
G1 X75.000 Y78.470 E8.59275
G1 X74.637 Y78.451 E8.60474
G1 X74.278 Y78.394 E8.61674
G1 X73.928 Y78.300 E8.62873
G1 X73.589 Y78.170 E8.64072
G1 X73.265 Y78.005 E8.65272
G1 X72.960 Y77.808 E8.66471
G1 X72.678 Y77.579 E8.67670
G1 X72.421 Y77.322 E8.68870
G1 X72.192 Y77.040 E8.70069
G1 X71.995 Y76.735 E8.71268
G1 X71.830 Y76.411 E8.72468
G1 X71.700 Y76.072 E8.73667
G1 X71.606 Y75.722 E8.74866
G1 X71.549 Y75.363 E8.76066
G1 X71.530 Y75.000 E8.77265
G1 X71.549 Y74.637 E8.78464
G1 X71.606 Y74.278 E8.79664
G1 X71.700 Y73.928 E8.80863
G1 X71.830 Y73.589 E8.82062
G1 X71.995 Y73.265 E8.83262
G1 X72.192 Y72.960 E8.84461
G1 X72.421 Y72.678 E8.85660
G1 X72.635 Y72.463 E8.86662
G1 X72.602 Y72.066 F7800.000
G1 X72.117 Y71.881 F7800.000
G1 F933.404
G1 X72.365 Y71.669 E8.88067
G1 X72.787 Y71.375 E8.90274
G1 X73.066 Y71.219 E8.91651
G1 X73.530 Y71.016 E8.93829
G1 X74.015 Y70.869 E8.96008
G1 X74.336 Y70.805 E8.97413
G1 X74.660 Y70.766 E8.98818
G1 X75.173 Y70.756 E9.01025
G1 X75.493 Y70.782 E9.02402
G1 X75.991 Y70.871 E9.04581
G1 X76.476 Y71.018 E9.06759
G1 X76.772 Y71.140 E9.08136
G1 X77.225 Y71.382 E9.10343
G1 X77.497 Y71.564 E9.11748
G1 X77.753 Y71.766 E9.13153
G1 X78.123 Y72.122 E9.15361
G1 X78.331 Y72.365 E9.16737
G1 X78.625 Y72.787 E9.18944
G1 X78.781 Y73.066 E9.20321
G1 X78.984 Y73.530 E9.22499
G1 X79.131 Y74.015 E9.24678
G1 X79.195 Y74.336 E9.26083
G1 X79.234 Y74.660 E9.27489
G1 X79.244 Y75.173 E9.29696
G1 X79.218 Y75.493 E9.31072
G1 X79.129 Y75.991 E9.33251
G1 X78.982 Y76.476 E9.35429
G1 X78.860 Y76.772 E9.36806
G1 X78.618 Y77.225 E9.39013
G1 X78.436 Y77.497 E9.40418
G1 X78.234 Y77.753 E9.41824
G1 X77.878 Y78.123 E9.44031
G1 X77.635 Y78.331 E9.45408
G1 X77.213 Y78.625 E9.47615
G1 X76.934 Y78.781 E9.48991
G1 X76.470 Y78.984 E9.51170
