; generated by Slic3r 1.3.1-dev (Build adea0d9) on 2020-03-12 at 20:44:52

; external perimeters extrusion width = 0.44mm (2.86mm^3/s)
; perimeters extrusion width = 0.56mm (4.14mm^3/s)
; infill extrusion width = 0.50mm (3.66mm^3/s)
; solid infill extrusion width = 0.56mm (3.10mm^3/s)
; top infill extrusion width = 0.56mm (3.10mm^3/s)

M107
G92 E0
;D3D:START:START
T0
M104 S215 T0

G21
G90
M107
T0
G28
G29
M109 T0 S215 T0
G0 F3000
M107
T0
G92 E0
G0 X0 Y149 Z0.1 F3600
G1 Y49 E6.5 F1200
G0 Z1
G92 E0
; Filament gcode

G21 ; set units to millimeters
G90 ; use absolute coordinates
M82 ; use absolute distances for extrusion
G92 E0
G1 Z0.300 F7800.000
G1 E-2.00000 F2400.00000
G92 E0
G1 X68.696 Y65.696 F7800.000
G1 E2.00000 F2400.00000
G1 F1800.000
G1 X81.304 Y65.696 E2.41768
G1 X81.304 Y84.304 E3.03414
G1 X68.696 Y84.304 E3.45182
G1 X68.696 Y65.756 E4.06629
G1 X68.431 Y65.431 F7800.000
G1 F1800.000
G1 X81.569 Y65.431 E4.50157
G1 X81.569 Y84.569 E5.13563
G1 X68.431 Y84.569 E5.57091
G1 X68.431 Y65.491 E6.20298
G1 X68.165 Y65.165 F7800.000
G1 F1800.000
G1 X81.835 Y65.165 E6.65586
G1 X81.835 Y84.835 E7.30752
G1 X68.165 Y84.835 E7.76040
G1 X68.165 Y65.225 E8.41007
G1 X68.545 Y65.291 F7800.000
G1 X69.065 Y65.859 F7800.000
G1 F1800.000
G1 X68.859 Y66.065 E8.41979
G1 X68.859 Y66.442 E8.43232
G1 X69.442 Y65.859 E8.45976
G1 X69.819 Y65.859 E8.47229
G1 X68.859 Y66.819 E8.51745
G1 X68.859 Y67.196 E8.52998
G1 X70.196 Y65.859 E8.59286
G1 X70.573 Y65.859 E8.60539
G1 X68.859 Y67.573 E8.68598
G1 X68.859 Y67.950 E8.69851
G1 X70.950 Y65.859 E8.79682
G1 X71.327 Y65.859 E8.80935
G1 X68.859 Y68.327 E8.92538
G1 X68.859 Y68.704 E8.93791
G1 X71.704 Y65.859 E9.07166
G1 X72.081 Y65.859 E9.08419
G1 X68.859 Y69.081 E9.23566
G1 X68.859 Y69.458 E9.24819
G1 X72.458 Y65.859 E9.41737
G1 X72.834 Y65.859 E9.42990
G1 X68.859 Y69.834 E9.61681
G1 X68.859 Y70.211 E9.62933
G1 X73.211 Y65.859 E9.83396
G1 X73.588 Y65.859 E9.84648
G1 X68.859 Y70.588 E10.06882
G1 X68.859 Y70.965 E10.08135
G1 X73.965 Y65.859 E10.32141
G1 X74.342 Y65.859 E10.33394
G1 X68.859 Y71.342 E10.59172
G1 X68.859 Y71.719 E10.60424
G1 X74.719 Y65.859 E10.87974
G1 X75.096 Y65.859 E10.89227
G1 X68.859 Y72.096 E11.18548
G1 X68.859 Y72.473 E11.19801
G1 X75.473 Y65.859 E11.50894
G1 X75.850 Y65.859 E11.52147
G1 X68.859 Y72.850 E11.85011
G1 X68.859 Y73.227 E11.86264
G1 X76.227 Y65.859 E12.20901
G1 X76.603 Y65.859 E12.22154
G1 X68.859 Y73.603 E12.58562
G1 X68.859 Y73.980 E12.59815
G1 X76.980 Y65.859 E12.97995
G1 X77.357 Y65.859 E12.99248
G1 X68.859 Y74.357 E13.39200
G1 X68.859 Y74.734 E13.40453
G1 X77.734 Y65.859 E13.82177
G1 X78.111 Y65.859 E13.83430
G1 X68.859 Y75.111 E14.26925
G1 X68.859 Y75.488 E14.28178
G1 X78.488 Y65.859 E14.73445
G1 X78.865 Y65.859 E14.74698
G1 X68.859 Y75.865 E15.21738
G1 X68.859 Y76.242 E15.22990
G1 X79.242 Y65.859 E15.71801
G1 X79.619 Y65.859 E15.73054
G1 X68.859 Y76.619 E16.23637
G1 X68.859 Y76.996 E16.24890
G1 X79.996 Y65.859 E16.77245
G1 X80.372 Y65.859 E16.78498
G1 X68.859 Y77.372 E17.32624
G1 X68.859 Y77.749 E17.33877
G1 X80.749 Y65.859 E17.89775
G1 X81.126 Y65.859 E17.91028
G1 X68.859 Y78.126 E18.48698
G1 X68.859 Y78.503 E18.49951
G1 X81.141 Y66.220 E19.07692
G1 X81.141 Y66.597 E19.08945
G1 X68.859 Y78.880 E19.66686
G1 X68.859 Y79.257 E19.67939
G1 X81.141 Y66.974 E20.25681
G1 X81.141 Y67.351 E20.26934
G1 X68.859 Y79.634 E20.84675
G1 X68.859 Y80.011 E20.85928
G1 X81.141 Y67.728 E21.43669
G1 X81.141 Y68.105 E21.44922
G1 X68.859 Y80.388 E22.02664
G1 X68.859 Y80.765 E22.03916
G1 X81.141 Y68.482 E22.61658
G1 X81.141 Y68.859 E22.62911
G1 X68.859 Y81.142 E23.20652
G1 X68.859 Y81.518 E23.21905
G1 X81.141 Y69.235 E23.79646
G1 X81.141 Y69.612 E23.80899
G1 X68.859 Y81.895 E24.38641
G1 X68.859 Y82.272 E24.39893
G1 X81.141 Y69.989 E24.97635
G1 X81.141 Y70.366 E24.98888
G1 X68.859 Y82.649 E25.56629
G1 X68.859 Y83.026 E25.57882
G1 X81.141 Y70.743 E26.15623
G1 X81.141 Y71.120 E26.16876
G1 X68.859 Y83.403 E26.74618
G1 X68.859 Y83.780 E26.75870
G1 X81.141 Y71.497 E27.33612
G1 X81.141 Y71.874 E27.34865
G1 X68.874 Y84.141 E27.92534
G1 X69.251 Y84.141 E27.93787
G1 X81.141 Y72.251 E28.49685
G1 X81.141 Y72.628 E28.50938
G1 X69.628 Y84.141 E29.05064
G1 X70.005 Y84.141 E29.06317
G1 X81.141 Y73.005 E29.58671
G1 X81.141 Y73.381 E29.59924
G1 X70.381 Y84.141 E30.10506
G1 X70.758 Y84.141 E30.11759
G1 X81.141 Y73.758 E30.60569
G1 X81.141 Y74.135 E30.61822
G1 X71.135 Y84.141 E31.08861
G1 X71.512 Y84.141 E31.10114
G1 X81.141 Y74.512 E31.55381
G1 X81.141 Y74.889 E31.56634
G1 X71.889 Y84.141 E32.00129
G1 X72.266 Y84.141 E32.01382
G1 X81.141 Y75.266 E32.43105
G1 X81.141 Y75.643 E32.44358
G1 X72.643 Y84.141 E32.84310
G1 X73.020 Y84.141 E32.85562
G1 X81.141 Y76.020 E33.23742
G1 X81.141 Y76.397 E33.24995
G1 X73.397 Y84.141 E33.61403
G1 X73.774 Y84.141 E33.62656
G1 X81.141 Y76.774 E33.97292
G1 X81.141 Y77.150 E33.98545
G1 X74.150 Y84.141 E34.31409
G1 X74.527 Y84.141 E34.32662
G1 X81.141 Y77.527 E34.63755
G1 X81.141 Y77.904 E34.65007
G1 X74.904 Y84.141 E34.94328
G1 X75.281 Y84.141 E34.95581
G1 X81.141 Y78.281 E35.23130
G1 X81.141 Y78.658 E35.24383
G1 X75.658 Y84.141 E35.50160
G1 X76.035 Y84.141 E35.51413
G1 X81.141 Y79.035 E35.75418
G1 X81.141 Y79.412 E35.76671
G1 X76.412 Y84.141 E35.98905
G1 X76.789 Y84.141 E36.00157
G1 X81.141 Y79.789 E36.20619
G1 X81.141 Y80.166 E36.21872
G1 X77.166 Y84.141 E36.40562
G1 X77.543 Y84.141 E36.41815
G1 X81.141 Y80.543 E36.58733
G1 X81.141 Y80.919 E36.59986
G1 X77.919 Y84.141 E36.75132
G1 X78.296 Y84.141 E36.76385
G1 X81.141 Y81.296 E36.89760
G1 X81.141 Y81.673 E36.91012
G1 X78.673 Y84.141 E37.02615
G1 X79.050 Y84.141 E37.03868
G1 X81.141 Y82.050 E37.13699
G1 X81.141 Y82.427 E37.14952
G1 X79.427 Y84.141 E37.23011
G1 X79.804 Y84.141 E37.24264
G1 X81.141 Y82.804 E37.30551
G1 X81.141 Y83.181 E37.31804
G1 X80.181 Y84.141 E37.36319
G1 X80.558 Y84.141 E37.37572
G1 X81.141 Y83.558 E37.40316
G1 X81.141 Y83.935 E37.41569
G1 X80.935 Y84.141 E37.42541
M106 S255
G1 Z0.500 F7800.000
G1 E35.42541 F2400.00000
G92 E0
G1 X69.194 Y66.194 F7800.000
G1 E2.00000 F2400.00000
G1 F2400.000
G1 X80.806 Y66.194 E2.49925
G1 X80.806 Y83.806 E3.25647
G1 X69.194 Y83.806 E3.75572
G1 X69.194 Y66.254 E4.51036
G1 X68.677 Y65.677 F7800.000
G1 F2400.000
G1 X81.323 Y65.677 E5.05407
G1 X81.323 Y84.323 E5.85576
G1 X68.677 Y84.323 E6.39947
G1 X68.677 Y65.737 E7.19857
G1 X68.220 Y65.220 F7800.000
G1 F2160.000
G1 X81.780 Y65.220 E7.64629
G1 X81.780 Y84.780 E8.29211
G1 X68.220 Y84.780 E8.73982
G1 X68.220 Y65.280 E9.38366
G1 X68.599 Y65.346 F7800.000
G1 E7.38366 F2400.00000
G92 E0
G1 X80.490 Y66.912 F7800.000
G1 E2.00000 F2400.00000
G1 F1800.000
G1 X80.088 Y66.510 E2.02455
G1 X79.354 Y66.510 E2.05622
G1 X80.490 Y67.646 E2.12556
G1 X80.490 Y68.380 E2.15723
G1 X78.620 Y66.510 E2.27136
G1 X77.886 Y66.510 E2.30303
G1 X80.490 Y69.114 E2.46194
G1 X80.490 Y69.848 E2.49361
G1 X77.152 Y66.510 E2.69731
G1 X76.418 Y66.510 E2.72898
G1 X80.490 Y70.582 E2.97747
G1 X80.490 Y71.316 E3.00914
G1 X75.684 Y66.510 E3.30242
G1 X74.950 Y66.510 E3.33409
G1 X80.490 Y72.050 E3.67215
G1 X80.490 Y72.784 E3.70382
G1 X74.216 Y66.510 E4.08667
G1 X73.482 Y66.510 E4.11834
G1 X80.490 Y73.518 E4.54598
G1 X80.490 Y74.252 E4.57765
G1 X72.748 Y66.510 E5.05007
G1 X72.014 Y66.510 E5.08174
G1 X80.490 Y74.986 E5.59896
G1 X80.490 Y75.719 E5.63063
G1 X71.281 Y66.510 E6.19263
G1 X70.547 Y66.510 E6.22430
G1 X80.490 Y76.453 E6.83108
G1 X80.490 Y77.187 E6.86275
G1 X69.813 Y66.510 E7.51433
G1 X69.510 Y66.510 E7.52739
G1 X69.510 Y66.941 E7.54600
G1 X80.490 Y77.921 E8.21604
G1 X80.490 Y78.655 E8.24771
G1 X69.510 Y67.675 E8.91775
G1 X69.510 Y68.409 E8.94942
G1 X80.490 Y79.389 E9.61946
G1 X80.490 Y80.123 E9.65113
G1 X69.510 Y69.143 E10.32118
G1 X69.510 Y69.877 E10.35285
G1 X80.490 Y80.857 E11.02289
G1 X80.490 Y81.591 E11.05456
G1 X69.510 Y70.611 E11.72460
G1 X69.510 Y71.345 E11.75627
G1 X80.490 Y82.325 E12.42631
G1 X80.490 Y83.059 E12.45798
G1 X69.510 Y72.079 E13.12803
G1 X69.510 Y72.813 E13.15970
G1 X80.187 Y83.490 E13.81127
G1 X79.453 Y83.490 E13.84294
G1 X69.510 Y73.547 E14.44973
G1 X69.510 Y74.281 E14.48140
G1 X78.719 Y83.490 E15.04340
G1 X77.986 Y83.490 E15.07507
G1 X69.510 Y75.014 E15.59228
G1 X69.510 Y75.748 E15.62395
G1 X77.252 Y83.490 E16.09638
G1 X76.518 Y83.490 E16.12805
G1 X69.510 Y76.482 E16.55569
G1 X69.510 Y77.216 E16.58736
G1 X75.784 Y83.490 E16.97021
G1 X75.050 Y83.490 E17.00188
G1 X69.510 Y77.950 E17.33994
G1 X69.510 Y78.684 E17.37161
G1 X74.316 Y83.490 E17.66489
G1 X73.582 Y83.490 E17.69656
G1 X69.510 Y79.418 E17.94505
G1 X69.510 Y80.152 E17.97672
G1 X72.848 Y83.490 E18.18042
G1 X72.114 Y83.490 E18.21209
G1 X69.510 Y80.886 E18.37101
G1 X69.510 Y81.620 E18.40268
G1 X71.380 Y83.490 E18.51681
G1 X70.646 Y83.490 E18.54848
G1 X69.510 Y82.354 E18.61782
G1 X69.510 Y83.088 E18.64949
G1 X69.912 Y83.490 E18.67403
G1 Z0.700 F7800.000
G1 E16.67403 F2400.00000
G92 E0
G1 X69.194 Y66.194 F7800.000
G1 E2.00000 F2400.00000
G1 F2400.000
G1 X80.806 Y66.194 E2.49925
G1 X80.806 Y83.806 E3.25647
G1 X69.194 Y83.806 E3.75572
G1 X69.194 Y66.254 E4.51036
G1 X68.677 Y65.677 F7800.000
G1 F2400.000
G1 X81.323 Y65.677 E5.05407
G1 X81.323 Y84.323 E5.85576
G1 X68.677 Y84.323 E6.39947
G1 X68.677 Y65.737 E7.19857
G1 X68.220 Y65.220 F7800.000
G1 F2160.000
G1 X81.780 Y65.220 E7.64629
G1 X81.780 Y84.780 E8.29211
G1 X68.220 Y84.780 E8.73982
G1 X68.220 Y65.280 E9.38366
G1 X68.599 Y65.346 F7800.000
G1 E7.38366 F2400.00000
G92 E0
G1 X69.510 Y66.912 F7800.000
G1 E2.00000 F2400.00000
G1 F1800.000
G1 X69.912 Y66.510 E2.02454
G1 X70.646 Y66.510 E2.05621
G1 X69.510 Y67.646 E2.12555
G1 X69.510 Y68.380 E2.15722
G1 X71.380 Y66.510 E2.27135
G1 X72.114 Y66.510 E2.30302
G1 X69.510 Y69.114 E2.46194
G1 X69.510 Y69.848 E2.49361
G1 X72.848 Y66.510 E2.69731
G1 X73.582 Y66.510 E2.72898
G1 X69.510 Y70.582 E2.97747
G1 X69.510 Y71.316 E3.00914
G1 X74.316 Y66.510 E3.30242
G1 X75.050 Y66.510 E3.33409
G1 X69.510 Y72.050 E3.67215
G1 X69.510 Y72.784 E3.70382
G1 X75.784 Y66.510 E4.08667
G1 X76.518 Y66.510 E4.11834
G1 X69.510 Y73.518 E4.54598
G1 X69.510 Y74.252 E4.57765
G1 X77.252 Y66.510 E5.05008
G1 X77.986 Y66.510 E5.08175
G1 X69.510 Y74.986 E5.59896
G1 X69.510 Y75.719 E5.63063
G1 X78.719 Y66.510 E6.19263
G1 X79.453 Y66.510 E6.22430
G1 X69.510 Y76.453 E6.83109
G1 X69.510 Y77.187 E6.86276
G1 X80.187 Y66.510 E7.51433
G1 X80.490 Y66.510 E7.52739
G1 X80.490 Y66.941 E7.54600
G1 X69.510 Y77.921 E8.21605
G1 X69.510 Y78.655 E8.24772
G1 X80.490 Y67.675 E8.91776
G1 X80.490 Y68.409 E8.94943
G1 X69.510 Y79.389 E9.61947
G1 X69.510 Y80.123 E9.65114
G1 X80.490 Y69.143 E10.32118
G1 X80.490 Y69.877 E10.35285
G1 X69.510 Y80.857 E11.02289
G1 X69.510 Y81.591 E11.05456
G1 X80.490 Y70.611 E11.72461
G1 X80.490 Y71.345 E11.75628
G1 X69.510 Y82.325 E12.42632
G1 X69.510 Y83.059 E12.45799
G1 X80.490 Y72.079 E13.12803
G1 X80.490 Y72.813 E13.15970
G1 X69.813 Y83.490 E13.81127
G1 X70.547 Y83.490 E13.84294
G1 X80.490 Y73.547 E14.44973
G1 X80.490 Y74.281 E14.48140
G1 X71.281 Y83.490 E15.04340
G1 X72.014 Y83.490 E15.07507
G1 X80.490 Y75.014 E15.59228
G1 X80.490 Y75.748 E15.62395
G1 X72.748 Y83.490 E16.09638
G1 X73.482 Y83.490 E16.12805
G1 X80.490 Y76.482 E16.55569
G1 X80.490 Y77.216 E16.58736
G1 X74.216 Y83.490 E16.97021
G1 X74.950 Y83.490 E17.00188
G1 X80.490 Y77.950 E17.33994
G1 X80.490 Y78.684 E17.37161
G1 X75.684 Y83.490 E17.66489
G1 X76.418 Y83.490 E17.69656
G1 X80.490 Y79.418 E17.94505
G1 X80.490 Y80.152 E17.97671
G1 X77.152 Y83.490 E18.18042
G1 X77.886 Y83.490 E18.21209
G1 X80.490 Y80.886 E18.37100
G1 X80.490 Y81.620 E18.40267
G1 X78.620 Y83.490 E18.51680
G1 X79.354 Y83.490 E18.54847
G1 X80.490 Y82.354 E18.61781
G1 X80.490 Y83.088 E18.64948
G1 X80.088 Y83.490 E18.67403
G1 Z0.900 F7800.000
G1 E16.67403 F2400.00000
G92 E0
G1 X69.194 Y66.194 F7800.000
G1 E2.00000 F2400.00000
G1 F2400.000
G1 X80.806 Y66.194 E2.49925
G1 X80.806 Y83.806 E3.25647
G1 X69.194 Y83.806 E3.75572
G1 X69.194 Y66.254 E4.51036
G1 X68.677 Y65.677 F7800.000
G1 F2400.000
G1 X81.323 Y65.677 E5.05407
G1 X81.323 Y84.323 E5.85576
G1 X68.677 Y84.323 E6.39947
G1 X68.677 Y65.737 E7.19857
G1 X68.220 Y65.220 F7800.000
G1 F2160.000
G1 X81.780 Y65.220 E7.64629
G1 X81.780 Y84.780 E8.29211
G1 X68.220 Y84.780 E8.73982
G1 X68.220 Y65.280 E9.38366
G1 X68.599 Y65.346 F7800.000
G1 E7.38366 F2400.00000
G92 E0
G1 X80.490 Y66.912 F7800.000
G1 E2.00000 F2400.00000
G1 F1800.000
G1 X80.088 Y66.510 E2.02455
G1 X79.354 Y66.510 E2.05622
G1 X80.490 Y67.646 E2.12556
G1 X80.490 Y68.380 E2.15723
G1 X78.620 Y66.510 E2.27136
G1 X77.886 Y66.510 E2.30303
G1 X80.490 Y69.114 E2.46194
G1 X80.490 Y69.848 E2.49361
G1 X77.152 Y66.510 E2.69731
G1 X76.418 Y66.510 E2.72898
G1 X80.490 Y70.582 E2.97747
G1 X80.490 Y71.316 E3.00914
G1 X75.684 Y66.510 E3.30242
G1 X74.950 Y66.510 E3.33409
G1 X80.490 Y72.050 E3.67215
G1 X80.490 Y72.784 E3.70382
G1 X74.216 Y66.510 E4.08667
G1 X73.482 Y66.510 E4.11834
G1 X80.490 Y73.518 E4.54598
G1 X80.490 Y74.252 E4.57765
G1 X72.748 Y66.510 E5.05007
G1 X72.014 Y66.510 E5.08174
G1 X80.490 Y74.986 E5.59896
G1 X80.490 Y75.719 E5.63063
G1 X71.281 Y66.510 E6.19263
G1 X70.547 Y66.510 E6.22430
G1 X80.490 Y76.453 E6.83108
G1 X80.490 Y77.187 E6.86275
G1 X69.813 Y66.510 E7.51433
G1 X69.510 Y66.510 E7.52739
G1 X69.510 Y66.941 E7.54600
G1 X80.490 Y77.921 E8.21604
G1 X80.490 Y78.655 E8.24771
G1 X69.510 Y67.675 E8.91775
G1 X69.510 Y68.409 E8.94942
G1 X80.490 Y79.389 E9.61946
G1 X80.490 Y80.123 E9.65113
G1 X69.510 Y69.143 E10.32118
G1 X69.510 Y69.877 E10.35285
G1 X80.490 Y80.857 E11.02289
G1 X80.490 Y81.591 E11.05456
G1 X69.510 Y70.611 E11.72460
G1 X69.510 Y71.345 E11.75627
G1 X80.490 Y82.325 E12.42631
G1 X80.490 Y83.059 E12.45798
G1 X69.510 Y72.079 E13.12803
G1 X69.510 Y72.813 E13.15970
G1 X80.187 Y83.490 E13.81127
G1 X79.453 Y83.490 E13.84294
G1 X69.510 Y73.547 E14.44973
G1 X69.510 Y74.281 E14.48140
G1 X78.719 Y83.490 E15.04340
G1 X77.986 Y83.490 E15.07507
G1 X69.510 Y75.014 E15.59228
G1 X69.510 Y75.748 E15.62395
G1 X77.252 Y83.490 E16.09638
G1 X76.518 Y83.490 E16.12805
G1 X69.510 Y76.482 E16.55569
G1 X69.510 Y77.216 E16.58736
G1 X75.784 Y83.490 E16.97021
G1 X75.050 Y83.490 E17.00188
G1 X69.510 Y77.950 E17.33994
G1 X69.510 Y78.684 E17.37161
G1 X74.316 Y83.490 E17.66489
G1 X73.582 Y83.490 E17.69656
G1 X69.510 Y79.418 E17.94505
G1 X69.510 Y80.152 E17.97672
G1 X72.848 Y83.490 E18.18042
G1 X72.114 Y83.490 E18.21209
G1 X69.510 Y80.886 E18.37101
G1 X69.510 Y81.620 E18.40268
G1 X71.380 Y83.490 E18.51681
G1 X70.646 Y83.490 E18.54848
G1 X69.510 Y82.354 E18.61782
G1 X69.510 Y83.088 E18.64949
G1 X69.912 Y83.490 E18.67403
G1 Z1.100 F7800.000
G1 E16.67403 F2400.00000
G92 E0
G1 X69.194 Y66.194 F7800.000
G1 E2.00000 F2400.00000
G1 F2400.000
G1 X80.806 Y66.194 E2.49925
G1 X80.806 Y83.806 E3.25647
G1 X69.194 Y83.806 E3.75572
G1 X69.194 Y66.254 E4.51036
G1 X68.677 Y65.677 F7800.000
G1 F2400.000
G1 X81.323 Y65.677 E5.05407
G1 X81.323 Y84.323 E5.85576
G1 X68.677 Y84.323 E6.39947
G1 X68.677 Y65.737 E7.19857
G1 X68.220 Y65.220 F7800.000
G1 F2160.000
G1 X81.780 Y65.220 E7.64629
G1 X81.780 Y84.780 E8.29211
G1 X68.220 Y84.780 E8.73982
G1 X68.220 Y65.280 E9.38366
G1 X68.599 Y65.346 F7800.000
G1 E7.38366 F2400.00000
G92 E0
G1 X69.510 Y66.912 F7800.000
G1 E2.00000 F2400.00000
G1 F1800.000
G1 X69.912 Y66.510 E2.02454
G1 X70.646 Y66.510 E2.05621
G1 X69.510 Y67.646 E2.12556
G1 X69.510 Y68.380 E2.15722
G1 X71.380 Y66.510 E2.27135
G1 X72.114 Y66.510 E2.30302
G1 X69.510 Y69.114 E2.46194
G1 X69.510 Y69.848 E2.49361
G1 X72.848 Y66.510 E2.69731
G1 X73.582 Y66.510 E2.72898
G1 X69.510 Y70.582 E2.97747
G1 X69.510 Y71.316 E3.00914
G1 X74.316 Y66.510 E3.30242
G1 X75.050 Y66.510 E3.33409
G1 X69.510 Y72.050 E3.67215
G1 X69.510 Y72.784 E3.70382
G1 X75.784 Y66.510 E4.08668
G1 X76.518 Y66.510 E4.11835
G1 X69.510 Y73.518 E4.54599
G1 X69.510 Y74.252 E4.57766
G1 X77.252 Y66.510 E5.05008
G1 X77.986 Y66.510 E5.08175
G1 X69.510 Y74.986 E5.59897
G1 X69.510 Y75.719 E5.63064
G1 X78.719 Y66.510 E6.19264
G1 X79.453 Y66.510 E6.22431
G1 X69.510 Y76.453 E6.83110
G1 X69.510 Y77.187 E6.86277
G1 X80.187 Y66.510 E7.51434
G1 X80.490 Y66.510 E7.52740
G1 X80.490 Y66.941 E7.54601
G1 X69.510 Y77.921 E8.21606
G1 X69.510 Y78.655 E8.24772
